(PP_NAME=PP_Din)
(PP_VERSION=	4.0)
(PP_INI_NAME=GC_US_PLASMA_4.7.ini)
(PP_INI_VERSION=2014-02-26)
(%%INFO MACHINE=HPRXD SS 260A H35)
(%%INFO Material=A240 304L Thickness=0.75 PlateLength=30.811 PlateWidth=71.824)
(%%INFO PartName=801531-2=1pcs=16.56lbs)
(%%INFO TotalCutLength=85.644)
(%%INFO TotalPierceCount=6)
(%%INFO TotalProductionTime=00:02:58)
G70
#CONTOUR MODE[DEV PATH_DEV=0.008 RELEVANT_PATH=0.004]
G90
(PlanHeaderCommand)
G162
G141
G237
#CS ON [V.E.START_X, V.E.START_Y, 0, 0, 0, V.E.ROTATION]
M190
G00 X-0.93750 Y7.33139
T23
(PartName=801531-2)
N1 M09
G261
G01 X-1.26470 Y7.33139
G01 X-1.26470 Y7.17139
G01 X-1.40950 Y7.17139
G01 X-1.51990 Y7.13539
G01 X-1.55430 Y7.09859
G01 X-1.58950 Y7.01939
G01 X-1.58950 Y6.90899
G01 X-1.55430 Y6.82979
G01 X-1.47910 Y6.75619
G01 X-1.37510 Y6.71379
G01 X-1.22950 Y6.67699
G01 X-1.15430 Y6.64019
G01 X-1.11990 Y6.56099
G01 X-1.11990 Y6.48819
G01 X-1.15430 Y6.40819
G01 X-1.26470 Y6.37139
G01 X-1.40950 Y6.37139
G01 X-1.51990 Y6.40819
G01 X-1.55430 Y6.48819
G01 X-1.55430 Y6.56099
G01 X-1.51990 Y6.64019
G01 X-1.44470 Y6.67699
G01 X-1.29910 Y6.71379
G01 X-1.18950 Y6.75619
G01 X-1.11990 Y6.82979
G01 X-1.08470 Y6.90899
G01 X-1.08470 Y7.01939
G01 X-1.11990 Y7.09859
G01 X-1.15430 Y7.13539
G01 X-1.26470 Y7.17139
G01 X-1.26470 Y7.33139
G01 X-1.73750 Y7.33139
G01 X-2.09910 Y7.33139
G01 X-2.09910 Y7.17139
G01 X-1.99510 Y7.13539
G01 X-1.91990 Y7.01939
G01 X-1.88470 Y6.82979
G01 X-1.88470 Y6.71379
G01 X-1.91990 Y6.52419
G01 X-1.99510 Y6.40819
G01 X-2.09910 Y6.37139
G01 X-2.17510 Y6.37139
G01 X-2.28470 Y6.40819
G01 X-2.35430 Y6.52419
G01 X-2.38950 Y6.71379
G01 X-2.38950 Y6.82979
G01 X-2.35430 Y7.01939
G01 X-2.28470 Y7.13539
G01 X-2.17510 Y7.17139
G01 X-2.09910 Y7.17139
G01 X-2.09910 Y7.33139
G01 X-2.53750 Y7.33139
G01 X-3.02710 Y7.33139
G01 X-3.02710 Y7.17139
G01 X-3.02710 Y6.37139
G01 X-2.91670 Y6.48819
G01 X-2.84710 Y6.52419
G01 X-2.91670 Y6.48819
G01 X-3.02710 Y6.37139
G01 X-3.02710 Y7.17139
G01 X-3.02710 Y7.33139
G01 X-3.33750 Y7.33139
G01 X-3.66470 Y7.33139
G01 X-3.66470 Y7.17139
G01 X-3.55430 Y7.13539
G01 X-3.51990 Y7.09859
G01 X-3.48470 Y7.01939
G01 X-3.51990 Y7.09859
G01 X-3.55430 Y7.13539
G01 X-3.66470 Y7.17139
G01 X-3.77510 Y7.17139
G01 X-3.87910 Y7.13539
G01 X-3.95430 Y7.06179
G01 X-3.98950 Y6.94579
G01 X-3.98950 Y6.86659
G01 X-3.95430 Y6.75619
G01 X-3.87910 Y6.67699
G01 X-3.77510 Y6.64019
G01 X-3.66470 Y6.64019
G01 X-3.55430 Y6.67699
G01 X-3.51990 Y6.71379
G01 X-3.55430 Y6.37139
G01 X-3.91990 Y6.37139
G01 X-3.55430 Y6.37139
G01 X-3.51990 Y6.71379
G01 X-3.55430 Y6.67699
G01 X-3.66470 Y6.64019
G01 X-3.77510 Y6.64019
G01 X-3.87910 Y6.67699
G01 X-3.95430 Y6.75619
G01 X-3.98950 Y6.86659
G01 X-3.98950 Y6.94579
G01 X-3.95430 Y7.06179
G01 X-3.87910 Y7.13539
G01 X-3.77510 Y7.17139
G01 X-3.66470 Y7.17139
G01 X-3.66470 Y7.33139
G01 X-4.13750 Y7.33139
G01 X-4.46470 Y7.33139
G01 X-4.46470 Y7.17139
G01 X-4.35430 Y7.13539
G01 X-4.31990 Y7.09859
G01 X-4.28470 Y7.01939
G01 X-4.31990 Y7.09859
G01 X-4.35430 Y7.13539
G01 X-4.46470 Y7.17139
G01 X-4.57510 Y7.17139
G01 X-4.67910 Y7.13539
G01 X-4.75430 Y7.06179
G01 X-4.78950 Y6.94579
G01 X-4.78950 Y6.86659
G01 X-4.75430 Y6.75619
G01 X-4.71990 Y6.71379
G01 X-4.64470 Y6.67699
G01 X-4.53430 Y6.67699
G01 X-4.75430 Y6.37139
G01 X-4.35430 Y6.37139
G01 X-4.75430 Y6.37139
G01 X-4.53430 Y6.67699
G01 X-4.64470 Y6.67699
G01 X-4.71990 Y6.71379
G01 X-4.75430 Y6.75619
G01 X-4.78950 Y6.86659
G01 X-4.78950 Y6.94579
G01 X-4.75430 Y7.06179
G01 X-4.67910 Y7.13539
G01 X-4.57510 Y7.17139
G01 X-4.46470 Y7.17139
G01 X-4.46470 Y7.33139
G01 X-4.93750 Y7.33139
G01 X-5.42710 Y7.33139
G01 X-5.42710 Y7.17139
G01 X-5.42710 Y6.37139
G01 X-5.31670 Y6.48819
G01 X-5.24710 Y6.52419
G01 X-5.31670 Y6.48819
G01 X-5.42710 Y6.37139
G01 X-5.42710 Y7.17139
G01 X-5.42710 Y7.33139
G01 X-5.73750 Y7.33139
G01 X-5.81270 Y7.33139
G01 X-5.81270 Y6.82979
G01 X-6.46150 Y6.82979
G01 X-5.81270 Y6.82979
G01 X-5.81270 Y7.33139
G01 X-6.53750 Y7.33139
G01 X-6.68470 Y7.33139
G01 X-6.68470 Y7.17139
G01 X-7.18950 Y7.17139
G01 X-6.68470 Y7.17139
G01 X-7.04470 Y6.79299
G01 X-7.11990 Y6.67699
G01 X-7.15430 Y6.60419
G01 X-7.15430 Y6.52419
G01 X-7.11990 Y6.45139
G01 X-7.07910 Y6.40819
G01 X-7.00950 Y6.37139
G01 X-6.86470 Y6.37139
G01 X-6.78950 Y6.40819
G01 X-6.75430 Y6.45139
G01 X-6.71990 Y6.52419
G01 X-6.71990 Y6.56099
G01 X-6.71990 Y6.52419
G01 X-6.75430 Y6.45139
G01 X-6.78950 Y6.40819
G01 X-6.86470 Y6.37139
G01 X-7.00950 Y6.37139
G01 X-7.07910 Y6.40819
G01 X-7.11990 Y6.45139
G01 X-7.15430 Y6.52419
G01 X-7.15430 Y6.60419
G01 X-7.11990 Y6.67699
G01 X-7.04470 Y6.79299
G01 X-6.68470 Y7.17139
G01 X-6.68470 Y7.33139
G01 X-7.33750 Y7.33139
G260
M10
G00 X-2.25250 Y8.07513
T22
G41
N2 M07
G261
G03 X-2.53250 Y8.35513 I-0.28000 J0.00000
G03 X-2.81250 Y8.07513 I0.00000 J-0.28000
G03 X-2.31250 Y7.57513 I0.50000 J0.00000
G03 X-1.81250 Y8.07513 I0.00000 J0.50000
G03 X-2.31250 Y8.57513 I-0.50000 J0.00000
M50
G03 X-2.81250 Y8.07513 I0.00000 J-0.50000
M06
G03 X-2.75129 Y7.83542 I0.50000 J0.00000
G260
M08
G40
M51
G00 X-2.25250 Y2.07513
G41
N3 M07
G261
G03 X-2.53250 Y2.35513 I-0.28000 J0.00000
G03 X-2.81250 Y2.07513 I0.00000 J-0.28000
G03 X-2.31250 Y1.57513 I0.50000 J0.00000
G03 X-1.81250 Y2.07513 I0.00000 J0.50000
G03 X-2.31250 Y2.57513 I-0.50000 J0.00000
M50
G03 X-2.81250 Y2.07513 I0.00000 J-0.50000
M06
G03 X-2.75129 Y1.83542 I0.50000 J0.00000
G260
M08
G40
M51
G00 X-8.25250 Y2.07513
G41
N4 M07
G261
G03 X-8.53250 Y2.35513 I-0.28000 J0.00000
G03 X-8.81250 Y2.07513 I0.00000 J-0.28000
G03 X-8.31250 Y1.57513 I0.50000 J-0.00000
G03 X-7.81250 Y2.07513 I0.00000 J0.50000
G03 X-8.31250 Y2.57513 I-0.50000 J0.00000
M50
G03 X-8.81250 Y2.07513 I0.00000 J-0.50000
M06
G03 X-8.75129 Y1.83542 I0.50000 J-0.00000
G260
M08
G40
M51
G00 X-8.25250 Y8.07513
G41
N5 M07
G261
G03 X-8.53250 Y8.35513 I-0.28000 J0.00000
G03 X-8.81250 Y8.07513 I0.00000 J-0.28000
G03 X-8.31250 Y7.57513 I0.50000 J0.00000
G03 X-7.81250 Y8.07513 I0.00000 J0.50000
G03 X-8.31250 Y8.57513 I-0.50000 J0.00000
M50
G03 X-8.81250 Y8.07513 I0.00000 J-0.50000
M06
G03 X-8.75129 Y7.83542 I0.50000 J0.00000
G260
M08
G40
M51
G00 X-0.81250 Y10.27513
T21
G41
N6 M07
G261
G01 X-0.81250 Y9.57513
G01 X-0.81250 Y0.57513
G01 X-9.81250 Y0.57513
G01 X-9.81250 Y9.57513
G01 X-1.81250 Y9.57513
M50
G01 X-0.81250 Y9.57513
G01 X-0.56250 Y9.57513
G260
M08
G40
M51
G00 X-0.36641 Y10.27513
(PartName=Remnant)
T21
G40
M07
G00 X-0.02000 Y10.47513
G01 X-0.42000 Y10.47513
G01 X-10.01250 Y10.47513
G01 X-10.01250 Y-10.34156
M50
G01 X-10.01250 Y-10.74156
M08
M51
(PlanFooterCommand)
T0
#CS OFF
M30
