(PP_NAME=PP_Din)
(PP_VERSION=	4.0)
(PP_INI_NAME=GC_US_PLASMA_4.7.ini)
(PP_INI_VERSION=2014-02-26)
(%%INFO MACHINE=HPRXD MS130)
(%%INFO Material=A36 Thickness=0.5 PlateLength=96 PlateWidth=120)
(%%INFO PartName=776942-2=1pcs=14.16lbs)
(%%INFO PartName=758398-2=1pcs=25.5lbs)
(%%INFO PartName=776020-5=1pcs=8.5lbs)
(%%INFO PartName=776943-2=1pcs=14.16lbs)
(%%INFO PartName=776922-2=1pcs=14.16lbs)
(%%INFO PartName=801600-3=1pcs=14.16lbs)
(%%INFO PartName=801599-3=1pcs=14.16lbs)
(%%INFO PartName=StrongBack_pipe-rack=8pcs=6.48lbs)
(%%INFO PartName=802819-3=1pcs=5.1lbs)
(%%INFO PartName=801530-3=1pcs=3.54lbs)
(%%INFO PartName=801535-3=1pcs=3.54lbs)
(%%INFO TotalCutLength=1109.308)
(%%INFO TotalPierceCount=29)
(%%INFO TotalProductionTime=00:19:43)
G70
#CONTOUR MODE[DEV PATH_DEV=0.008 RELEVANT_PATH=0.004]
G90
(PlanHeaderCommand)
G162
G141
G237
#CS ON [V.E.START_X, V.E.START_Y, 0, 0, 0, V.E.ROTATION]
M190
G00 X-10.56137 Y9.41500
T23
(PartName=776943-2)
N1 M09
G261
G01 X-10.26937 Y9.41500
G01 X-10.26937 Y9.57500
G01 X-9.90937 Y10.37500
G01 X-10.41417 Y10.37500
G01 X-10.41337 Y10.28300
G01 X-10.41417 Y10.37500
G01 X-9.90937 Y10.37500
G01 X-10.26937 Y9.57500
G01 X-10.26937 Y9.41500
G01 X-9.76137 Y9.41500
G01 X-9.46937 Y9.41500
G01 X-9.46937 Y9.57500
G01 X-9.10937 Y10.37500
G01 X-9.61417 Y10.37500
G01 X-9.61337 Y10.28300
G01 X-9.61417 Y10.37500
G01 X-9.10937 Y10.37500
G01 X-9.46937 Y9.57500
G01 X-9.46937 Y9.41500
G01 X-8.96137 Y9.41500
G01 X-8.58217 Y9.41500
G01 X-8.58217 Y9.57500
G01 X-8.54697 Y9.57500
G01 X-8.43737 Y9.61100
G01 X-8.36137 Y9.68460
G01 X-8.32697 Y9.80060
G01 X-8.32697 Y9.83740
G01 X-8.36137 Y9.95340
G01 X-8.43737 Y10.03260
G01 X-8.54697 Y10.06940
G01 X-8.58217 Y10.06940
G01 X-8.69257 Y10.03260
G01 X-8.76137 Y9.95340
G01 X-8.79657 Y9.83740
G01 X-8.79657 Y10.03260
G01 X-8.76137 Y10.22220
G01 X-8.69257 Y10.33820
G01 X-8.58217 Y10.37500
G01 X-8.50697 Y10.37500
G01 X-8.40217 Y10.33820
G01 X-8.36137 Y10.25820
G01 X-8.40217 Y10.33820
G01 X-8.50697 Y10.37500
G01 X-8.58217 Y10.37500
G01 X-8.69257 Y10.33820
G01 X-8.76137 Y10.22220
G01 X-8.79657 Y10.03260
G01 X-8.79657 Y9.83740
G01 X-8.76137 Y9.68460
G01 X-8.69257 Y9.61100
G01 X-8.58217 Y9.57500
G01 X-8.58217 Y9.41500
G01 X-8.16137 Y9.41500
G01 X-7.81657 Y9.41500
G01 X-7.81657 Y9.57500
G01 X-7.92697 Y9.61100
G01 X-7.96137 Y9.68460
G01 X-7.92697 Y9.61100
G01 X-7.81657 Y9.57500
G01 X-7.74697 Y9.57500
G01 X-7.63737 Y9.61100
G01 X-7.56137 Y9.72700
G01 X-7.52697 Y9.91660
G01 X-7.52697 Y10.10620
G01 X-7.56137 Y10.25820
G01 X-7.63737 Y10.33820
G01 X-7.74697 Y10.37500
G01 X-7.78217 Y10.37500
G01 X-7.89257 Y10.33820
G01 X-7.96137 Y10.25820
G01 X-7.99657 Y10.14220
G01 X-7.99657 Y10.10620
G01 X-7.96137 Y9.99020
G01 X-7.89257 Y9.91660
G01 X-7.78217 Y9.87980
G01 X-7.74697 Y9.87980
G01 X-7.63737 Y9.91660
G01 X-7.56137 Y9.99020
G01 X-7.52697 Y10.10620
G01 X-7.52697 Y9.91660
G01 X-7.56137 Y9.72700
G01 X-7.63737 Y9.61100
G01 X-7.74697 Y9.57500
G01 X-7.81657 Y9.57500
G01 X-7.81657 Y9.41500
G01 X-7.36137 Y9.41500
G01 X-6.86937 Y9.41500
G01 X-6.86937 Y9.57500
G01 X-6.86937 Y10.37500
G01 X-7.23417 Y9.83740
G01 X-6.68937 Y9.83740
G01 X-6.86937 Y9.83740
G01 X-6.86937 Y9.57500
G01 X-6.86937 Y9.41500
G01 X-6.56137 Y9.41500
G01 X-6.23417 Y9.41500
G01 X-6.23417 Y9.57500
G01 X-6.34457 Y9.61100
G01 X-6.37897 Y9.64780
G01 X-6.41417 Y9.72700
G01 X-6.37897 Y9.64780
G01 X-6.34457 Y9.61100
G01 X-6.23417 Y9.57500
G01 X-6.12377 Y9.57500
G01 X-6.01977 Y9.61100
G01 X-5.94457 Y9.68460
G01 X-5.90937 Y9.80060
G01 X-5.90937 Y9.87980
G01 X-5.94457 Y9.99020
G01 X-5.97897 Y10.03260
G01 X-6.05417 Y10.06940
G01 X-6.16457 Y10.06940
G01 X-5.94457 Y10.37500
G01 X-6.34457 Y10.37500
G01 X-5.94457 Y10.37500
G01 X-6.16457 Y10.06940
G01 X-6.05417 Y10.06940
G01 X-5.97897 Y10.03260
G01 X-5.94457 Y9.99020
G01 X-5.90937 Y9.87980
G01 X-5.90937 Y9.80060
G01 X-5.94457 Y9.68460
G01 X-6.01977 Y9.61100
G01 X-6.12377 Y9.57500
G01 X-6.23417 Y9.57500
G01 X-6.23417 Y9.41500
G01 X-5.76137 Y9.41500
G01 X-5.68617 Y9.41500
G01 X-5.68617 Y9.91660
G01 X-5.03737 Y9.91660
G01 X-5.68617 Y9.91660
G01 X-5.68617 Y9.41500
G01 X-4.96137 Y9.41500
G01 X-4.81417 Y9.41500
G01 X-4.81417 Y9.57500
G01 X-4.30937 Y9.57500
G01 X-4.81417 Y9.57500
G01 X-4.45417 Y9.95340
G01 X-4.37897 Y10.06940
G01 X-4.34457 Y10.14220
G01 X-4.34457 Y10.22220
G01 X-4.37897 Y10.29500
G01 X-4.41977 Y10.33820
G01 X-4.48937 Y10.37500
G01 X-4.63417 Y10.37500
G01 X-4.70937 Y10.33820
G01 X-4.74457 Y10.29500
G01 X-4.77897 Y10.22220
G01 X-4.77897 Y10.18540
G01 X-4.77897 Y10.22220
G01 X-4.74457 Y10.29500
G01 X-4.70937 Y10.33820
G01 X-4.63417 Y10.37500
G01 X-4.48937 Y10.37500
G01 X-4.41977 Y10.33820
G01 X-4.37897 Y10.29500
G01 X-4.34457 Y10.22220
G01 X-4.34457 Y10.14220
G01 X-4.37897 Y10.06940
G01 X-4.45417 Y9.95340
G01 X-4.81417 Y9.57500
G01 X-4.81417 Y9.41500
G01 X-4.16137 Y9.41500
G260
M10
G00 X-0.62500 Y12.35436
(PartName=776942-2)
N2 M09
G261
G01 X-0.91700 Y12.35436
G01 X-0.91700 Y12.19436
G01 X-1.27700 Y11.39436
G01 X-0.77220 Y11.39436
G01 X-0.77300 Y11.48636
G01 X-0.77220 Y11.39436
G01 X-1.27700 Y11.39436
G01 X-0.91700 Y12.19436
G01 X-0.91700 Y12.35436
G01 X-1.42500 Y12.35436
G01 X-1.71700 Y12.35436
G01 X-1.71700 Y12.19436
G01 X-2.07700 Y11.39436
G01 X-1.57220 Y11.39436
G01 X-1.57300 Y11.48636
G01 X-1.57220 Y11.39436
G01 X-2.07700 Y11.39436
G01 X-1.71700 Y12.19436
G01 X-1.71700 Y12.35436
G01 X-2.22500 Y12.35436
G01 X-2.60420 Y12.35436
G01 X-2.60420 Y12.19436
G01 X-2.63940 Y12.19436
G01 X-2.74900 Y12.15836
G01 X-2.82500 Y12.08476
G01 X-2.85940 Y11.96876
G01 X-2.85940 Y11.93196
G01 X-2.82500 Y11.81596
G01 X-2.74900 Y11.73676
G01 X-2.63940 Y11.69996
G01 X-2.60420 Y11.69996
G01 X-2.49380 Y11.73676
G01 X-2.42500 Y11.81596
G01 X-2.38980 Y11.93196
G01 X-2.38980 Y11.73676
G01 X-2.42500 Y11.54716
G01 X-2.49380 Y11.43116
G01 X-2.60420 Y11.39436
G01 X-2.67940 Y11.39436
G01 X-2.78420 Y11.43116
G01 X-2.82500 Y11.51116
G01 X-2.78420 Y11.43116
G01 X-2.67940 Y11.39436
G01 X-2.60420 Y11.39436
G01 X-2.49380 Y11.43116
G01 X-2.42500 Y11.54716
G01 X-2.38980 Y11.73676
G01 X-2.38980 Y11.93196
G01 X-2.42500 Y12.08476
G01 X-2.49380 Y12.15836
G01 X-2.60420 Y12.19436
G01 X-2.60420 Y12.35436
G01 X-3.02500 Y12.35436
G01 X-3.36980 Y12.35436
G01 X-3.36980 Y12.19436
G01 X-3.25940 Y12.15836
G01 X-3.22500 Y12.08476
G01 X-3.25940 Y12.15836
G01 X-3.36980 Y12.19436
G01 X-3.43940 Y12.19436
G01 X-3.54900 Y12.15836
G01 X-3.62500 Y12.04236
G01 X-3.65940 Y11.85276
G01 X-3.65940 Y11.66316
G01 X-3.62500 Y11.51116
G01 X-3.54900 Y11.43116
G01 X-3.43940 Y11.39436
G01 X-3.40420 Y11.39436
G01 X-3.29380 Y11.43116
G01 X-3.22500 Y11.51116
G01 X-3.18980 Y11.62716
G01 X-3.18980 Y11.66316
G01 X-3.22500 Y11.77916
G01 X-3.29380 Y11.85276
G01 X-3.40420 Y11.88956
G01 X-3.43940 Y11.88956
G01 X-3.54900 Y11.85276
G01 X-3.62500 Y11.77916
G01 X-3.65940 Y11.66316
G01 X-3.65940 Y11.85276
G01 X-3.62500 Y12.04236
G01 X-3.54900 Y12.15836
G01 X-3.43940 Y12.19436
G01 X-3.36980 Y12.19436
G01 X-3.36980 Y12.35436
G01 X-3.82500 Y12.35436
G01 X-4.31700 Y12.35436
G01 X-4.31700 Y12.19436
G01 X-4.31700 Y11.39436
G01 X-3.95220 Y11.93196
G01 X-4.49700 Y11.93196
G01 X-4.31700 Y11.93196
G01 X-4.31700 Y12.19436
G01 X-4.31700 Y12.35436
G01 X-4.62500 Y12.35436
G01 X-4.77220 Y12.35436
G01 X-4.77220 Y12.19436
G01 X-5.27700 Y12.19436
G01 X-4.77220 Y12.19436
G01 X-5.13220 Y11.81596
G01 X-5.20740 Y11.69996
G01 X-5.24180 Y11.62716
G01 X-5.24180 Y11.54716
G01 X-5.20740 Y11.47436
G01 X-5.16660 Y11.43116
G01 X-5.09700 Y11.39436
G01 X-4.95220 Y11.39436
G01 X-4.87700 Y11.43116
G01 X-4.84180 Y11.47436
G01 X-4.80740 Y11.54716
G01 X-4.80740 Y11.58396
G01 X-4.80740 Y11.54716
G01 X-4.84180 Y11.47436
G01 X-4.87700 Y11.43116
G01 X-4.95220 Y11.39436
G01 X-5.09700 Y11.39436
G01 X-5.16660 Y11.43116
G01 X-5.20740 Y11.47436
G01 X-5.24180 Y11.54716
G01 X-5.24180 Y11.62716
G01 X-5.20740 Y11.69996
G01 X-5.13220 Y11.81596
G01 X-4.77220 Y12.19436
G01 X-4.77220 Y12.35436
G01 X-5.42500 Y12.35436
G01 X-5.50020 Y12.35436
G01 X-5.50020 Y11.85276
G01 X-6.14900 Y11.85276
G01 X-5.50020 Y11.85276
G01 X-5.50020 Y12.35436
G01 X-6.22500 Y12.35436
G01 X-6.37220 Y12.35436
G01 X-6.37220 Y12.19436
G01 X-6.87700 Y12.19436
G01 X-6.37220 Y12.19436
G01 X-6.73220 Y11.81596
G01 X-6.80740 Y11.69996
G01 X-6.84180 Y11.62716
G01 X-6.84180 Y11.54716
G01 X-6.80740 Y11.47436
G01 X-6.76660 Y11.43116
G01 X-6.69700 Y11.39436
G01 X-6.55220 Y11.39436
G01 X-6.47700 Y11.43116
G01 X-6.44180 Y11.47436
G01 X-6.40740 Y11.54716
G01 X-6.40740 Y11.58396
G01 X-6.40740 Y11.54716
G01 X-6.44180 Y11.47436
G01 X-6.47700 Y11.43116
G01 X-6.55220 Y11.39436
G01 X-6.69700 Y11.39436
G01 X-6.76660 Y11.43116
G01 X-6.80740 Y11.47436
G01 X-6.84180 Y11.54716
G01 X-6.84180 Y11.62716
G01 X-6.80740 Y11.69996
G01 X-6.73220 Y11.81596
G01 X-6.37220 Y12.19436
G01 X-6.37220 Y12.35436
G01 X-7.02500 Y12.35436
G260
M10
G00 X-10.56137 Y30.53436
(PartName=776922-2)
N3 M09
G261
G01 X-10.26937 Y30.53436
G01 X-10.26937 Y30.69436
G01 X-9.90937 Y31.49436
G01 X-10.41417 Y31.49436
G01 X-10.41337 Y31.40236
G01 X-10.41417 Y31.49436
G01 X-9.90937 Y31.49436
G01 X-10.26937 Y30.69436
G01 X-10.26937 Y30.53436
G01 X-9.76137 Y30.53436
G01 X-9.46937 Y30.53436
G01 X-9.46937 Y30.69436
G01 X-9.10937 Y31.49436
G01 X-9.61417 Y31.49436
G01 X-9.61337 Y31.40236
G01 X-9.61417 Y31.49436
G01 X-9.10937 Y31.49436
G01 X-9.46937 Y30.69436
G01 X-9.46937 Y30.53436
G01 X-8.96137 Y30.53436
G01 X-8.58217 Y30.53436
G01 X-8.58217 Y30.69436
G01 X-8.54697 Y30.69436
G01 X-8.43737 Y30.73036
G01 X-8.36137 Y30.80396
G01 X-8.32697 Y30.91996
G01 X-8.32697 Y30.95676
G01 X-8.36137 Y31.07276
G01 X-8.43737 Y31.15196
G01 X-8.54697 Y31.18876
G01 X-8.58217 Y31.18876
G01 X-8.69257 Y31.15196
G01 X-8.76137 Y31.07276
G01 X-8.79657 Y30.95676
G01 X-8.79657 Y31.15196
G01 X-8.76137 Y31.34156
G01 X-8.69257 Y31.45756
G01 X-8.58217 Y31.49436
G01 X-8.50697 Y31.49436
G01 X-8.40217 Y31.45756
G01 X-8.36137 Y31.37756
G01 X-8.40217 Y31.45756
G01 X-8.50697 Y31.49436
G01 X-8.58217 Y31.49436
G01 X-8.69257 Y31.45756
G01 X-8.76137 Y31.34156
G01 X-8.79657 Y31.15196
G01 X-8.79657 Y30.95676
G01 X-8.76137 Y30.80396
G01 X-8.69257 Y30.73036
G01 X-8.58217 Y30.69436
G01 X-8.58217 Y30.53436
G01 X-8.16137 Y30.53436
G01 X-7.81657 Y30.53436
G01 X-7.81657 Y30.69436
G01 X-7.92697 Y30.73036
G01 X-7.96137 Y30.80396
G01 X-7.92697 Y30.73036
G01 X-7.81657 Y30.69436
G01 X-7.74697 Y30.69436
G01 X-7.63737 Y30.73036
G01 X-7.56137 Y30.84636
G01 X-7.52697 Y31.03596
G01 X-7.52697 Y31.22556
G01 X-7.56137 Y31.37756
G01 X-7.63737 Y31.45756
G01 X-7.74697 Y31.49436
G01 X-7.78217 Y31.49436
G01 X-7.89257 Y31.45756
G01 X-7.96137 Y31.37756
G01 X-7.99657 Y31.26156
G01 X-7.99657 Y31.22556
G01 X-7.96137 Y31.10956
G01 X-7.89257 Y31.03596
G01 X-7.78217 Y30.99916
G01 X-7.74697 Y30.99916
G01 X-7.63737 Y31.03596
G01 X-7.56137 Y31.10956
G01 X-7.52697 Y31.22556
G01 X-7.52697 Y31.03596
G01 X-7.56137 Y30.84636
G01 X-7.63737 Y30.73036
G01 X-7.74697 Y30.69436
G01 X-7.81657 Y30.69436
G01 X-7.81657 Y30.53436
G01 X-7.36137 Y30.53436
G01 X-7.21417 Y30.53436
G01 X-7.21417 Y30.69436
G01 X-6.70937 Y30.69436
G01 X-7.21417 Y30.69436
G01 X-6.85417 Y31.07276
G01 X-6.77897 Y31.18876
G01 X-6.74457 Y31.26156
G01 X-6.74457 Y31.34156
G01 X-6.77897 Y31.41436
G01 X-6.81977 Y31.45756
G01 X-6.88937 Y31.49436
G01 X-7.03417 Y31.49436
G01 X-7.10937 Y31.45756
G01 X-7.14457 Y31.41436
G01 X-7.17897 Y31.34156
G01 X-7.17897 Y31.30476
G01 X-7.17897 Y31.34156
G01 X-7.14457 Y31.41436
G01 X-7.10937 Y31.45756
G01 X-7.03417 Y31.49436
G01 X-6.88937 Y31.49436
G01 X-6.81977 Y31.45756
G01 X-6.77897 Y31.41436
G01 X-6.74457 Y31.34156
G01 X-6.74457 Y31.26156
G01 X-6.77897 Y31.18876
G01 X-6.85417 Y31.07276
G01 X-7.21417 Y30.69436
G01 X-7.21417 Y30.53436
G01 X-6.56137 Y30.53436
G01 X-6.41417 Y30.53436
G01 X-6.41417 Y30.69436
G01 X-5.90937 Y30.69436
G01 X-6.41417 Y30.69436
G01 X-6.05417 Y31.07276
G01 X-5.97897 Y31.18876
G01 X-5.94457 Y31.26156
G01 X-5.94457 Y31.34156
G01 X-5.97897 Y31.41436
G01 X-6.01977 Y31.45756
G01 X-6.08937 Y31.49436
G01 X-6.23417 Y31.49436
G01 X-6.30937 Y31.45756
G01 X-6.34457 Y31.41436
G01 X-6.37897 Y31.34156
G01 X-6.37897 Y31.30476
G01 X-6.37897 Y31.34156
G01 X-6.34457 Y31.41436
G01 X-6.30937 Y31.45756
G01 X-6.23417 Y31.49436
G01 X-6.08937 Y31.49436
G01 X-6.01977 Y31.45756
G01 X-5.97897 Y31.41436
G01 X-5.94457 Y31.34156
G01 X-5.94457 Y31.26156
G01 X-5.97897 Y31.18876
G01 X-6.05417 Y31.07276
G01 X-6.41417 Y30.69436
G01 X-6.41417 Y30.53436
G01 X-5.76137 Y30.53436
G01 X-5.68617 Y30.53436
G01 X-5.68617 Y31.03596
G01 X-5.03737 Y31.03596
G01 X-5.68617 Y31.03596
G01 X-5.68617 Y30.53436
G01 X-4.96137 Y30.53436
G01 X-4.81417 Y30.53436
G01 X-4.81417 Y30.69436
G01 X-4.30937 Y30.69436
G01 X-4.81417 Y30.69436
G01 X-4.45417 Y31.07276
G01 X-4.37897 Y31.18876
G01 X-4.34457 Y31.26156
G01 X-4.34457 Y31.34156
G01 X-4.37897 Y31.41436
G01 X-4.41977 Y31.45756
G01 X-4.48937 Y31.49436
G01 X-4.63417 Y31.49436
G01 X-4.70937 Y31.45756
G01 X-4.74457 Y31.41436
G01 X-4.77897 Y31.34156
G01 X-4.77897 Y31.30476
G01 X-4.77897 Y31.34156
G01 X-4.74457 Y31.41436
G01 X-4.70937 Y31.45756
G01 X-4.63417 Y31.49436
G01 X-4.48937 Y31.49436
G01 X-4.41977 Y31.45756
G01 X-4.37897 Y31.41436
G01 X-4.34457 Y31.34156
G01 X-4.34457 Y31.26156
G01 X-4.37897 Y31.18876
G01 X-4.45417 Y31.07276
G01 X-4.81417 Y30.69436
G01 X-4.81417 Y30.53436
G01 X-4.16137 Y30.53436
G260
M10
G00 X-9.41500 Y88.29597
(PartName=801599-3)
N4 M09
G261
G01 X-9.41500 Y88.62317
G01 X-9.57500 Y88.62317
G01 X-9.57500 Y88.76797
G01 X-9.61100 Y88.87837
G01 X-9.64780 Y88.91277
G01 X-9.72700 Y88.94797
G01 X-9.83740 Y88.94797
G01 X-9.91660 Y88.91277
G01 X-9.99020 Y88.83757
G01 X-10.03260 Y88.73357
G01 X-10.06940 Y88.58797
G01 X-10.10620 Y88.51277
G01 X-10.18540 Y88.47837
G01 X-10.25820 Y88.47837
G01 X-10.33820 Y88.51277
G01 X-10.37500 Y88.62317
G01 X-10.37500 Y88.76797
G01 X-10.33820 Y88.87837
G01 X-10.25820 Y88.91277
G01 X-10.18540 Y88.91277
G01 X-10.10620 Y88.87837
G01 X-10.06940 Y88.80317
G01 X-10.03260 Y88.65757
G01 X-9.99020 Y88.54797
G01 X-9.91660 Y88.47837
G01 X-9.83740 Y88.44317
G01 X-9.72700 Y88.44317
G01 X-9.64780 Y88.47837
G01 X-9.61100 Y88.51277
G01 X-9.57500 Y88.62317
G01 X-9.41500 Y88.62317
G01 X-9.41500 Y89.09597
G01 X-9.41500 Y89.45757
G01 X-9.57500 Y89.45757
G01 X-9.61100 Y89.35357
G01 X-9.72700 Y89.27837
G01 X-9.91660 Y89.24317
G01 X-10.03260 Y89.24317
G01 X-10.22220 Y89.27837
G01 X-10.33820 Y89.35357
G01 X-10.37500 Y89.45757
G01 X-10.37500 Y89.53357
G01 X-10.33820 Y89.64317
G01 X-10.22220 Y89.71277
G01 X-10.03260 Y89.74797
G01 X-9.91660 Y89.74797
G01 X-9.72700 Y89.71277
G01 X-9.61100 Y89.64317
G01 X-9.57500 Y89.53357
G01 X-9.57500 Y89.45757
G01 X-9.41500 Y89.45757
G01 X-9.41500 Y89.89597
G01 X-9.41500 Y90.38557
G01 X-9.57500 Y90.38557
G01 X-10.37500 Y90.38557
G01 X-10.25820 Y90.27517
G01 X-10.22220 Y90.20557
G01 X-10.25820 Y90.27517
G01 X-10.37500 Y90.38557
G01 X-9.57500 Y90.38557
G01 X-9.41500 Y90.38557
G01 X-9.41500 Y90.69597
G01 X-9.41500 Y91.02317
G01 X-9.57500 Y91.02317
G01 X-9.61100 Y90.91277
G01 X-9.64780 Y90.87837
G01 X-9.72700 Y90.84317
G01 X-9.64780 Y90.87837
G01 X-9.61100 Y90.91277
G01 X-9.57500 Y91.02317
G01 X-9.57500 Y91.13357
G01 X-9.61100 Y91.23757
G01 X-9.68460 Y91.31277
G01 X-9.80060 Y91.34797
G01 X-9.87980 Y91.34797
G01 X-9.99020 Y91.31277
G01 X-10.06940 Y91.23757
G01 X-10.10620 Y91.13357
G01 X-10.10620 Y91.02317
G01 X-10.06940 Y90.91277
G01 X-10.03260 Y90.87837
G01 X-10.37500 Y90.91277
G01 X-10.37500 Y91.27837
G01 X-10.37500 Y90.91277
G01 X-10.03260 Y90.87837
G01 X-10.06940 Y90.91277
G01 X-10.10620 Y91.02317
G01 X-10.10620 Y91.13357
G01 X-10.06940 Y91.23757
G01 X-9.99020 Y91.31277
G01 X-9.87980 Y91.34797
G01 X-9.80060 Y91.34797
G01 X-9.68460 Y91.31277
G01 X-9.61100 Y91.23757
G01 X-9.57500 Y91.13357
G01 X-9.57500 Y91.02317
G01 X-9.41500 Y91.02317
G01 X-9.41500 Y91.49597
G01 X-9.41500 Y91.84077
G01 X-9.57500 Y91.84077
G01 X-9.61100 Y91.73037
G01 X-9.68460 Y91.69597
G01 X-9.61100 Y91.73037
G01 X-9.57500 Y91.84077
G01 X-9.57500 Y91.91037
G01 X-9.61100 Y92.01997
G01 X-9.72700 Y92.09597
G01 X-9.91660 Y92.13037
G01 X-10.10620 Y92.13037
G01 X-10.25820 Y92.09597
G01 X-10.33820 Y92.01997
G01 X-10.37500 Y91.91037
G01 X-10.37500 Y91.87517
G01 X-10.33820 Y91.76477
G01 X-10.25820 Y91.69597
G01 X-10.14220 Y91.66077
G01 X-10.10620 Y91.66077
G01 X-9.99020 Y91.69597
G01 X-9.91660 Y91.76477
G01 X-9.87980 Y91.87517
G01 X-9.87980 Y91.91037
G01 X-9.91660 Y92.01997
G01 X-9.99020 Y92.09597
G01 X-10.10620 Y92.13037
G01 X-9.91660 Y92.13037
G01 X-9.72700 Y92.09597
G01 X-9.61100 Y92.01997
G01 X-9.57500 Y91.91037
G01 X-9.57500 Y91.84077
G01 X-9.41500 Y91.84077
G01 X-9.41500 Y92.29597
G01 X-9.41500 Y92.64077
G01 X-9.57500 Y92.64077
G01 X-9.61100 Y92.53037
G01 X-9.68460 Y92.49597
G01 X-9.61100 Y92.53037
G01 X-9.57500 Y92.64077
G01 X-9.57500 Y92.71037
G01 X-9.61100 Y92.81997
G01 X-9.72700 Y92.89597
G01 X-9.91660 Y92.93037
G01 X-10.10620 Y92.93037
G01 X-10.25820 Y92.89597
G01 X-10.33820 Y92.81997
G01 X-10.37500 Y92.71037
G01 X-10.37500 Y92.67517
G01 X-10.33820 Y92.56477
G01 X-10.25820 Y92.49597
G01 X-10.14220 Y92.46077
G01 X-10.10620 Y92.46077
G01 X-9.99020 Y92.49597
G01 X-9.91660 Y92.56477
G01 X-9.87980 Y92.67517
G01 X-9.87980 Y92.71037
G01 X-9.91660 Y92.81997
G01 X-9.99020 Y92.89597
G01 X-10.10620 Y92.93037
G01 X-9.91660 Y92.93037
G01 X-9.72700 Y92.89597
G01 X-9.61100 Y92.81997
G01 X-9.57500 Y92.71037
G01 X-9.57500 Y92.64077
G01 X-9.41500 Y92.64077
G01 X-9.41500 Y93.09597
G01 X-9.41500 Y93.17117
G01 X-9.91660 Y93.17117
G01 X-9.91660 Y93.81997
G01 X-9.91660 Y93.17117
G01 X-9.41500 Y93.17117
G01 X-9.41500 Y93.89597
G01 X-9.41500 Y94.22317
G01 X-9.57500 Y94.22317
G01 X-9.61100 Y94.11277
G01 X-9.64780 Y94.07837
G01 X-9.72700 Y94.04317
G01 X-9.64780 Y94.07837
G01 X-9.61100 Y94.11277
G01 X-9.57500 Y94.22317
G01 X-9.57500 Y94.33357
G01 X-9.61100 Y94.43757
G01 X-9.68460 Y94.51277
G01 X-9.80060 Y94.54797
G01 X-9.87980 Y94.54797
G01 X-9.99020 Y94.51277
G01 X-10.03260 Y94.47837
G01 X-10.06940 Y94.40317
G01 X-10.06940 Y94.29277
G01 X-10.37500 Y94.51277
G01 X-10.37500 Y94.11277
G01 X-10.37500 Y94.51277
G01 X-10.06940 Y94.29277
G01 X-10.06940 Y94.40317
G01 X-10.03260 Y94.47837
G01 X-9.99020 Y94.51277
G01 X-9.87980 Y94.54797
G01 X-9.80060 Y94.54797
G01 X-9.68460 Y94.51277
G01 X-9.61100 Y94.43757
G01 X-9.57500 Y94.33357
G01 X-9.57500 Y94.22317
G01 X-9.41500 Y94.22317
G01 X-9.41500 Y94.69597
G260
M10
G00 X-9.41500 Y98.83233
(PartName=801600-3)
N5 M09
G261
G01 X-9.41500 Y99.15953
G01 X-9.57500 Y99.15953
G01 X-9.57500 Y99.30433
G01 X-9.61100 Y99.41473
G01 X-9.64780 Y99.44913
G01 X-9.72700 Y99.48433
G01 X-9.83740 Y99.48433
G01 X-9.91660 Y99.44913
G01 X-9.99020 Y99.37393
G01 X-10.03260 Y99.26993
G01 X-10.06940 Y99.12433
G01 X-10.10620 Y99.04913
G01 X-10.18540 Y99.01473
G01 X-10.25820 Y99.01473
G01 X-10.33820 Y99.04913
G01 X-10.37500 Y99.15953
G01 X-10.37500 Y99.30433
G01 X-10.33820 Y99.41473
G01 X-10.25820 Y99.44913
G01 X-10.18540 Y99.44913
G01 X-10.10620 Y99.41473
G01 X-10.06940 Y99.33953
G01 X-10.03260 Y99.19393
G01 X-9.99020 Y99.08433
G01 X-9.91660 Y99.01473
G01 X-9.83740 Y98.97953
G01 X-9.72700 Y98.97953
G01 X-9.64780 Y99.01473
G01 X-9.61100 Y99.04913
G01 X-9.57500 Y99.15953
G01 X-9.41500 Y99.15953
G01 X-9.41500 Y99.63233
G01 X-9.41500 Y99.99393
G01 X-9.57500 Y99.99393
G01 X-9.61100 Y99.88993
G01 X-9.72700 Y99.81473
G01 X-9.91660 Y99.77953
G01 X-10.03260 Y99.77953
G01 X-10.22220 Y99.81473
G01 X-10.33820 Y99.88993
G01 X-10.37500 Y99.99393
G01 X-10.37500 Y100.06993
G01 X-10.33820 Y100.17953
G01 X-10.22220 Y100.24913
G01 X-10.03260 Y100.28433
G01 X-9.91660 Y100.28433
G01 X-9.72700 Y100.24913
G01 X-9.61100 Y100.17953
G01 X-9.57500 Y100.06993
G01 X-9.57500 Y99.99393
G01 X-9.41500 Y99.99393
G01 X-9.41500 Y100.43233
G01 X-9.41500 Y100.92193
G01 X-9.57500 Y100.92193
G01 X-10.37500 Y100.92193
G01 X-10.25820 Y100.81153
G01 X-10.22220 Y100.74193
G01 X-10.25820 Y100.81153
G01 X-10.37500 Y100.92193
G01 X-9.57500 Y100.92193
G01 X-9.41500 Y100.92193
G01 X-9.41500 Y101.23233
G01 X-9.41500 Y101.61153
G01 X-9.57500 Y101.61153
G01 X-9.57500 Y101.64673
G01 X-9.61100 Y101.75633
G01 X-9.68460 Y101.83233
G01 X-9.80060 Y101.86673
G01 X-9.83740 Y101.86673
G01 X-9.95340 Y101.83233
G01 X-10.03260 Y101.75633
G01 X-10.06940 Y101.64673
G01 X-10.06940 Y101.61153
G01 X-10.03260 Y101.50113
G01 X-9.95340 Y101.43233
G01 X-9.83740 Y101.39713
G01 X-10.03260 Y101.39713
G01 X-10.22220 Y101.43233
G01 X-10.33820 Y101.50113
G01 X-10.37500 Y101.61153
G01 X-10.37500 Y101.68673
G01 X-10.33820 Y101.79153
G01 X-10.25820 Y101.83233
G01 X-10.33820 Y101.79153
G01 X-10.37500 Y101.68673
G01 X-10.37500 Y101.61153
G01 X-10.33820 Y101.50113
G01 X-10.22220 Y101.43233
G01 X-10.03260 Y101.39713
G01 X-9.83740 Y101.39713
G01 X-9.68460 Y101.43233
G01 X-9.61100 Y101.50113
G01 X-9.57500 Y101.61153
G01 X-9.41500 Y101.61153
G01 X-9.41500 Y102.03233
G01 X-9.41500 Y102.39393
G01 X-9.57500 Y102.39393
G01 X-9.61100 Y102.28993
G01 X-9.72700 Y102.21473
G01 X-9.91660 Y102.17953
G01 X-10.03260 Y102.17953
G01 X-10.22220 Y102.21473
G01 X-10.33820 Y102.28993
G01 X-10.37500 Y102.39393
G01 X-10.37500 Y102.46993
G01 X-10.33820 Y102.57953
G01 X-10.22220 Y102.64913
G01 X-10.03260 Y102.68433
G01 X-9.91660 Y102.68433
G01 X-9.72700 Y102.64913
G01 X-9.61100 Y102.57953
G01 X-9.57500 Y102.46993
G01 X-9.57500 Y102.39393
G01 X-9.41500 Y102.39393
G01 X-9.41500 Y102.83233
G01 X-9.41500 Y103.19393
G01 X-9.57500 Y103.19393
G01 X-9.61100 Y103.08993
G01 X-9.72700 Y103.01473
G01 X-9.91660 Y102.97953
G01 X-10.03260 Y102.97953
G01 X-10.22220 Y103.01473
G01 X-10.33820 Y103.08993
G01 X-10.37500 Y103.19393
G01 X-10.37500 Y103.26993
G01 X-10.33820 Y103.37953
G01 X-10.22220 Y103.44913
G01 X-10.03260 Y103.48433
G01 X-9.91660 Y103.48433
G01 X-9.72700 Y103.44913
G01 X-9.61100 Y103.37953
G01 X-9.57500 Y103.26993
G01 X-9.57500 Y103.19393
G01 X-9.41500 Y103.19393
G01 X-9.41500 Y103.63233
G01 X-9.41500 Y103.70753
G01 X-9.91660 Y103.70753
G01 X-9.91660 Y104.35633
G01 X-9.91660 Y103.70753
G01 X-9.41500 Y103.70753
G01 X-9.41500 Y104.43233
G01 X-9.41500 Y104.75953
G01 X-9.57500 Y104.75953
G01 X-9.61100 Y104.64913
G01 X-9.64780 Y104.61473
G01 X-9.72700 Y104.57953
G01 X-9.64780 Y104.61473
G01 X-9.61100 Y104.64913
G01 X-9.57500 Y104.75953
G01 X-9.57500 Y104.86993
G01 X-9.61100 Y104.97393
G01 X-9.68460 Y105.04913
G01 X-9.80060 Y105.08433
G01 X-9.87980 Y105.08433
G01 X-9.99020 Y105.04913
G01 X-10.03260 Y105.01473
G01 X-10.06940 Y104.93953
G01 X-10.06940 Y104.82913
G01 X-10.37500 Y105.04913
G01 X-10.37500 Y104.64913
G01 X-10.37500 Y105.04913
G01 X-10.06940 Y104.82913
G01 X-10.06940 Y104.93953
G01 X-10.03260 Y105.01473
G01 X-9.99020 Y105.04913
G01 X-9.87980 Y105.08433
G01 X-9.80060 Y105.08433
G01 X-9.68460 Y105.04913
G01 X-9.61100 Y104.97393
G01 X-9.57500 Y104.86993
G01 X-9.57500 Y104.75953
G01 X-9.41500 Y104.75953
G01 X-9.41500 Y105.23233
G260
M10
G00 X-13.54347 Y1.18908
(PartName=758398-2)
N6 M09
G261
G01 X-13.68947 Y1.44196
G01 X-13.82803 Y1.36196
G01 X-14.70085 Y1.27373
G01 X-14.44845 Y0.83656
G01 X-14.36918 Y0.88325
G01 X-14.44845 Y0.83656
G01 X-14.70085 Y1.27373
G01 X-13.82803 Y1.36196
G01 X-13.68947 Y1.44196
G01 X-13.94347 Y1.88190
G01 X-14.10707 Y2.16527
G01 X-14.24563 Y2.08527
G01 X-14.22161 Y1.97166
G01 X-14.23628 Y1.92347
G01 X-14.28727 Y1.85338
G01 X-14.23628 Y1.92347
G01 X-14.22161 Y1.97166
G01 X-14.24563 Y2.08527
G01 X-14.30083 Y2.18088
G01 X-14.38401 Y2.25294
G01 X-14.48535 Y2.28127
G01 X-14.60341 Y2.25375
G01 X-14.67199 Y2.21415
G01 X-14.75000 Y2.12847
G01 X-14.78099 Y2.02374
G01 X-14.76086 Y1.91528
G01 X-14.70566 Y1.81967
G01 X-14.61859 Y1.74246
G01 X-14.56952 Y1.73107
G01 X-14.88325 Y1.58966
G01 X-15.06605 Y1.90628
G01 X-14.88325 Y1.58966
G01 X-14.56952 Y1.73107
G01 X-14.61859 Y1.74246
G01 X-14.70566 Y1.81967
G01 X-14.76086 Y1.91528
G01 X-14.78099 Y2.02374
G01 X-14.75000 Y2.12847
G01 X-14.67199 Y2.21415
G01 X-14.60341 Y2.25375
G01 X-14.48535 Y2.28127
G01 X-14.38401 Y2.25294
G01 X-14.30083 Y2.18088
G01 X-14.24563 Y2.08527
G01 X-14.10707 Y2.16527
G01 X-14.34347 Y2.57472
G01 X-14.50707 Y2.85809
G01 X-14.64563 Y2.77809
G01 X-14.71803 Y2.90349
G01 X-14.80441 Y2.98110
G01 X-14.85348 Y2.99249
G01 X-14.93967 Y2.98337
G01 X-15.03528 Y2.92817
G01 X-15.08626 Y2.85809
G01 X-15.11240 Y2.75616
G01 X-15.09712 Y2.64490
G01 X-15.05619 Y2.50040
G01 X-15.05046 Y2.41688
G01 X-15.10185 Y2.34749
G01 X-15.16490 Y2.31109
G01 X-15.25138 Y2.30088
G01 X-15.33845 Y2.37809
G01 X-15.41085 Y2.50349
G01 X-15.43418 Y2.61750
G01 X-15.38210 Y2.68729
G01 X-15.31905 Y2.72369
G01 X-15.23326 Y2.73350
G01 X-15.16379 Y2.68677
G01 X-15.05912 Y2.57908
G01 X-14.96760 Y2.50536
G01 X-14.86906 Y2.48189
G01 X-14.78288 Y2.49100
G01 X-14.68727 Y2.54620
G01 X-14.63628 Y2.61629
G01 X-14.62161 Y2.66448
G01 X-14.64563 Y2.77809
G01 X-14.50707 Y2.85809
G01 X-14.74347 Y3.26754
G01 X-14.90707 Y3.55091
G01 X-15.04563 Y3.47091
G01 X-15.02161 Y3.35730
G01 X-15.03628 Y3.30911
G01 X-15.08727 Y3.23902
G01 X-15.03628 Y3.30911
G01 X-15.02161 Y3.35730
G01 X-15.04563 Y3.47091
G01 X-15.10083 Y3.56652
G01 X-15.18401 Y3.63858
G01 X-15.28535 Y3.66691
G01 X-15.40341 Y3.63939
G01 X-15.47199 Y3.59979
G01 X-15.55000 Y3.51411
G01 X-15.56952 Y3.46312
G01 X-15.56379 Y3.37959
G01 X-15.50859 Y3.28398
G01 X-15.88325 Y3.32171
G01 X-15.68325 Y2.97530
G01 X-15.88325 Y3.32171
G01 X-15.50859 Y3.28398
G01 X-15.56379 Y3.37959
G01 X-15.56952 Y3.46312
G01 X-15.55000 Y3.51411
G01 X-15.47199 Y3.59979
G01 X-15.40341 Y3.63939
G01 X-15.28535 Y3.66691
G01 X-15.18401 Y3.63858
G01 X-15.10083 Y3.56652
G01 X-15.04563 Y3.47091
G01 X-14.90707 Y3.55091
G01 X-15.14347 Y3.96036
G01 X-15.31587 Y4.25897
G01 X-15.45443 Y4.17897
G01 X-15.43041 Y4.06536
G01 X-15.47695 Y3.99877
G01 X-15.43041 Y4.06536
G01 X-15.45443 Y4.17897
G01 X-15.48923 Y4.23924
G01 X-15.57521 Y4.31616
G01 X-15.71367 Y4.32398
G01 X-15.89506 Y4.25897
G01 X-16.05926 Y4.16417
G01 X-16.17370 Y4.05838
G01 X-16.20498 Y3.95256
G01 X-16.18205 Y3.83924
G01 X-16.16445 Y3.80876
G01 X-16.07738 Y3.73155
G01 X-15.97370 Y3.71197
G01 X-15.85564 Y3.73948
G01 X-15.82446 Y3.75748
G01 X-15.74160 Y3.84597
G01 X-15.71226 Y3.94235
G01 X-15.73559 Y4.05636
G01 X-15.75319 Y4.08684
G01 X-15.83986 Y4.16336
G01 X-15.94160 Y4.19238
G01 X-16.05926 Y4.16417
G01 X-15.89506 Y4.25897
G01 X-15.71367 Y4.32398
G01 X-15.57521 Y4.31616
G01 X-15.48923 Y4.23924
G01 X-15.45443 Y4.17897
G01 X-15.31587 Y4.25897
G01 X-15.54347 Y4.65318
G01 X-15.70707 Y4.93655
G01 X-15.84563 Y4.85655
G01 X-15.91803 Y4.98195
G01 X-16.00441 Y5.05956
G01 X-16.05348 Y5.07095
G01 X-16.13967 Y5.06183
G01 X-16.23528 Y5.00663
G01 X-16.28626 Y4.93655
G01 X-16.31240 Y4.83462
G01 X-16.29712 Y4.72336
G01 X-16.25619 Y4.57886
G01 X-16.25046 Y4.49534
G01 X-16.30185 Y4.42595
G01 X-16.36490 Y4.38955
G01 X-16.45138 Y4.37934
G01 X-16.53845 Y4.45655
G01 X-16.61085 Y4.58195
G01 X-16.63418 Y4.69596
G01 X-16.58210 Y4.76575
G01 X-16.51905 Y4.80215
G01 X-16.43326 Y4.81196
G01 X-16.36379 Y4.76523
G01 X-16.25912 Y4.65754
G01 X-16.16760 Y4.58382
G01 X-16.06906 Y4.56035
G01 X-15.98288 Y4.56946
G01 X-15.88727 Y4.62466
G01 X-15.83628 Y4.69475
G01 X-15.82161 Y4.74294
G01 X-15.84563 Y4.85655
G01 X-15.70707 Y4.93655
G01 X-15.94347 Y5.34600
G01 X-15.98107 Y5.41113
G01 X-16.41546 Y5.16033
G01 X-16.73986 Y5.72221
G01 X-16.41546 Y5.16033
G01 X-15.98107 Y5.41113
G01 X-16.34347 Y6.03882
G01 X-16.41707 Y6.16630
G01 X-16.55563 Y6.08630
G01 X-16.80803 Y6.52347
G01 X-16.55563 Y6.08630
G01 X-17.06333 Y6.20887
G01 X-17.20139 Y6.21600
G01 X-17.28164 Y6.20939
G01 X-17.35092 Y6.16939
G01 X-17.39677 Y6.10320
G01 X-17.41378 Y6.04626
G01 X-17.41085 Y5.96759
G01 X-17.33845 Y5.84219
G01 X-17.26898 Y5.79546
G01 X-17.21397 Y5.78658
G01 X-17.13372 Y5.79319
G01 X-17.10185 Y5.81159
G01 X-17.13372 Y5.79319
G01 X-17.21397 Y5.78658
G01 X-17.26898 Y5.79546
G01 X-17.33845 Y5.84219
G01 X-17.41085 Y5.96759
G01 X-17.41378 Y6.04626
G01 X-17.39677 Y6.10320
G01 X-17.35092 Y6.16939
G01 X-17.28164 Y6.20939
G01 X-17.20139 Y6.21600
G01 X-17.06333 Y6.20887
G01 X-16.55563 Y6.08630
G01 X-16.41707 Y6.16630
G01 X-16.74347 Y6.73164
G260
M10
G00 X-8.91923 Y109.77702
(PartName=776020-5)
N7 M09
G261
G01 X-9.06523 Y110.02990
G01 X-9.20379 Y109.94990
G01 X-10.07661 Y109.86167
G01 X-9.82421 Y109.42450
G01 X-9.74494 Y109.47119
G01 X-9.82421 Y109.42450
G01 X-10.07661 Y109.86167
G01 X-9.20379 Y109.94990
G01 X-9.06523 Y110.02990
G01 X-9.31923 Y110.46984
G01 X-9.46523 Y110.72272
G01 X-9.60379 Y110.64272
G01 X-10.47661 Y110.55449
G01 X-10.22421 Y110.11732
G01 X-10.14494 Y110.16401
G01 X-10.22421 Y110.11732
G01 X-10.47661 Y110.55449
G01 X-9.60379 Y110.64272
G01 X-9.46523 Y110.72272
G01 X-9.71923 Y111.16266
G01 X-9.90883 Y111.49105
G01 X-10.04739 Y111.41105
G01 X-10.06499 Y111.44154
G01 X-10.15097 Y111.51845
G01 X-10.25271 Y111.54747
G01 X-10.37037 Y111.51926
G01 X-10.40224 Y111.50086
G01 X-10.48549 Y111.41307
G01 X-10.51608 Y111.30765
G01 X-10.49315 Y111.19434
G01 X-10.47555 Y111.16385
G01 X-10.38848 Y111.08665
G01 X-10.28549 Y111.06666
G01 X-10.16744 Y111.09418
G01 X-10.33648 Y110.99658
G01 X-10.51828 Y110.93226
G01 X-10.65314 Y110.93385
G01 X-10.74021 Y111.01105
G01 X-10.77781 Y111.07618
G01 X-10.79834 Y111.18534
G01 X-10.74946 Y111.26067
G01 X-10.79834 Y111.18534
G01 X-10.77781 Y111.07618
G01 X-10.74021 Y111.01105
G01 X-10.65314 Y110.93385
G01 X-10.51828 Y110.93226
G01 X-10.33648 Y110.99658
G01 X-10.16744 Y111.09418
G01 X-10.05271 Y111.20106
G01 X-10.02337 Y111.29745
G01 X-10.04739 Y111.41105
G01 X-9.90883 Y111.49105
G01 X-10.11923 Y111.85548
G01 X-10.30003 Y112.16863
G01 X-10.43859 Y112.08863
G01 X-10.41777 Y111.98057
G01 X-10.48063 Y111.85744
G01 X-10.62723 Y111.73216
G01 X-10.72768 Y111.67416
G01 X-10.90948 Y111.60984
G01 X-11.04754 Y111.61697
G01 X-11.13141 Y111.68863
G01 X-11.16941 Y111.75445
G01 X-11.19234 Y111.86777
G01 X-11.12668 Y111.98604
G01 X-10.98008 Y112.11133
G01 X-10.87963 Y112.16933
G01 X-10.69783 Y112.23364
G01 X-10.56257 Y112.23137
G01 X-10.47659 Y112.15445
G01 X-10.43859 Y112.08863
G01 X-10.30003 Y112.16863
G01 X-10.51923 Y112.54830
G01 X-10.59283 Y112.67578
G01 X-10.73139 Y112.59578
G01 X-10.98379 Y113.03295
G01 X-10.73139 Y112.59578
G01 X-11.23909 Y112.71835
G01 X-11.37715 Y112.72547
G01 X-11.45740 Y112.71886
G01 X-11.52668 Y112.67886
G01 X-11.57253 Y112.61267
G01 X-11.58954 Y112.55574
G01 X-11.58661 Y112.47706
G01 X-11.51421 Y112.35166
G01 X-11.44474 Y112.30494
G01 X-11.38973 Y112.29605
G01 X-11.30948 Y112.30266
G01 X-11.27761 Y112.32106
G01 X-11.30948 Y112.30266
G01 X-11.38973 Y112.29605
G01 X-11.44474 Y112.30494
G01 X-11.51421 Y112.35166
G01 X-11.58661 Y112.47706
G01 X-11.58954 Y112.55574
G01 X-11.57253 Y112.61267
G01 X-11.52668 Y112.67886
G01 X-11.45740 Y112.71886
G01 X-11.37715 Y112.72547
G01 X-11.23909 Y112.71835
G01 X-10.73139 Y112.59578
G01 X-10.59283 Y112.67578
G01 X-10.91923 Y113.24112
G01 X-11.10003 Y113.55427
G01 X-11.23859 Y113.47427
G01 X-11.21777 Y113.36621
G01 X-11.28063 Y113.24308
G01 X-11.42723 Y113.11780
G01 X-11.52768 Y113.05980
G01 X-11.70948 Y112.99548
G01 X-11.84754 Y113.00261
G01 X-11.93141 Y113.07427
G01 X-11.96941 Y113.14009
G01 X-11.99234 Y113.25341
G01 X-11.92668 Y113.37168
G01 X-11.78008 Y113.49697
G01 X-11.67963 Y113.55497
G01 X-11.49783 Y113.61928
G01 X-11.36257 Y113.61701
G01 X-11.27659 Y113.54009
G01 X-11.23859 Y113.47427
G01 X-11.10003 Y113.55427
G01 X-11.31923 Y113.93394
G01 X-11.35683 Y113.99906
G01 X-11.79123 Y113.74826
G01 X-12.11563 Y114.31014
G01 X-11.79123 Y113.74826
G01 X-11.35683 Y113.99906
G01 X-11.71923 Y114.62676
G01 X-11.88283 Y114.91012
G01 X-12.02139 Y114.83012
G01 X-11.99737 Y114.71651
G01 X-12.01204 Y114.66832
G01 X-12.06303 Y114.59824
G01 X-12.01204 Y114.66832
G01 X-11.99737 Y114.71651
G01 X-12.02139 Y114.83012
G01 X-12.07659 Y114.92573
G01 X-12.15977 Y114.99780
G01 X-12.26111 Y115.02612
G01 X-12.37917 Y114.99861
G01 X-12.44776 Y114.95901
G01 X-12.52576 Y114.87332
G01 X-12.55675 Y114.76860
G01 X-12.53662 Y114.66013
G01 X-12.48142 Y114.56452
G01 X-12.39435 Y114.48731
G01 X-12.34528 Y114.47592
G01 X-12.65901 Y114.33451
G01 X-12.84181 Y114.65113
G01 X-12.65901 Y114.33451
G01 X-12.34528 Y114.47592
G01 X-12.39435 Y114.48731
G01 X-12.48142 Y114.56452
G01 X-12.53662 Y114.66013
G01 X-12.55675 Y114.76860
G01 X-12.52576 Y114.87332
G01 X-12.44776 Y114.95901
G01 X-12.37917 Y114.99861
G01 X-12.26111 Y115.02612
G01 X-12.15977 Y114.99780
G01 X-12.07659 Y114.92573
G01 X-12.02139 Y114.83012
G01 X-11.88283 Y114.91012
G01 X-12.11923 Y115.31958
G260
M10
G00 X-0.68637 Y10.87500
T21
G41
N8 M07
G261
G01 X-0.68637 Y10.50000
G01 X-0.68637 Y0.50000
G01 X-10.68637 Y0.50000
G01 X-10.68637 Y10.50000
G01 X-0.89385 Y10.50000
M50
G01 X-0.68637 Y10.50000
G01 X-0.50637 Y10.50000
G260
M08
G40
M51
G00 X-10.50000 Y10.89436
G41
N9 M07
G261
G01 X-10.50000 Y11.26936
G01 X-10.50000 Y21.26936
G01 X-0.50000 Y21.26936
G01 X-0.50000 Y11.26936
G01 X-10.29252 Y11.26936
M50
G01 X-10.50000 Y11.26936
G01 X-10.68000 Y11.26936
G260
M08
G40
M51
G00 X-0.68637 Y31.99436
G41
N10 M07
G261
G01 X-0.68637 Y31.61936
G01 X-0.68637 Y21.61936
G01 X-10.68637 Y21.61936
G01 X-10.68637 Y31.61936
G01 X-0.89385 Y31.61936
M50
G01 X-0.68637 Y31.61936
G01 X-0.50637 Y31.61936
G260
M08
G40
M51
G00 X-10.87500 Y98.17097
G41
N11 M07
G261
G01 X-10.50000 Y98.17097
G01 X-0.50000 Y98.17097
G01 X-0.50000 Y88.17097
G01 X-10.50000 Y88.17097
G01 X-10.50000 Y97.96349
M50
G01 X-10.50000 Y98.17097
G01 X-10.50000 Y98.35097
G260
M08
G40
M51
G00 X-10.87500 Y108.70733
G41
N12 M07
G261
G01 X-10.50000 Y108.70733
G01 X-0.50000 Y108.70733
G01 X-0.50000 Y98.70733
G01 X-10.50000 Y98.70733
G01 X-10.50000 Y108.49985
M50
G01 X-10.50000 Y108.70733
G01 X-10.50000 Y108.88733
G260
M08
G40
M51
G00 X-6.50000 Y32.00430
(PartName=802819-3)
G41
N13 M07
G261
G01 X-6.50000 Y32.37930
G01 X-6.50000 Y38.37930
G01 X-0.50000 Y38.37930
G01 X-0.50000 Y32.37930
G01 X-6.29252 Y32.37930
M50
G01 X-6.50000 Y32.37930
G01 X-6.68000 Y32.37930
G260
M08
G40
M51
G00 X-9.92636 Y39.63188
T22
(PartName=StrongBack_pipe-rack)
G41
N14 M07
G261
G03 X-9.80136 Y39.50688 I0.12500 J-0.00000
G01 X-9.04080 Y39.50688
G01 X-9.04080 Y42.63188
G01 X-12.16580 Y42.63188
G01 X-12.16580 Y39.50688
G01 X-10.00884 Y39.50688
M50
G01 X-9.80136 Y39.50688
M06
G03 X-9.67636 Y39.63188 I0.00000 J0.12500
G260
M08
G40
M51
G00 X-13.32534 Y47.15211
T21
G41
N15 M07
G261
G01 X-13.68152 Y47.26943
G02 X-13.85330 Y47.50688 I0.07822 J0.23745
G01 X-13.85330 Y50.51965
G02 X-13.60376 Y50.75688 I0.23754 J0.00000
G01 X-7.85330 Y50.75688
G02 X-7.35330 Y50.25688 I0.00000 J-0.50000
G01 X-7.35330 Y39.00688
G02 X-7.60330 Y38.75688 I-0.25000 J0.00000
G01 X-13.60330 Y38.75688
G02 X-13.85330 Y39.00688 I0.00000 J0.25000
G01 X-13.85330 Y41.82521
G02 X-13.45304 Y42.62540 I1.00000 J-0.00000
G01 X-9.31741 Y45.72506
G03 X-11.26561 Y49.14403 I-1.28589 J1.53182
G01 X-12.57116 Y48.59381
G03 X-12.71724 Y48.42145 I0.09709 J-0.23038
G01 X-12.90348 Y47.64085
G02 X-13.38983 Y47.25688 I-0.48635 J0.11603
G01 X-13.60330 Y47.25688
M50
G02 X-13.68152 Y47.26943 I0.00000 J0.25000
G01 X-13.85248 Y47.32575
G260
M08
G40
M51
G00 X-4.43024 Y49.87792
T22
(PartName=StrongBack_pipe-rack)
G41
N16 M07
G261
G03 X-4.55524 Y50.00292 I-0.12500 J0.00000
G01 X-5.31580 Y50.00292
G01 X-5.31580 Y46.87792
G01 X-2.19080 Y46.87792
G01 X-2.19080 Y50.00292
G01 X-4.34776 Y50.00292
M50
G01 X-4.55524 Y50.00292
M06
G03 X-4.68024 Y49.87792 I0.00000 J-0.12500
G260
M08
G40
M51
G00 X-1.03126 Y42.35770
T21
G41
N17 M07
G261
G01 X-0.67508 Y42.24037
G02 X-0.50330 Y42.00292 I-0.07822 J-0.23745
G01 X-0.50330 Y38.99015
G02 X-0.75284 Y38.75292 I-0.23754 J-0.00000
G01 X-6.50330 Y38.75292
G02 X-7.00330 Y39.25292 I0.00000 J0.50000
G01 X-7.00330 Y50.50292
G02 X-6.75330 Y50.75292 I0.25000 J0.00000
G01 X-0.75330 Y50.75292
G02 X-0.50330 Y50.50292 I0.00000 J-0.25000
G01 X-0.50330 Y47.68460
G02 X-0.90356 Y46.88440 I-1.00000 J0.00000
G01 X-5.03919 Y43.78475
G03 X-3.09099 Y40.36577 I1.28589 J-1.53182
G01 X-1.78544 Y40.91599
G03 X-1.63936 Y41.08835 I-0.09709 J0.23038
G01 X-1.45312 Y41.86896
G02 X-0.96677 Y42.25292 I0.48635 J-0.11603
G01 X-0.75330 Y42.25292
M50
G02 X-0.67508 Y42.24037 I-0.00000 J-0.25000
G01 X-0.50412 Y42.18406
G260
M08
G40
M51
G00 X-9.92636 Y51.98647
T22
(PartName=StrongBack_pipe-rack)
G41
N18 M07
G261
G03 X-9.80136 Y51.86147 I0.12500 J0.00000
G01 X-9.04080 Y51.86147
G01 X-9.04080 Y54.98647
G01 X-12.16580 Y54.98647
G01 X-12.16580 Y51.86147
G01 X-10.00884 Y51.86147
M50
G01 X-9.80136 Y51.86147
M06
G03 X-9.67636 Y51.98647 I0.00000 J0.12500
G260
M08
G40
M51
G00 X-13.32534 Y59.50670
T21
G41
N19 M07
G261
G01 X-13.68152 Y59.62402
G02 X-13.85330 Y59.86147 I0.07822 J0.23745
G01 X-13.85330 Y62.87424
G02 X-13.60376 Y63.11147 I0.23754 J0.00000
G01 X-7.85330 Y63.11147
G02 X-7.35330 Y62.61147 I0.00000 J-0.50000
G01 X-7.35330 Y51.36147
G02 X-7.60330 Y51.11147 I-0.25000 J-0.00000
G01 X-13.60330 Y51.11147
G02 X-13.85330 Y51.36147 I0.00000 J0.25000
G01 X-13.85330 Y54.17980
G02 X-13.45304 Y54.97999 I1.00000 J-0.00000
G01 X-9.31741 Y58.07965
G03 X-11.26561 Y61.49862 I-1.28589 J1.53182
G01 X-12.57116 Y60.94840
G03 X-12.71724 Y60.77604 I0.09709 J-0.23038
G01 X-12.90348 Y59.99544
G02 X-13.38983 Y59.61147 I-0.48635 J0.11603
G01 X-13.60330 Y59.61147
M50
G02 X-13.68152 Y59.62402 I0.00000 J0.25000
G01 X-13.85248 Y59.68034
G260
M08
G40
M51
G00 X-4.43024 Y62.23251
T22
(PartName=StrongBack_pipe-rack)
G41
N20 M07
G261
G03 X-4.55524 Y62.35751 I-0.12500 J0.00000
G01 X-5.31580 Y62.35751
G01 X-5.31580 Y59.23251
G01 X-2.19080 Y59.23251
G01 X-2.19080 Y62.35751
G01 X-4.34776 Y62.35751
M50
G01 X-4.55524 Y62.35751
M06
G03 X-4.68024 Y62.23251 I0.00000 J-0.12500
G260
M08
G40
M51
G00 X-1.03126 Y54.71229
T21
G41
N21 M07
G261
G01 X-0.67508 Y54.59496
G02 X-0.50330 Y54.35751 I-0.07822 J-0.23745
G01 X-0.50330 Y51.34474
G02 X-0.75284 Y51.10751 I-0.23754 J-0.00000
G01 X-6.50330 Y51.10751
G02 X-7.00330 Y51.60751 I0.00000 J0.50000
G01 X-7.00330 Y62.85751
G02 X-6.75330 Y63.10751 I0.25000 J0.00000
G01 X-0.75330 Y63.10751
G02 X-0.50330 Y62.85751 I0.00000 J-0.25000
G01 X-0.50330 Y60.03919
G02 X-0.90356 Y59.23899 I-1.00000 J0.00000
G01 X-5.03919 Y56.13934
G03 X-3.09099 Y52.72036 I1.28589 J-1.53182
G01 X-1.78544 Y53.27058
G03 X-1.63936 Y53.44294 I-0.09709 J0.23038
G01 X-1.45312 Y54.22355
G02 X-0.96677 Y54.60751 I0.48635 J-0.11603
G01 X-0.75330 Y54.60751
M50
G02 X-0.67508 Y54.59496 I-0.00000 J-0.25000
G01 X-0.50412 Y54.53865
G260
M08
G40
M51
G00 X-9.92636 Y64.34106
T22
(PartName=StrongBack_pipe-rack)
G41
N22 M07
G261
G03 X-9.80136 Y64.21606 I0.12500 J0.00000
G01 X-9.04080 Y64.21606
G01 X-9.04080 Y67.34106
G01 X-12.16580 Y67.34106
G01 X-12.16580 Y64.21606
G01 X-10.00884 Y64.21606
M50
G01 X-9.80136 Y64.21606
M06
G03 X-9.67636 Y64.34106 I0.00000 J0.12500
G260
M08
G40
M51
G00 X-13.32534 Y71.86129
T21
G41
N23 M07
G261
G01 X-13.68152 Y71.97861
G02 X-13.85330 Y72.21606 I0.07822 J0.23745
G01 X-13.85330 Y75.22883
G02 X-13.60376 Y75.46606 I0.23754 J0.00000
G01 X-7.85330 Y75.46606
G02 X-7.35330 Y74.96606 I0.00000 J-0.50000
G01 X-7.35330 Y63.71606
G02 X-7.60330 Y63.46606 I-0.25000 J0.00000
G01 X-13.60330 Y63.46606
G02 X-13.85330 Y63.71606 I-0.00000 J0.25000
G01 X-13.85330 Y66.53439
G02 X-13.45304 Y67.33458 I1.00000 J-0.00000
G01 X-9.31741 Y70.43424
G03 X-11.26561 Y73.85321 I-1.28589 J1.53182
G01 X-12.57116 Y73.30299
G03 X-12.71724 Y73.13063 I0.09709 J-0.23038
G01 X-12.90348 Y72.35003
G02 X-13.38983 Y71.96606 I-0.48635 J0.11603
G01 X-13.60330 Y71.96606
M50
G02 X-13.68152 Y71.97861 I0.00000 J0.25000
G01 X-13.85248 Y72.03493
G260
M08
G40
M51
G00 X-4.43024 Y74.58710
T22
(PartName=StrongBack_pipe-rack)
G41
N24 M07
G261
G03 X-4.55524 Y74.71210 I-0.12500 J0.00000
G01 X-5.31580 Y74.71210
G01 X-5.31580 Y71.58710
G01 X-2.19080 Y71.58710
G01 X-2.19080 Y74.71210
G01 X-4.34776 Y74.71210
M50
G01 X-4.55524 Y74.71210
M06
G03 X-4.68024 Y74.58710 I0.00000 J-0.12500
G260
M08
G40
M51
G00 X-1.03126 Y67.06688
T21
G41
N25 M07
G261
G01 X-0.67508 Y66.94955
G02 X-0.50330 Y66.71210 I-0.07822 J-0.23745
G01 X-0.50330 Y63.69933
G02 X-0.75284 Y63.46210 I-0.23754 J-0.00000
G01 X-6.50330 Y63.46210
G02 X-7.00330 Y63.96210 I0.00000 J0.50000
G01 X-7.00330 Y75.21210
G02 X-6.75330 Y75.46210 I0.25000 J0.00000
G01 X-0.75330 Y75.46210
G02 X-0.50330 Y75.21210 I0.00000 J-0.25000
G01 X-0.50330 Y72.39378
G02 X-0.90356 Y71.59358 I-1.00000 J0.00000
G01 X-5.03919 Y68.49393
G03 X-3.09099 Y65.07495 I1.28589 J-1.53182
G01 X-1.78544 Y65.62517
G03 X-1.63936 Y65.79753 I-0.09709 J0.23038
G01 X-1.45312 Y66.57814
G02 X-0.96677 Y66.96210 I0.48635 J-0.11603
G01 X-0.75330 Y66.96210
M50
G02 X-0.67508 Y66.94955 I-0.00000 J-0.25000
G01 X-0.50412 Y66.89324
G260
M08
G40
M51
G00 X-9.92636 Y76.69565
T22
(PartName=StrongBack_pipe-rack)
G41
N26 M07
G261
G03 X-9.80136 Y76.57065 I0.12500 J0.00000
G01 X-9.04080 Y76.57065
G01 X-9.04080 Y79.69565
G01 X-12.16580 Y79.69565
G01 X-12.16580 Y76.57065
G01 X-10.00884 Y76.57065
M50
G01 X-9.80136 Y76.57065
M06
G03 X-9.67636 Y76.69565 I0.00000 J0.12500
G260
M08
G40
M51
G00 X-13.32534 Y84.21588
T21
G41
N27 M07
G261
G01 X-13.68152 Y84.33320
G02 X-13.85330 Y84.57065 I0.07822 J0.23745
G01 X-13.85330 Y87.58342
G02 X-13.60376 Y87.82065 I0.23754 J0.00000
G01 X-7.85330 Y87.82065
G02 X-7.35330 Y87.32065 I0.00000 J-0.50000
G01 X-7.35330 Y76.07065
G02 X-7.60330 Y75.82065 I-0.25000 J0.00000
G01 X-13.60330 Y75.82065
G02 X-13.85330 Y76.07065 I0.00000 J0.25000
G01 X-13.85330 Y78.88898
G02 X-13.45304 Y79.68917 I1.00000 J-0.00000
G01 X-9.31741 Y82.78883
G03 X-11.26561 Y86.20780 I-1.28589 J1.53182
G01 X-12.57116 Y85.65758
G03 X-12.71724 Y85.48522 I0.09709 J-0.23038
G01 X-12.90348 Y84.70462
G02 X-13.38983 Y84.32065 I-0.48635 J0.11603
G01 X-13.60330 Y84.32065
M50
G02 X-13.68152 Y84.33320 I0.00000 J0.25000
G01 X-13.85248 Y84.38952
G260
M08
G40
M51
G00 X-4.43024 Y86.94169
T22
(PartName=StrongBack_pipe-rack)
G41
N28 M07
G261
G03 X-4.55524 Y87.06669 I-0.12500 J0.00000
G01 X-5.31580 Y87.06669
G01 X-5.31580 Y83.94169
G01 X-2.19080 Y83.94169
G01 X-2.19080 Y87.06669
G01 X-4.34776 Y87.06669
M50
G01 X-4.55524 Y87.06669
M06
G03 X-4.68024 Y86.94169 I0.00000 J-0.12500
G260
M08
G40
M51
G00 X-1.03126 Y79.42147
T21
G41
N29 M07
G261
G01 X-0.67508 Y79.30414
G02 X-0.50330 Y79.06669 I-0.07822 J-0.23745
G01 X-0.50330 Y76.05392
G02 X-0.75284 Y75.81669 I-0.23754 J-0.00000
G01 X-6.50330 Y75.81669
G02 X-7.00330 Y76.31669 I0.00000 J0.50000
G01 X-7.00330 Y87.56669
G02 X-6.75330 Y87.81669 I0.25000 J0.00000
G01 X-0.75330 Y87.81669
G02 X-0.50330 Y87.56669 I0.00000 J-0.25000
G01 X-0.50330 Y84.74837
G02 X-0.90356 Y83.94817 I-1.00000 J0.00000
G01 X-5.03919 Y80.84852
G03 X-3.09099 Y77.42954 I1.28589 J-1.53182
G01 X-1.78544 Y77.97976
G03 X-1.63936 Y78.15212 I-0.09709 J0.23038
G01 X-1.45312 Y78.93273
G02 X-0.96677 Y79.31669 I0.48635 J-0.11603
G01 X-0.75330 Y79.31669
M50
G02 X-0.67508 Y79.30414 I-0.00000 J-0.25000
G01 X-0.50412 Y79.24783
G260
M08
G40
M51
G00 X-0.69791 Y114.45553
(PartName=801530-3)
G41
N30 M07
G261
G01 X-0.69791 Y114.08053
G01 X-0.69791 Y109.08053
G01 X-5.69791 Y109.08053
G01 X-5.69791 Y114.08053
G01 X-0.90539 Y114.08053
M50
G01 X-0.69791 Y114.08053
G01 X-0.51791 Y114.08053
G260
M08
G40
M51
G00 X-6.05945 Y114.07838
(PartName=801535-3)
G41
N31 M07
G261
G01 X-6.05945 Y114.45338
G01 X-6.05945 Y119.45338
G01 X-1.05945 Y119.45338
G01 X-1.05945 Y114.45338
G01 X-5.85197 Y114.45338
M50
G01 X-6.05945 Y114.45338
G01 X-6.23945 Y114.45338
G260
M08
G40
M51
G00 X-11.70946 Y30.95908
G41
N32 M07
G261
G01 X-11.70946 Y30.58408
G01 X-11.70946 Y0.58408
G01 X-17.70946 Y0.58408
G01 X-17.70946 Y30.58408
G01 X-11.91694 Y30.58408
M50
G01 X-11.70946 Y30.58408
G01 X-11.52946 Y30.58408
G260
M08
G40
M51
G00 X-7.08815 Y119.54702
G41
N33 M07
G261
G01 X-7.08815 Y119.17202
G01 X-7.08815 Y109.17202
G01 X-13.08815 Y109.17202
G01 X-13.08815 Y119.17202
G01 X-7.29563 Y119.17202
M50
G01 X-7.08815 Y119.17202
G01 X-6.90815 Y119.17202
G260
M08
G40
M51
G00 X-14.62353 Y119.63359
(PartName=Remnant)
T21
G40
M07
G00 X-14.82353 Y119.98000
G01 X-14.82353 Y119.58000
G01 X-14.82353 Y105.88235
G01 X-11.29412 Y105.88235
G01 X-11.29412 Y88.23529
G01 X-14.82353 Y88.23529
G01 X-14.82353 Y35.69412
M50
G01 X-14.82353 Y35.29412
M08
M51
G00 X-15.18994 Y31.56471
(PartName=Remnant)
T21
G40
M07
G00 X-14.84353 Y31.76471
G01 X-15.24353 Y31.76471
G01 X-18.35294 Y31.76471
G01 X-18.35294 Y0.40000
M50
G01 X-18.35294 Y-0.00000
M08
M51
G00 X-14.62353 Y119.63359
(PartName=Remnant)
T21
G40
M07
G00 X-14.82353 Y119.98000
M50
G01 X-14.82353 Y119.77252
F80
M51
G01 X-14.82353 Y119.58000
G01 X-14.82353 Y106.08983
M50
G01 X-14.82353 Y105.88235
M51
M50
G01 X-14.61605 Y105.88235
M51
G01 X-11.50160 Y105.88235
M50
G01 X-11.29412 Y105.88235
M51
M50
G01 X-11.29412 Y105.67487
M51
G01 X-11.29412 Y88.44277
M50
G01 X-11.29412 Y88.23529
M51
M50
G01 X-11.50160 Y88.23529
M51
G01 X-14.61605 Y88.23529
M50
G01 X-14.82353 Y88.23529
M51
M50
G01 X-14.82353 Y88.02781
M51
G01 X-14.82353 Y31.76471
M50
G01 X-15.05101 Y31.76471
M51
G01 X-18.14546 Y31.76471
M50
G01 X-18.35294 Y31.76471
M51
M50
G01 X-18.35294 Y31.55723
M51
G01 X-18.35294 Y0.40000
M50
G01 X-18.35294 Y0.00000
M08
M51
(PlanFooterCommand)
T0
#CS OFF
M30
