(PP_NAME=PP_Din)
(PP_VERSION=	4.0)
(PP_INI_NAME=GC_US_PLASMA_4.7.ini)
(PP_INI_VERSION=2014-02-26)
(%%INFO MACHINE=HPRXD MS130)
(%%INFO Material=A36 Thickness=0.5 PlateLength=96 PlateWidth=120)
(%%INFO PartName=758475-4=1pcs=15.3lbs)
(%%INFO PartName=770936-4=1pcs=15.3lbs)
(%%INFO PartName=776944-2=1pcs=14.16lbs)
(%%INFO PartName=776945-2=2pcs=14.16lbs)
(%%INFO PartName=784505-4=1pcs=15.3lbs)
(%%INFO PartName=785986-4=2pcs=15.3lbs)
(%%INFO PartName=785987-4=2pcs=15.3lbs)
(%%INFO PartName=758397-2=11pcs=15.3lbs)
(%%INFO PartName=802818-3=3pcs=3.54lbs)
(%%INFO PartName=758400-2=1pcs=56.09lbs)
(%%INFO PartName=758399-1=10pcs=10.32lbs)
(%%INFO PartName=758397-1=11pcs=8.39lbs)
(%%INFO PartName=758398-1=3pcs=14.34lbs)
(%%INFO PartName=758400-1=2pcs=20.29lbs)
(%%INFO PartName=758398-2=3pcs=25.5lbs)
(%%INFO PartName=758399-2=5pcs=28.05lbs)
(%%INFO PartName=802819-3=2pcs=5.1lbs)
(%%INFO TotalCutLength=3152.367)
(%%INFO TotalPierceCount=61)
(%%INFO TotalProductionTime=01:03:34)
G70
#CONTOUR MODE[DEV PATH_DEV=0.008 RELEVANT_PATH=0.004]
G90
(PlanHeaderCommand)
G162
G141
G237
#CS ON [V.E.START_X, V.E.START_Y, 0, 0, 0, V.E.ROTATION]
M190
G00 X-0.64611 Y1.97242
T23
(PartName=758400-2)
N1 M09
G261
G01 X-0.93811 Y1.97242
G01 X-0.93811 Y1.81242
G01 X-1.29811 Y1.01242
G01 X-0.79331 Y1.01242
G01 X-0.79411 Y1.10442
G01 X-0.79331 Y1.01242
G01 X-1.29811 Y1.01242
G01 X-0.93811 Y1.81242
G01 X-0.93811 Y1.97242
G01 X-1.44611 Y1.97242
G01 X-1.77331 Y1.97242
G01 X-1.77331 Y1.81242
G01 X-1.66291 Y1.77642
G01 X-1.62851 Y1.73962
G01 X-1.59331 Y1.66042
G01 X-1.62851 Y1.73962
G01 X-1.66291 Y1.77642
G01 X-1.77331 Y1.81242
G01 X-1.88371 Y1.81242
G01 X-1.98771 Y1.77642
G01 X-2.06291 Y1.70282
G01 X-2.09811 Y1.58682
G01 X-2.09811 Y1.50762
G01 X-2.06291 Y1.39722
G01 X-1.98771 Y1.31802
G01 X-1.88371 Y1.28122
G01 X-1.77331 Y1.28122
G01 X-1.66291 Y1.31802
G01 X-1.62851 Y1.35482
G01 X-1.66291 Y1.01242
G01 X-2.02851 Y1.01242
G01 X-1.66291 Y1.01242
G01 X-1.62851 Y1.35482
G01 X-1.66291 Y1.31802
G01 X-1.77331 Y1.28122
G01 X-1.88371 Y1.28122
G01 X-1.98771 Y1.31802
G01 X-2.06291 Y1.39722
G01 X-2.09811 Y1.50762
G01 X-2.09811 Y1.58682
G01 X-2.06291 Y1.70282
G01 X-1.98771 Y1.77642
G01 X-1.88371 Y1.81242
G01 X-1.77331 Y1.81242
G01 X-1.77331 Y1.97242
G01 X-2.24611 Y1.97242
G01 X-2.57331 Y1.97242
G01 X-2.57331 Y1.81242
G01 X-2.71811 Y1.81242
G01 X-2.82851 Y1.77642
G01 X-2.86291 Y1.73962
G01 X-2.89811 Y1.66042
G01 X-2.89811 Y1.55002
G01 X-2.86291 Y1.47082
G01 X-2.78771 Y1.39722
G01 X-2.68371 Y1.35482
G01 X-2.53811 Y1.31802
G01 X-2.46291 Y1.28122
G01 X-2.42851 Y1.20202
G01 X-2.42851 Y1.12922
G01 X-2.46291 Y1.04922
G01 X-2.57331 Y1.01242
G01 X-2.71811 Y1.01242
G01 X-2.82851 Y1.04922
G01 X-2.86291 Y1.12922
G01 X-2.86291 Y1.20202
G01 X-2.82851 Y1.28122
G01 X-2.75331 Y1.31802
G01 X-2.60771 Y1.35482
G01 X-2.49811 Y1.39722
G01 X-2.42851 Y1.47082
G01 X-2.39331 Y1.55002
G01 X-2.39331 Y1.66042
G01 X-2.42851 Y1.73962
G01 X-2.46291 Y1.77642
G01 X-2.57331 Y1.81242
G01 X-2.57331 Y1.97242
G01 X-3.04611 Y1.97242
G01 X-3.53811 Y1.97242
G01 X-3.53811 Y1.81242
G01 X-3.53811 Y1.01242
G01 X-3.17331 Y1.55002
G01 X-3.71811 Y1.55002
G01 X-3.53811 Y1.55002
G01 X-3.53811 Y1.81242
G01 X-3.53811 Y1.97242
G01 X-3.84611 Y1.97242
G01 X-4.20771 Y1.97242
G01 X-4.20771 Y1.81242
G01 X-4.10371 Y1.77642
G01 X-4.02851 Y1.66042
G01 X-3.99331 Y1.47082
G01 X-3.99331 Y1.35482
G01 X-4.02851 Y1.16522
G01 X-4.10371 Y1.04922
G01 X-4.20771 Y1.01242
G01 X-4.28371 Y1.01242
G01 X-4.39331 Y1.04922
G01 X-4.46291 Y1.16522
G01 X-4.49811 Y1.35482
G01 X-4.49811 Y1.47082
G01 X-4.46291 Y1.66042
G01 X-4.39331 Y1.77642
G01 X-4.28371 Y1.81242
G01 X-4.20771 Y1.81242
G01 X-4.20771 Y1.97242
G01 X-4.64611 Y1.97242
G01 X-5.00771 Y1.97242
G01 X-5.00771 Y1.81242
G01 X-4.90371 Y1.77642
G01 X-4.82851 Y1.66042
G01 X-4.79331 Y1.47082
G01 X-4.79331 Y1.35482
G01 X-4.82851 Y1.16522
G01 X-4.90371 Y1.04922
G01 X-5.00771 Y1.01242
G01 X-5.08371 Y1.01242
G01 X-5.19331 Y1.04922
G01 X-5.26291 Y1.16522
G01 X-5.29811 Y1.35482
G01 X-5.29811 Y1.47082
G01 X-5.26291 Y1.66042
G01 X-5.19331 Y1.77642
G01 X-5.08371 Y1.81242
G01 X-5.00771 Y1.81242
G01 X-5.00771 Y1.97242
G01 X-5.44611 Y1.97242
G01 X-5.52131 Y1.97242
G01 X-5.52131 Y1.47082
G01 X-6.17011 Y1.47082
G01 X-5.52131 Y1.47082
G01 X-5.52131 Y1.97242
G01 X-6.24611 Y1.97242
G01 X-6.39331 Y1.97242
G01 X-6.39331 Y1.81242
G01 X-6.89811 Y1.81242
G01 X-6.39331 Y1.81242
G01 X-6.75331 Y1.43402
G01 X-6.82851 Y1.31802
G01 X-6.86291 Y1.24522
G01 X-6.86291 Y1.16522
G01 X-6.82851 Y1.09242
G01 X-6.78771 Y1.04922
G01 X-6.71811 Y1.01242
G01 X-6.57331 Y1.01242
G01 X-6.49811 Y1.04922
G01 X-6.46291 Y1.09242
G01 X-6.42851 Y1.16522
G01 X-6.42851 Y1.20202
G01 X-6.42851 Y1.16522
G01 X-6.46291 Y1.09242
G01 X-6.49811 Y1.04922
G01 X-6.57331 Y1.01242
G01 X-6.71811 Y1.01242
G01 X-6.78771 Y1.04922
G01 X-6.82851 Y1.09242
G01 X-6.86291 Y1.16522
G01 X-6.86291 Y1.24522
G01 X-6.82851 Y1.31802
G01 X-6.75331 Y1.43402
G01 X-6.39331 Y1.81242
G01 X-6.39331 Y1.97242
G01 X-7.04611 Y1.97242
G260
M10
G00 X-1.63931 Y73.49984
(PartName=758400-1)
N2 M09
G261
G01 X-1.63931 Y73.20784
G01 X-1.47931 Y73.20784
G01 X-0.67931 Y72.84784
G01 X-0.67931 Y73.35264
G01 X-0.77131 Y73.35184
G01 X-0.67931 Y73.35264
G01 X-0.67931 Y72.84784
G01 X-1.47931 Y73.20784
G01 X-1.63931 Y73.20784
G01 X-1.63931 Y72.69984
G01 X-1.63931 Y72.37264
G01 X-1.47931 Y72.37264
G01 X-1.44331 Y72.48304
G01 X-1.40651 Y72.51744
G01 X-1.32731 Y72.55264
G01 X-1.40651 Y72.51744
G01 X-1.44331 Y72.48304
G01 X-1.47931 Y72.37264
G01 X-1.47931 Y72.26224
G01 X-1.44331 Y72.15824
G01 X-1.36971 Y72.08304
G01 X-1.25371 Y72.04784
G01 X-1.17451 Y72.04784
G01 X-1.06411 Y72.08304
G01 X-0.98491 Y72.15824
G01 X-0.94811 Y72.26224
G01 X-0.94811 Y72.37264
G01 X-0.98491 Y72.48304
G01 X-1.02171 Y72.51744
G01 X-0.67931 Y72.48304
G01 X-0.67931 Y72.11744
G01 X-0.67931 Y72.48304
G01 X-1.02171 Y72.51744
G01 X-0.98491 Y72.48304
G01 X-0.94811 Y72.37264
G01 X-0.94811 Y72.26224
G01 X-0.98491 Y72.15824
G01 X-1.06411 Y72.08304
G01 X-1.17451 Y72.04784
G01 X-1.25371 Y72.04784
G01 X-1.36971 Y72.08304
G01 X-1.44331 Y72.15824
G01 X-1.47931 Y72.26224
G01 X-1.47931 Y72.37264
G01 X-1.63931 Y72.37264
G01 X-1.63931 Y71.89984
G01 X-1.63931 Y71.57264
G01 X-1.47931 Y71.57264
G01 X-1.47931 Y71.42784
G01 X-1.44331 Y71.31744
G01 X-1.40651 Y71.28304
G01 X-1.32731 Y71.24784
G01 X-1.21691 Y71.24784
G01 X-1.13771 Y71.28304
G01 X-1.06411 Y71.35824
G01 X-1.02171 Y71.46224
G01 X-0.98491 Y71.60784
G01 X-0.94811 Y71.68304
G01 X-0.86891 Y71.71744
G01 X-0.79611 Y71.71744
G01 X-0.71611 Y71.68304
G01 X-0.67931 Y71.57264
G01 X-0.67931 Y71.42784
G01 X-0.71611 Y71.31744
G01 X-0.79611 Y71.28304
G01 X-0.86891 Y71.28304
G01 X-0.94811 Y71.31744
G01 X-0.98491 Y71.39264
G01 X-1.02171 Y71.53824
G01 X-1.06411 Y71.64784
G01 X-1.13771 Y71.71744
G01 X-1.21691 Y71.75264
G01 X-1.32731 Y71.75264
G01 X-1.40651 Y71.71744
G01 X-1.44331 Y71.68304
G01 X-1.47931 Y71.57264
G01 X-1.63931 Y71.57264
G01 X-1.63931 Y71.09984
G01 X-1.63931 Y70.60784
G01 X-1.47931 Y70.60784
G01 X-0.67931 Y70.60784
G01 X-1.21691 Y70.97264
G01 X-1.21691 Y70.42784
G01 X-1.21691 Y70.60784
G01 X-1.47931 Y70.60784
G01 X-1.63931 Y70.60784
G01 X-1.63931 Y70.29984
G01 X-1.63931 Y69.93824
G01 X-1.47931 Y69.93824
G01 X-1.44331 Y70.04224
G01 X-1.32731 Y70.11744
G01 X-1.13771 Y70.15264
G01 X-1.02171 Y70.15264
G01 X-0.83211 Y70.11744
G01 X-0.71611 Y70.04224
G01 X-0.67931 Y69.93824
G01 X-0.67931 Y69.86224
G01 X-0.71611 Y69.75264
G01 X-0.83211 Y69.68304
G01 X-1.02171 Y69.64784
G01 X-1.13771 Y69.64784
G01 X-1.32731 Y69.68304
G01 X-1.44331 Y69.75264
G01 X-1.47931 Y69.86224
G01 X-1.47931 Y69.93824
G01 X-1.63931 Y69.93824
G01 X-1.63931 Y69.49984
G01 X-1.63931 Y69.13824
G01 X-1.47931 Y69.13824
G01 X-1.44331 Y69.24224
G01 X-1.32731 Y69.31744
G01 X-1.13771 Y69.35264
G01 X-1.02171 Y69.35264
G01 X-0.83211 Y69.31744
G01 X-0.71611 Y69.24224
G01 X-0.67931 Y69.13824
G01 X-0.67931 Y69.06224
G01 X-0.71611 Y68.95264
G01 X-0.83211 Y68.88304
G01 X-1.02171 Y68.84784
G01 X-1.13771 Y68.84784
G01 X-1.32731 Y68.88304
G01 X-1.44331 Y68.95264
G01 X-1.47931 Y69.06224
G01 X-1.47931 Y69.13824
G01 X-1.63931 Y69.13824
G01 X-1.63931 Y68.69984
G01 X-1.63931 Y68.62464
G01 X-1.13771 Y68.62464
G01 X-1.13771 Y67.97584
G01 X-1.13771 Y68.62464
G01 X-1.63931 Y68.62464
G01 X-1.63931 Y67.89984
G01 X-1.63931 Y67.41024
G01 X-1.47931 Y67.41024
G01 X-0.67931 Y67.41024
G01 X-0.79611 Y67.52064
G01 X-0.83211 Y67.59024
G01 X-0.79611 Y67.52064
G01 X-0.67931 Y67.41024
G01 X-1.47931 Y67.41024
G01 X-1.63931 Y67.41024
G01 X-1.63931 Y67.09984
G260
M10
G00 X-8.14403 Y38.08505
(PartName=758400-1)
N3 M09
G261
G01 X-8.14403 Y38.37705
G01 X-8.30403 Y38.37705
G01 X-9.10403 Y38.73705
G01 X-9.10403 Y38.23225
G01 X-9.01203 Y38.23305
G01 X-9.10403 Y38.23225
G01 X-9.10403 Y38.73705
G01 X-8.30403 Y38.37705
G01 X-8.14403 Y38.37705
G01 X-8.14403 Y38.88505
G01 X-8.14403 Y39.21225
G01 X-8.30403 Y39.21225
G01 X-8.34003 Y39.10185
G01 X-8.37683 Y39.06745
G01 X-8.45603 Y39.03225
G01 X-8.37683 Y39.06745
G01 X-8.34003 Y39.10185
G01 X-8.30403 Y39.21225
G01 X-8.30403 Y39.32265
G01 X-8.34003 Y39.42665
G01 X-8.41363 Y39.50185
G01 X-8.52963 Y39.53705
G01 X-8.60883 Y39.53705
G01 X-8.71923 Y39.50185
G01 X-8.79843 Y39.42665
G01 X-8.83523 Y39.32265
G01 X-8.83523 Y39.21225
G01 X-8.79843 Y39.10185
G01 X-8.76163 Y39.06745
G01 X-9.10403 Y39.10185
G01 X-9.10403 Y39.46745
G01 X-9.10403 Y39.10185
G01 X-8.76163 Y39.06745
G01 X-8.79843 Y39.10185
G01 X-8.83523 Y39.21225
G01 X-8.83523 Y39.32265
G01 X-8.79843 Y39.42665
G01 X-8.71923 Y39.50185
G01 X-8.60883 Y39.53705
G01 X-8.52963 Y39.53705
G01 X-8.41363 Y39.50185
G01 X-8.34003 Y39.42665
G01 X-8.30403 Y39.32265
G01 X-8.30403 Y39.21225
G01 X-8.14403 Y39.21225
G01 X-8.14403 Y39.68505
G01 X-8.14403 Y40.01225
G01 X-8.30403 Y40.01225
G01 X-8.30403 Y40.15705
G01 X-8.34003 Y40.26745
G01 X-8.37683 Y40.30185
G01 X-8.45603 Y40.33705
G01 X-8.56643 Y40.33705
G01 X-8.64563 Y40.30185
G01 X-8.71923 Y40.22665
G01 X-8.76163 Y40.12265
G01 X-8.79843 Y39.97705
G01 X-8.83523 Y39.90185
G01 X-8.91443 Y39.86745
G01 X-8.98723 Y39.86745
G01 X-9.06723 Y39.90185
G01 X-9.10403 Y40.01225
G01 X-9.10403 Y40.15705
G01 X-9.06723 Y40.26745
G01 X-8.98723 Y40.30185
G01 X-8.91443 Y40.30185
G01 X-8.83523 Y40.26745
G01 X-8.79843 Y40.19225
G01 X-8.76163 Y40.04665
G01 X-8.71923 Y39.93705
G01 X-8.64563 Y39.86745
G01 X-8.56643 Y39.83225
G01 X-8.45603 Y39.83225
G01 X-8.37683 Y39.86745
G01 X-8.34003 Y39.90185
G01 X-8.30403 Y40.01225
G01 X-8.14403 Y40.01225
G01 X-8.14403 Y40.48505
G01 X-8.14403 Y40.97705
G01 X-8.30403 Y40.97705
G01 X-9.10403 Y40.97705
G01 X-8.56643 Y40.61225
G01 X-8.56643 Y41.15705
G01 X-8.56643 Y40.97705
G01 X-8.30403 Y40.97705
G01 X-8.14403 Y40.97705
G01 X-8.14403 Y41.28505
G01 X-8.14403 Y41.64665
G01 X-8.30403 Y41.64665
G01 X-8.34003 Y41.54265
G01 X-8.45603 Y41.46745
G01 X-8.64563 Y41.43225
G01 X-8.76163 Y41.43225
G01 X-8.95123 Y41.46745
G01 X-9.06723 Y41.54265
G01 X-9.10403 Y41.64665
G01 X-9.10403 Y41.72265
G01 X-9.06723 Y41.83225
G01 X-8.95123 Y41.90185
G01 X-8.76163 Y41.93705
G01 X-8.64563 Y41.93705
G01 X-8.45603 Y41.90185
G01 X-8.34003 Y41.83225
G01 X-8.30403 Y41.72265
G01 X-8.30403 Y41.64665
G01 X-8.14403 Y41.64665
G01 X-8.14403 Y42.08505
G01 X-8.14403 Y42.44665
G01 X-8.30403 Y42.44665
G01 X-8.34003 Y42.34265
G01 X-8.45603 Y42.26745
G01 X-8.64563 Y42.23225
G01 X-8.76163 Y42.23225
G01 X-8.95123 Y42.26745
G01 X-9.06723 Y42.34265
G01 X-9.10403 Y42.44665
G01 X-9.10403 Y42.52265
G01 X-9.06723 Y42.63225
G01 X-8.95123 Y42.70185
G01 X-8.76163 Y42.73705
G01 X-8.64563 Y42.73705
G01 X-8.45603 Y42.70185
G01 X-8.34003 Y42.63225
G01 X-8.30403 Y42.52265
G01 X-8.30403 Y42.44665
G01 X-8.14403 Y42.44665
G01 X-8.14403 Y42.88505
G01 X-8.14403 Y42.96025
G01 X-8.64563 Y42.96025
G01 X-8.64563 Y43.60905
G01 X-8.64563 Y42.96025
G01 X-8.14403 Y42.96025
G01 X-8.14403 Y43.68505
G01 X-8.14403 Y44.17465
G01 X-8.30403 Y44.17465
G01 X-9.10403 Y44.17465
G01 X-8.98723 Y44.06425
G01 X-8.95123 Y43.99465
G01 X-8.98723 Y44.06425
G01 X-9.10403 Y44.17465
G01 X-8.30403 Y44.17465
G01 X-8.14403 Y44.17465
G01 X-8.14403 Y44.48505
G260
M10
G00 X12.74919 Y114.60586
(PartName=758398-2)
N4 M09
G261
G01 X12.89519 Y114.35298
G01 X13.03375 Y114.43298
G01 X13.90657 Y114.52121
G01 X13.65417 Y114.95838
G01 X13.57490 Y114.91169
G01 X13.65417 Y114.95838
G01 X13.90657 Y114.52121
G01 X13.03375 Y114.43298
G01 X12.89519 Y114.35298
G01 X13.14919 Y113.91304
G01 X13.31279 Y113.62968
G01 X13.45135 Y113.70968
G01 X13.42733 Y113.82328
G01 X13.44200 Y113.87148
G01 X13.49299 Y113.94156
G01 X13.44200 Y113.87148
G01 X13.42733 Y113.82328
G01 X13.45135 Y113.70968
G01 X13.50655 Y113.61407
G01 X13.58973 Y113.54200
G01 X13.69107 Y113.51367
G01 X13.80913 Y113.54119
G01 X13.87772 Y113.58079
G01 X13.95573 Y113.66647
G01 X13.98672 Y113.77120
G01 X13.96659 Y113.87967
G01 X13.91139 Y113.97528
G01 X13.82432 Y114.05248
G01 X13.77525 Y114.06388
G01 X14.08897 Y114.20528
G01 X14.27177 Y113.88867
G01 X14.08897 Y114.20528
G01 X13.77525 Y114.06388
G01 X13.82432 Y114.05248
G01 X13.91139 Y113.97528
G01 X13.96659 Y113.87967
G01 X13.98672 Y113.77120
G01 X13.95573 Y113.66647
G01 X13.87772 Y113.58079
G01 X13.80913 Y113.54119
G01 X13.69107 Y113.51367
G01 X13.58973 Y113.54200
G01 X13.50655 Y113.61407
G01 X13.45135 Y113.70968
G01 X13.31279 Y113.62968
G01 X13.54919 Y113.22022
G01 X13.71279 Y112.93686
G01 X13.85135 Y113.01686
G01 X13.92375 Y112.89145
G01 X14.01013 Y112.81385
G01 X14.05920 Y112.80245
G01 X14.14539 Y112.81157
G01 X14.24100 Y112.86677
G01 X14.29199 Y112.93685
G01 X14.31813 Y113.03878
G01 X14.30285 Y113.15005
G01 X14.26192 Y113.29454
G01 X14.25619 Y113.37806
G01 X14.30758 Y113.44746
G01 X14.37062 Y113.48386
G01 X14.45710 Y113.49406
G01 X14.54417 Y113.41686
G01 X14.61657 Y113.29145
G01 X14.63990 Y113.17745
G01 X14.58782 Y113.10765
G01 X14.52478 Y113.07125
G01 X14.43899 Y113.06145
G01 X14.36952 Y113.10817
G01 X14.26485 Y113.21586
G01 X14.17333 Y113.28958
G01 X14.07479 Y113.31306
G01 X13.98860 Y113.30394
G01 X13.89299 Y113.24874
G01 X13.84200 Y113.17866
G01 X13.82733 Y113.13046
G01 X13.85135 Y113.01686
G01 X13.71279 Y112.93686
G01 X13.94919 Y112.52740
G01 X14.11279 Y112.24403
G01 X14.25135 Y112.32403
G01 X14.22733 Y112.43764
G01 X14.24200 Y112.48584
G01 X14.29299 Y112.55592
G01 X14.24200 Y112.48584
G01 X14.22733 Y112.43764
G01 X14.25135 Y112.32403
G01 X14.30655 Y112.22843
G01 X14.38973 Y112.15636
G01 X14.49107 Y112.12803
G01 X14.60913 Y112.15555
G01 X14.67772 Y112.19515
G01 X14.75573 Y112.28083
G01 X14.77525 Y112.33183
G01 X14.76952 Y112.41535
G01 X14.71432 Y112.51096
G01 X15.08897 Y112.47323
G01 X14.88897 Y112.81964
G01 X15.08897 Y112.47323
G01 X14.71432 Y112.51096
G01 X14.76952 Y112.41535
G01 X14.77525 Y112.33183
G01 X14.75573 Y112.28083
G01 X14.67772 Y112.19515
G01 X14.60913 Y112.15555
G01 X14.49107 Y112.12803
G01 X14.38973 Y112.15636
G01 X14.30655 Y112.22843
G01 X14.25135 Y112.32403
G01 X14.11279 Y112.24403
G01 X14.34919 Y111.83458
G01 X14.52159 Y111.53597
G01 X14.66015 Y111.61597
G01 X14.63613 Y111.72958
G01 X14.68267 Y111.79617
G01 X14.63613 Y111.72958
G01 X14.66015 Y111.61597
G01 X14.69495 Y111.55570
G01 X14.78093 Y111.47878
G01 X14.91939 Y111.47096
G01 X15.10079 Y111.53597
G01 X15.26499 Y111.63077
G01 X15.37942 Y111.73656
G01 X15.41070 Y111.84238
G01 X15.38777 Y111.95570
G01 X15.37017 Y111.98618
G01 X15.28310 Y112.06339
G01 X15.17942 Y112.08297
G01 X15.06136 Y112.05546
G01 X15.03019 Y112.03746
G01 X14.94733 Y111.94897
G01 X14.91799 Y111.85259
G01 X14.94132 Y111.73858
G01 X14.95892 Y111.70810
G01 X15.04559 Y111.63158
G01 X15.14733 Y111.60256
G01 X15.26499 Y111.63077
G01 X15.10079 Y111.53597
G01 X14.91939 Y111.47096
G01 X14.78093 Y111.47878
G01 X14.69495 Y111.55570
G01 X14.66015 Y111.61597
G01 X14.52159 Y111.53597
G01 X14.74919 Y111.14176
G01 X14.91279 Y110.85839
G01 X15.05135 Y110.93839
G01 X15.12375 Y110.81299
G01 X15.21013 Y110.73538
G01 X15.25920 Y110.72399
G01 X15.34539 Y110.73311
G01 X15.44100 Y110.78831
G01 X15.49199 Y110.85839
G01 X15.51813 Y110.96032
G01 X15.50285 Y111.07159
G01 X15.46192 Y111.21608
G01 X15.45619 Y111.29960
G01 X15.50758 Y111.36899
G01 X15.57062 Y111.40539
G01 X15.65710 Y111.41560
G01 X15.74417 Y111.33839
G01 X15.81657 Y111.21299
G01 X15.83990 Y111.09898
G01 X15.78782 Y111.02919
G01 X15.72478 Y110.99279
G01 X15.63899 Y110.98298
G01 X15.56952 Y111.02971
G01 X15.46485 Y111.13740
G01 X15.37333 Y111.21112
G01 X15.27479 Y111.23459
G01 X15.18860 Y111.22548
G01 X15.09299 Y111.17028
G01 X15.04200 Y111.10019
G01 X15.02733 Y111.05200
G01 X15.05135 Y110.93839
G01 X14.91279 Y110.85839
G01 X15.14919 Y110.44894
G01 X15.18679 Y110.38381
G01 X15.62119 Y110.63461
G01 X15.94559 Y110.07274
G01 X15.62119 Y110.63461
G01 X15.18679 Y110.38381
G01 X15.54919 Y109.75612
G01 X15.62279 Y109.62864
G01 X15.76135 Y109.70864
G01 X16.01375 Y109.27147
G01 X15.76135 Y109.70864
G01 X16.26906 Y109.58607
G01 X16.40712 Y109.57894
G01 X16.48736 Y109.58555
G01 X16.55665 Y109.62555
G01 X16.60249 Y109.69174
G01 X16.61950 Y109.74868
G01 X16.61657 Y109.82735
G01 X16.54417 Y109.95275
G01 X16.47470 Y109.99948
G01 X16.41969 Y110.00836
G01 X16.33945 Y110.00175
G01 X16.30758 Y109.98335
G01 X16.33945 Y110.00175
G01 X16.41969 Y110.00836
G01 X16.47470 Y109.99948
G01 X16.54417 Y109.95275
G01 X16.61657 Y109.82735
G01 X16.61950 Y109.74868
G01 X16.60249 Y109.69174
G01 X16.55665 Y109.62555
G01 X16.48736 Y109.58555
G01 X16.40712 Y109.57894
G01 X16.26906 Y109.58607
G01 X15.76135 Y109.70864
G01 X15.62279 Y109.62864
G01 X15.94919 Y109.06330
G260
M10
G00 X8.70361 Y86.14187
(PartName=758398-2)
N5 M09
G261
G01 X8.55761 Y86.39475
G01 X8.41905 Y86.31475
G01 X7.54623 Y86.22652
G01 X7.79863 Y85.78935
G01 X7.87790 Y85.83605
G01 X7.79863 Y85.78935
G01 X7.54623 Y86.22652
G01 X8.41905 Y86.31475
G01 X8.55761 Y86.39475
G01 X8.30361 Y86.83470
G01 X8.14001 Y87.11806
G01 X8.00145 Y87.03806
G01 X8.02547 Y86.92445
G01 X8.01080 Y86.87626
G01 X7.95981 Y86.80617
G01 X8.01080 Y86.87626
G01 X8.02547 Y86.92445
G01 X8.00145 Y87.03806
G01 X7.94625 Y87.13367
G01 X7.86307 Y87.20573
G01 X7.76173 Y87.23406
G01 X7.64367 Y87.20654
G01 X7.57508 Y87.16694
G01 X7.49707 Y87.08126
G01 X7.46609 Y86.97653
G01 X7.48622 Y86.86807
G01 X7.54142 Y86.77246
G01 X7.62849 Y86.69525
G01 X7.67756 Y86.68386
G01 X7.36383 Y86.54245
G01 X7.18103 Y86.85907
G01 X7.36383 Y86.54245
G01 X7.67756 Y86.68386
G01 X7.62849 Y86.69525
G01 X7.54142 Y86.77246
G01 X7.48622 Y86.86807
G01 X7.46609 Y86.97653
G01 X7.49707 Y87.08126
G01 X7.57508 Y87.16694
G01 X7.64367 Y87.20654
G01 X7.76173 Y87.23406
G01 X7.86307 Y87.20573
G01 X7.94625 Y87.13367
G01 X8.00145 Y87.03806
G01 X8.14001 Y87.11806
G01 X7.90361 Y87.52752
G01 X7.74001 Y87.81088
G01 X7.60145 Y87.73088
G01 X7.52905 Y87.85628
G01 X7.44267 Y87.93389
G01 X7.39360 Y87.94528
G01 X7.30741 Y87.93616
G01 X7.21180 Y87.88096
G01 X7.16081 Y87.81088
G01 X7.13467 Y87.70895
G01 X7.14996 Y87.59769
G01 X7.19089 Y87.45320
G01 X7.19662 Y87.36967
G01 X7.14523 Y87.30028
G01 X7.08218 Y87.26388
G01 X6.99570 Y87.25367
G01 X6.90863 Y87.33088
G01 X6.83623 Y87.45628
G01 X6.81290 Y87.57029
G01 X6.86498 Y87.64008
G01 X6.92803 Y87.67648
G01 X7.01382 Y87.68629
G01 X7.08329 Y87.63956
G01 X7.18796 Y87.53187
G01 X7.27947 Y87.45815
G01 X7.37801 Y87.43468
G01 X7.46420 Y87.44379
G01 X7.55981 Y87.49899
G01 X7.61080 Y87.56908
G01 X7.62547 Y87.61727
G01 X7.60145 Y87.73088
G01 X7.74001 Y87.81088
G01 X7.50361 Y88.22034
G01 X7.34001 Y88.50370
G01 X7.20145 Y88.42370
G01 X7.22547 Y88.31009
G01 X7.21080 Y88.26190
G01 X7.15981 Y88.19181
G01 X7.21080 Y88.26190
G01 X7.22547 Y88.31009
G01 X7.20145 Y88.42370
G01 X7.14625 Y88.51931
G01 X7.06307 Y88.59138
G01 X6.96173 Y88.61970
G01 X6.84367 Y88.59218
G01 X6.77508 Y88.55258
G01 X6.69707 Y88.46690
G01 X6.67756 Y88.41591
G01 X6.68329 Y88.33238
G01 X6.73849 Y88.23677
G01 X6.36383 Y88.27450
G01 X6.56383 Y87.92809
G01 X6.36383 Y88.27450
G01 X6.73849 Y88.23677
G01 X6.68329 Y88.33238
G01 X6.67756 Y88.41591
G01 X6.69707 Y88.46690
G01 X6.77508 Y88.55258
G01 X6.84367 Y88.59218
G01 X6.96173 Y88.61970
G01 X7.06307 Y88.59138
G01 X7.14625 Y88.51931
G01 X7.20145 Y88.42370
G01 X7.34001 Y88.50370
G01 X7.10361 Y88.91316
G01 X6.93121 Y89.21176
G01 X6.79265 Y89.13176
G01 X6.81667 Y89.01815
G01 X6.77013 Y88.95156
G01 X6.81667 Y89.01815
G01 X6.79265 Y89.13176
G01 X6.75785 Y89.19204
G01 X6.67187 Y89.26895
G01 X6.53341 Y89.27677
G01 X6.35201 Y89.21176
G01 X6.18782 Y89.11696
G01 X6.07338 Y89.01117
G01 X6.04210 Y88.90535
G01 X6.06503 Y88.79204
G01 X6.08263 Y88.76155
G01 X6.16970 Y88.68434
G01 X6.27338 Y88.66476
G01 X6.39144 Y88.69228
G01 X6.42262 Y88.71028
G01 X6.50547 Y88.79876
G01 X6.53481 Y88.89514
G01 X6.51148 Y89.00915
G01 X6.49388 Y89.03964
G01 X6.40721 Y89.11615
G01 X6.30547 Y89.14517
G01 X6.18782 Y89.11696
G01 X6.35201 Y89.21176
G01 X6.53341 Y89.27677
G01 X6.67187 Y89.26895
G01 X6.75785 Y89.19204
G01 X6.79265 Y89.13176
G01 X6.93121 Y89.21176
G01 X6.70361 Y89.60598
G01 X6.54001 Y89.88934
G01 X6.40145 Y89.80934
G01 X6.32905 Y89.93474
G01 X6.24267 Y90.01235
G01 X6.19360 Y90.02374
G01 X6.10741 Y90.01463
G01 X6.01180 Y89.95943
G01 X5.96081 Y89.88934
G01 X5.93467 Y89.78742
G01 X5.94996 Y89.67615
G01 X5.99089 Y89.53166
G01 X5.99662 Y89.44813
G01 X5.94523 Y89.37874
G01 X5.88218 Y89.34234
G01 X5.79570 Y89.33213
G01 X5.70863 Y89.40934
G01 X5.63623 Y89.53474
G01 X5.61290 Y89.64875
G01 X5.66498 Y89.71854
G01 X5.72803 Y89.75494
G01 X5.81382 Y89.76475
G01 X5.88329 Y89.71802
G01 X5.98796 Y89.61033
G01 X6.07947 Y89.53661
G01 X6.17801 Y89.51314
G01 X6.26420 Y89.52226
G01 X6.35981 Y89.57746
G01 X6.41080 Y89.64754
G01 X6.42547 Y89.69573
G01 X6.40145 Y89.80934
G01 X6.54001 Y89.88934
G01 X6.30361 Y90.29880
G01 X6.26601 Y90.36392
G01 X5.83161 Y90.11312
G01 X5.50721 Y90.67500
G01 X5.83161 Y90.11312
G01 X6.26601 Y90.36392
G01 X5.90361 Y90.99162
G01 X5.83001 Y91.11910
G01 X5.69145 Y91.03910
G01 X5.43905 Y91.47627
G01 X5.69145 Y91.03910
G01 X5.18374 Y91.16167
G01 X5.04569 Y91.16879
G01 X4.96544 Y91.16218
G01 X4.89616 Y91.12218
G01 X4.85031 Y91.05599
G01 X4.83330 Y90.99906
G01 X4.83623 Y90.92038
G01 X4.90863 Y90.79498
G01 X4.97810 Y90.74826
G01 X5.03311 Y90.73937
G01 X5.11336 Y90.74598
G01 X5.14523 Y90.76438
G01 X5.11336 Y90.74598
G01 X5.03311 Y90.73937
G01 X4.97810 Y90.74826
G01 X4.90863 Y90.79498
G01 X4.83623 Y90.92038
G01 X4.83330 Y90.99906
G01 X4.85031 Y91.05599
G01 X4.89616 Y91.12218
G01 X4.96544 Y91.16218
G01 X5.04569 Y91.16879
G01 X5.18374 Y91.16167
G01 X5.69145 Y91.03910
G01 X5.83001 Y91.11910
G01 X5.50361 Y91.68444
G260
M10
G00 X0.02163 Y114.20958
(PartName=758398-2)
N6 M09
G261
G01 X0.16763 Y113.95670
G01 X0.30619 Y114.03670
G01 X1.17902 Y114.12493
G01 X0.92662 Y114.56210
G01 X0.84734 Y114.51541
G01 X0.92662 Y114.56210
G01 X1.17902 Y114.12493
G01 X0.30619 Y114.03670
G01 X0.16763 Y113.95670
G01 X0.42163 Y113.51676
G01 X0.58523 Y113.23340
G01 X0.72379 Y113.31340
G01 X0.69977 Y113.42701
G01 X0.71444 Y113.47520
G01 X0.76543 Y113.54528
G01 X0.71444 Y113.47520
G01 X0.69977 Y113.42701
G01 X0.72379 Y113.31340
G01 X0.77899 Y113.21779
G01 X0.86217 Y113.14572
G01 X0.96351 Y113.11740
G01 X1.08157 Y113.14491
G01 X1.15016 Y113.18451
G01 X1.22817 Y113.27020
G01 X1.25916 Y113.37492
G01 X1.23903 Y113.48339
G01 X1.18383 Y113.57900
G01 X1.09676 Y113.65621
G01 X1.04769 Y113.66760
G01 X1.36142 Y113.80901
G01 X1.54422 Y113.49239
G01 X1.36142 Y113.80901
G01 X1.04769 Y113.66760
G01 X1.09676 Y113.65621
G01 X1.18383 Y113.57900
G01 X1.23903 Y113.48339
G01 X1.25916 Y113.37492
G01 X1.22817 Y113.27020
G01 X1.15016 Y113.18451
G01 X1.08157 Y113.14491
G01 X0.96351 Y113.11740
G01 X0.86217 Y113.14572
G01 X0.77899 Y113.21779
G01 X0.72379 Y113.31340
G01 X0.58523 Y113.23340
G01 X0.82163 Y112.82394
G01 X0.98523 Y112.54058
G01 X1.12379 Y112.62058
G01 X1.19619 Y112.49518
G01 X1.28257 Y112.41757
G01 X1.33164 Y112.40617
G01 X1.41783 Y112.41529
G01 X1.51344 Y112.47049
G01 X1.56443 Y112.54057
G01 X1.59057 Y112.64250
G01 X1.57529 Y112.75377
G01 X1.53436 Y112.89826
G01 X1.52863 Y112.98179
G01 X1.58002 Y113.05118
G01 X1.64306 Y113.08758
G01 X1.72955 Y113.09779
G01 X1.81662 Y113.02058
G01 X1.88902 Y112.89518
G01 X1.91235 Y112.78117
G01 X1.86026 Y112.71137
G01 X1.79722 Y112.67497
G01 X1.71143 Y112.66517
G01 X1.64196 Y112.71189
G01 X1.53729 Y112.81958
G01 X1.44577 Y112.89330
G01 X1.34723 Y112.91678
G01 X1.26104 Y112.90766
G01 X1.16543 Y112.85246
G01 X1.11444 Y112.78238
G01 X1.09977 Y112.73419
G01 X1.12379 Y112.62058
G01 X0.98523 Y112.54058
G01 X1.22163 Y112.13112
G01 X1.38523 Y111.84776
G01 X1.52379 Y111.92776
G01 X1.49977 Y112.04136
G01 X1.51444 Y112.08956
G01 X1.56543 Y112.15964
G01 X1.51444 Y112.08956
G01 X1.49977 Y112.04136
G01 X1.52379 Y111.92776
G01 X1.57899 Y111.83215
G01 X1.66217 Y111.76008
G01 X1.76351 Y111.73175
G01 X1.88157 Y111.75927
G01 X1.95016 Y111.79887
G01 X2.02817 Y111.88455
G01 X2.04769 Y111.93555
G01 X2.04196 Y112.01907
G01 X1.98676 Y112.11468
G01 X2.36142 Y112.07695
G01 X2.16142 Y112.42336
G01 X2.36142 Y112.07695
G01 X1.98676 Y112.11468
G01 X2.04196 Y112.01907
G01 X2.04769 Y111.93555
G01 X2.02817 Y111.88455
G01 X1.95016 Y111.79887
G01 X1.88157 Y111.75927
G01 X1.76351 Y111.73175
G01 X1.66217 Y111.76008
G01 X1.57899 Y111.83215
G01 X1.52379 Y111.92776
G01 X1.38523 Y111.84776
G01 X1.62163 Y111.43830
G01 X1.79403 Y111.13969
G01 X1.93259 Y111.21969
G01 X1.90857 Y111.33330
G01 X1.95511 Y111.39989
G01 X1.90857 Y111.33330
G01 X1.93259 Y111.21969
G01 X1.96739 Y111.15942
G01 X2.05337 Y111.08250
G01 X2.19183 Y111.07468
G01 X2.37323 Y111.13969
G01 X2.53743 Y111.23449
G01 X2.65186 Y111.34028
G01 X2.68315 Y111.44610
G01 X2.66022 Y111.55942
G01 X2.64262 Y111.58990
G01 X2.55555 Y111.66711
G01 X2.45186 Y111.68669
G01 X2.33380 Y111.65918
G01 X2.30263 Y111.64118
G01 X2.21977 Y111.55269
G01 X2.19043 Y111.45631
G01 X2.21376 Y111.34230
G01 X2.23136 Y111.31182
G01 X2.31803 Y111.23530
G01 X2.41977 Y111.20628
G01 X2.53743 Y111.23449
G01 X2.37323 Y111.13969
G01 X2.19183 Y111.07468
G01 X2.05337 Y111.08250
G01 X1.96739 Y111.15942
G01 X1.93259 Y111.21969
G01 X1.79403 Y111.13969
G01 X2.02163 Y110.74548
G01 X2.18523 Y110.46211
G01 X2.32379 Y110.54211
G01 X2.39619 Y110.41671
G01 X2.48257 Y110.33911
G01 X2.53164 Y110.32771
G01 X2.61783 Y110.33683
G01 X2.71344 Y110.39203
G01 X2.76443 Y110.46211
G01 X2.79057 Y110.56404
G01 X2.77529 Y110.67531
G01 X2.73436 Y110.81980
G01 X2.72863 Y110.90332
G01 X2.78002 Y110.97272
G01 X2.84306 Y111.00912
G01 X2.92955 Y111.01932
G01 X3.01662 Y110.94211
G01 X3.08902 Y110.81671
G01 X3.11235 Y110.70271
G01 X3.06026 Y110.63291
G01 X2.99722 Y110.59651
G01 X2.91143 Y110.58671
G01 X2.84196 Y110.63343
G01 X2.73729 Y110.74112
G01 X2.64577 Y110.81484
G01 X2.54723 Y110.83832
G01 X2.46104 Y110.82920
G01 X2.36543 Y110.77400
G01 X2.31444 Y110.70392
G01 X2.29977 Y110.65572
G01 X2.32379 Y110.54211
G01 X2.18523 Y110.46211
G01 X2.42163 Y110.05266
G01 X2.45923 Y109.98753
G01 X2.89363 Y110.23833
G01 X3.21803 Y109.67646
G01 X2.89363 Y110.23833
G01 X2.45923 Y109.98753
G01 X2.82163 Y109.35984
G01 X2.89523 Y109.23236
G01 X3.03379 Y109.31236
G01 X3.28619 Y108.87519
G01 X3.03379 Y109.31236
G01 X3.54150 Y109.18979
G01 X3.67956 Y109.18266
G01 X3.75980 Y109.18927
G01 X3.82909 Y109.22927
G01 X3.87493 Y109.29546
G01 X3.89195 Y109.35240
G01 X3.88902 Y109.43107
G01 X3.81662 Y109.55647
G01 X3.74715 Y109.60320
G01 X3.69213 Y109.61208
G01 X3.61189 Y109.60547
G01 X3.58002 Y109.58707
G01 X3.61189 Y109.60547
G01 X3.69213 Y109.61208
G01 X3.74715 Y109.60320
G01 X3.81662 Y109.55647
G01 X3.88902 Y109.43107
G01 X3.89195 Y109.35240
G01 X3.87493 Y109.29546
G01 X3.82909 Y109.22927
G01 X3.75980 Y109.18927
G01 X3.67956 Y109.18266
G01 X3.54150 Y109.18979
G01 X3.03379 Y109.31236
G01 X2.89523 Y109.23236
G01 X3.22163 Y108.66702
G260
M10
G00 X-3.26432 Y115.03924
(PartName=758398-1)
N7 M09
G261
G01 X-3.26432 Y114.74724
G01 X-3.10432 Y114.74724
G01 X-2.30432 Y114.38724
G01 X-2.30432 Y114.89204
G01 X-2.39632 Y114.89124
G01 X-2.30432 Y114.89204
G01 X-2.30432 Y114.38724
G01 X-3.10432 Y114.74724
G01 X-3.26432 Y114.74724
G01 X-3.26432 Y114.23924
G01 X-3.26432 Y113.91204
G01 X-3.10432 Y113.91204
G01 X-3.06832 Y114.02244
G01 X-3.03152 Y114.05684
G01 X-2.95232 Y114.09204
G01 X-3.03152 Y114.05684
G01 X-3.06832 Y114.02244
G01 X-3.10432 Y113.91204
G01 X-3.10432 Y113.80164
G01 X-3.06832 Y113.69764
G01 X-2.99472 Y113.62244
G01 X-2.87872 Y113.58724
G01 X-2.79952 Y113.58724
G01 X-2.68912 Y113.62244
G01 X-2.60992 Y113.69764
G01 X-2.57312 Y113.80164
G01 X-2.57312 Y113.91204
G01 X-2.60992 Y114.02244
G01 X-2.64672 Y114.05684
G01 X-2.30432 Y114.02244
G01 X-2.30432 Y113.65684
G01 X-2.30432 Y114.02244
G01 X-2.64672 Y114.05684
G01 X-2.60992 Y114.02244
G01 X-2.57312 Y113.91204
G01 X-2.57312 Y113.80164
G01 X-2.60992 Y113.69764
G01 X-2.68912 Y113.62244
G01 X-2.79952 Y113.58724
G01 X-2.87872 Y113.58724
G01 X-2.99472 Y113.62244
G01 X-3.06832 Y113.69764
G01 X-3.10432 Y113.80164
G01 X-3.10432 Y113.91204
G01 X-3.26432 Y113.91204
G01 X-3.26432 Y113.43924
G01 X-3.26432 Y113.11204
G01 X-3.10432 Y113.11204
G01 X-3.10432 Y112.96724
G01 X-3.06832 Y112.85684
G01 X-3.03152 Y112.82244
G01 X-2.95232 Y112.78724
G01 X-2.84192 Y112.78724
G01 X-2.76272 Y112.82244
G01 X-2.68912 Y112.89764
G01 X-2.64672 Y113.00164
G01 X-2.60992 Y113.14724
G01 X-2.57312 Y113.22244
G01 X-2.49392 Y113.25684
G01 X-2.42112 Y113.25684
G01 X-2.34112 Y113.22244
G01 X-2.30432 Y113.11204
G01 X-2.30432 Y112.96724
G01 X-2.34112 Y112.85684
G01 X-2.42112 Y112.82244
G01 X-2.49392 Y112.82244
G01 X-2.57312 Y112.85684
G01 X-2.60992 Y112.93204
G01 X-2.64672 Y113.07764
G01 X-2.68912 Y113.18724
G01 X-2.76272 Y113.25684
G01 X-2.84192 Y113.29204
G01 X-2.95232 Y113.29204
G01 X-3.03152 Y113.25684
G01 X-3.06832 Y113.22244
G01 X-3.10432 Y113.11204
G01 X-3.26432 Y113.11204
G01 X-3.26432 Y112.63924
G01 X-3.26432 Y112.31204
G01 X-3.10432 Y112.31204
G01 X-3.06832 Y112.42244
G01 X-3.03152 Y112.45684
G01 X-2.95232 Y112.49204
G01 X-3.03152 Y112.45684
G01 X-3.06832 Y112.42244
G01 X-3.10432 Y112.31204
G01 X-3.10432 Y112.20164
G01 X-3.06832 Y112.09764
G01 X-2.99472 Y112.02244
G01 X-2.87872 Y111.98724
G01 X-2.79952 Y111.98724
G01 X-2.68912 Y112.02244
G01 X-2.64672 Y112.05684
G01 X-2.60992 Y112.13204
G01 X-2.60992 Y112.24244
G01 X-2.30432 Y112.02244
G01 X-2.30432 Y112.42244
G01 X-2.30432 Y112.02244
G01 X-2.60992 Y112.24244
G01 X-2.60992 Y112.13204
G01 X-2.64672 Y112.05684
G01 X-2.68912 Y112.02244
G01 X-2.79952 Y111.98724
G01 X-2.87872 Y111.98724
G01 X-2.99472 Y112.02244
G01 X-3.06832 Y112.09764
G01 X-3.10432 Y112.20164
G01 X-3.10432 Y112.31204
G01 X-3.26432 Y112.31204
G01 X-3.26432 Y111.83924
G01 X-3.26432 Y111.49444
G01 X-3.10432 Y111.49444
G01 X-3.06832 Y111.60484
G01 X-2.99472 Y111.63924
G01 X-3.06832 Y111.60484
G01 X-3.10432 Y111.49444
G01 X-3.10432 Y111.42484
G01 X-3.06832 Y111.31524
G01 X-2.95232 Y111.23924
G01 X-2.76272 Y111.20484
G01 X-2.57312 Y111.20484
G01 X-2.42112 Y111.23924
G01 X-2.34112 Y111.31524
G01 X-2.30432 Y111.42484
G01 X-2.30432 Y111.46004
G01 X-2.34112 Y111.57044
G01 X-2.42112 Y111.63924
G01 X-2.53712 Y111.67444
G01 X-2.57312 Y111.67444
G01 X-2.68912 Y111.63924
G01 X-2.76272 Y111.57044
G01 X-2.79952 Y111.46004
G01 X-2.79952 Y111.42484
G01 X-2.76272 Y111.31524
G01 X-2.68912 Y111.23924
G01 X-2.57312 Y111.20484
G01 X-2.76272 Y111.20484
G01 X-2.95232 Y111.23924
G01 X-3.06832 Y111.31524
G01 X-3.10432 Y111.42484
G01 X-3.10432 Y111.49444
G01 X-3.26432 Y111.49444
G01 X-3.26432 Y111.03924
G01 X-3.26432 Y110.71204
G01 X-3.10432 Y110.71204
G01 X-3.10432 Y110.56724
G01 X-3.06832 Y110.45684
G01 X-3.03152 Y110.42244
G01 X-2.95232 Y110.38724
G01 X-2.84192 Y110.38724
G01 X-2.76272 Y110.42244
G01 X-2.68912 Y110.49764
G01 X-2.64672 Y110.60164
G01 X-2.60992 Y110.74724
G01 X-2.57312 Y110.82244
G01 X-2.49392 Y110.85684
G01 X-2.42112 Y110.85684
G01 X-2.34112 Y110.82244
G01 X-2.30432 Y110.71204
G01 X-2.30432 Y110.56724
G01 X-2.34112 Y110.45684
G01 X-2.42112 Y110.42244
G01 X-2.49392 Y110.42244
G01 X-2.57312 Y110.45684
G01 X-2.60992 Y110.53204
G01 X-2.64672 Y110.67764
G01 X-2.68912 Y110.78724
G01 X-2.76272 Y110.85684
G01 X-2.84192 Y110.89204
G01 X-2.95232 Y110.89204
G01 X-3.03152 Y110.85684
G01 X-3.06832 Y110.82244
G01 X-3.10432 Y110.71204
G01 X-3.26432 Y110.71204
G01 X-3.26432 Y110.23924
G01 X-3.26432 Y110.16404
G01 X-2.76272 Y110.16404
G01 X-2.76272 Y109.51524
G01 X-2.76272 Y110.16404
G01 X-3.26432 Y110.16404
G01 X-3.26432 Y109.43924
G01 X-3.26432 Y108.94964
G01 X-3.10432 Y108.94964
G01 X-2.30432 Y108.94964
G01 X-2.42112 Y109.06004
G01 X-2.45712 Y109.12964
G01 X-2.42112 Y109.06004
G01 X-2.30432 Y108.94964
G01 X-3.10432 Y108.94964
G01 X-3.26432 Y108.94964
G01 X-3.26432 Y108.63924
G260
M10
G00 X-8.47709 Y85.61525
(PartName=758398-1)
N8 M09
G261
G01 X-8.47709 Y85.90725
G01 X-8.63709 Y85.90725
G01 X-9.43709 Y86.26725
G01 X-9.43709 Y85.76245
G01 X-9.34509 Y85.76325
G01 X-9.43709 Y85.76245
G01 X-9.43709 Y86.26725
G01 X-8.63709 Y85.90725
G01 X-8.47709 Y85.90725
G01 X-8.47709 Y86.41525
G01 X-8.47709 Y86.74245
G01 X-8.63709 Y86.74245
G01 X-8.67309 Y86.63205
G01 X-8.70989 Y86.59765
G01 X-8.78909 Y86.56245
G01 X-8.70989 Y86.59765
G01 X-8.67309 Y86.63205
G01 X-8.63709 Y86.74245
G01 X-8.63709 Y86.85285
G01 X-8.67309 Y86.95685
G01 X-8.74669 Y87.03205
G01 X-8.86269 Y87.06725
G01 X-8.94189 Y87.06725
G01 X-9.05229 Y87.03205
G01 X-9.13149 Y86.95685
G01 X-9.16829 Y86.85285
G01 X-9.16829 Y86.74245
G01 X-9.13149 Y86.63205
G01 X-9.09469 Y86.59765
G01 X-9.43709 Y86.63205
G01 X-9.43709 Y86.99765
G01 X-9.43709 Y86.63205
G01 X-9.09469 Y86.59765
G01 X-9.13149 Y86.63205
G01 X-9.16829 Y86.74245
G01 X-9.16829 Y86.85285
G01 X-9.13149 Y86.95685
G01 X-9.05229 Y87.03205
G01 X-8.94189 Y87.06725
G01 X-8.86269 Y87.06725
G01 X-8.74669 Y87.03205
G01 X-8.67309 Y86.95685
G01 X-8.63709 Y86.85285
G01 X-8.63709 Y86.74245
G01 X-8.47709 Y86.74245
G01 X-8.47709 Y87.21525
G01 X-8.47709 Y87.54245
G01 X-8.63709 Y87.54245
G01 X-8.63709 Y87.68725
G01 X-8.67309 Y87.79765
G01 X-8.70989 Y87.83205
G01 X-8.78909 Y87.86725
G01 X-8.89949 Y87.86725
G01 X-8.97869 Y87.83205
G01 X-9.05229 Y87.75685
G01 X-9.09469 Y87.65285
G01 X-9.13149 Y87.50725
G01 X-9.16829 Y87.43205
G01 X-9.24749 Y87.39765
G01 X-9.32029 Y87.39765
G01 X-9.40029 Y87.43205
G01 X-9.43709 Y87.54245
G01 X-9.43709 Y87.68725
G01 X-9.40029 Y87.79765
G01 X-9.32029 Y87.83205
G01 X-9.24749 Y87.83205
G01 X-9.16829 Y87.79765
G01 X-9.13149 Y87.72245
G01 X-9.09469 Y87.57685
G01 X-9.05229 Y87.46725
G01 X-8.97869 Y87.39765
G01 X-8.89949 Y87.36245
G01 X-8.78909 Y87.36245
G01 X-8.70989 Y87.39765
G01 X-8.67309 Y87.43205
G01 X-8.63709 Y87.54245
G01 X-8.47709 Y87.54245
G01 X-8.47709 Y88.01525
G01 X-8.47709 Y88.34245
G01 X-8.63709 Y88.34245
G01 X-8.67309 Y88.23205
G01 X-8.70989 Y88.19765
G01 X-8.78909 Y88.16245
G01 X-8.70989 Y88.19765
G01 X-8.67309 Y88.23205
G01 X-8.63709 Y88.34245
G01 X-8.63709 Y88.45285
G01 X-8.67309 Y88.55685
G01 X-8.74669 Y88.63205
G01 X-8.86269 Y88.66725
G01 X-8.94189 Y88.66725
G01 X-9.05229 Y88.63205
G01 X-9.09469 Y88.59765
G01 X-9.13149 Y88.52245
G01 X-9.13149 Y88.41205
G01 X-9.43709 Y88.63205
G01 X-9.43709 Y88.23205
G01 X-9.43709 Y88.63205
G01 X-9.13149 Y88.41205
G01 X-9.13149 Y88.52245
G01 X-9.09469 Y88.59765
G01 X-9.05229 Y88.63205
G01 X-8.94189 Y88.66725
G01 X-8.86269 Y88.66725
G01 X-8.74669 Y88.63205
G01 X-8.67309 Y88.55685
G01 X-8.63709 Y88.45285
G01 X-8.63709 Y88.34245
G01 X-8.47709 Y88.34245
G01 X-8.47709 Y88.81525
G01 X-8.47709 Y89.16005
G01 X-8.63709 Y89.16005
G01 X-8.67309 Y89.04965
G01 X-8.74669 Y89.01525
G01 X-8.67309 Y89.04965
G01 X-8.63709 Y89.16005
G01 X-8.63709 Y89.22965
G01 X-8.67309 Y89.33925
G01 X-8.78909 Y89.41525
G01 X-8.97869 Y89.44965
G01 X-9.16829 Y89.44965
G01 X-9.32029 Y89.41525
G01 X-9.40029 Y89.33925
G01 X-9.43709 Y89.22965
G01 X-9.43709 Y89.19445
G01 X-9.40029 Y89.08405
G01 X-9.32029 Y89.01525
G01 X-9.20429 Y88.98005
G01 X-9.16829 Y88.98005
G01 X-9.05229 Y89.01525
G01 X-8.97869 Y89.08405
G01 X-8.94189 Y89.19445
G01 X-8.94189 Y89.22965
G01 X-8.97869 Y89.33925
G01 X-9.05229 Y89.41525
G01 X-9.16829 Y89.44965
G01 X-8.97869 Y89.44965
G01 X-8.78909 Y89.41525
G01 X-8.67309 Y89.33925
G01 X-8.63709 Y89.22965
G01 X-8.63709 Y89.16005
G01 X-8.47709 Y89.16005
G01 X-8.47709 Y89.61525
G01 X-8.47709 Y89.94245
G01 X-8.63709 Y89.94245
G01 X-8.63709 Y90.08725
G01 X-8.67309 Y90.19765
G01 X-8.70989 Y90.23205
G01 X-8.78909 Y90.26725
G01 X-8.89949 Y90.26725
G01 X-8.97869 Y90.23205
G01 X-9.05229 Y90.15685
G01 X-9.09469 Y90.05285
G01 X-9.13149 Y89.90725
G01 X-9.16829 Y89.83205
G01 X-9.24749 Y89.79765
G01 X-9.32029 Y89.79765
G01 X-9.40029 Y89.83205
G01 X-9.43709 Y89.94245
G01 X-9.43709 Y90.08725
G01 X-9.40029 Y90.19765
G01 X-9.32029 Y90.23205
G01 X-9.24749 Y90.23205
G01 X-9.16829 Y90.19765
G01 X-9.13149 Y90.12245
G01 X-9.09469 Y89.97685
G01 X-9.05229 Y89.86725
G01 X-8.97869 Y89.79765
G01 X-8.89949 Y89.76245
G01 X-8.78909 Y89.76245
G01 X-8.70989 Y89.79765
G01 X-8.67309 Y89.83205
G01 X-8.63709 Y89.94245
G01 X-8.47709 Y89.94245
G01 X-8.47709 Y90.41525
G01 X-8.47709 Y90.49045
G01 X-8.97869 Y90.49045
G01 X-8.97869 Y91.13925
G01 X-8.97869 Y90.49045
G01 X-8.47709 Y90.49045
G01 X-8.47709 Y91.21525
G01 X-8.47709 Y91.70485
G01 X-8.63709 Y91.70485
G01 X-9.43709 Y91.70485
G01 X-9.32029 Y91.59445
G01 X-9.28429 Y91.52485
G01 X-9.32029 Y91.59445
G01 X-9.43709 Y91.70485
G01 X-8.63709 Y91.70485
G01 X-8.47709 Y91.70485
G01 X-8.47709 Y92.01525
G260
M10
G00 X-10.70039 Y67.11275
(PartName=758398-1)
N9 M09
G261
G01 X-10.70039 Y66.82075
G01 X-10.54039 Y66.82075
G01 X-9.74039 Y66.46075
G01 X-9.74039 Y66.96555
G01 X-9.83239 Y66.96475
G01 X-9.74039 Y66.96555
G01 X-9.74039 Y66.46075
G01 X-10.54039 Y66.82075
G01 X-10.70039 Y66.82075
G01 X-10.70039 Y66.31275
G01 X-10.70039 Y65.98555
G01 X-10.54039 Y65.98555
G01 X-10.50439 Y66.09595
G01 X-10.46759 Y66.13035
G01 X-10.38839 Y66.16555
G01 X-10.46759 Y66.13035
G01 X-10.50439 Y66.09595
G01 X-10.54039 Y65.98555
G01 X-10.54039 Y65.87515
G01 X-10.50439 Y65.77115
G01 X-10.43079 Y65.69595
G01 X-10.31479 Y65.66075
G01 X-10.23559 Y65.66075
G01 X-10.12519 Y65.69595
G01 X-10.04599 Y65.77115
G01 X-10.00919 Y65.87515
G01 X-10.00919 Y65.98555
G01 X-10.04599 Y66.09595
G01 X-10.08279 Y66.13035
G01 X-9.74039 Y66.09595
G01 X-9.74039 Y65.73035
G01 X-9.74039 Y66.09595
G01 X-10.08279 Y66.13035
G01 X-10.04599 Y66.09595
G01 X-10.00919 Y65.98555
G01 X-10.00919 Y65.87515
G01 X-10.04599 Y65.77115
G01 X-10.12519 Y65.69595
G01 X-10.23559 Y65.66075
G01 X-10.31479 Y65.66075
G01 X-10.43079 Y65.69595
G01 X-10.50439 Y65.77115
G01 X-10.54039 Y65.87515
G01 X-10.54039 Y65.98555
G01 X-10.70039 Y65.98555
G01 X-10.70039 Y65.51275
G01 X-10.70039 Y65.18555
G01 X-10.54039 Y65.18555
G01 X-10.54039 Y65.04075
G01 X-10.50439 Y64.93035
G01 X-10.46759 Y64.89595
G01 X-10.38839 Y64.86075
G01 X-10.27799 Y64.86075
G01 X-10.19879 Y64.89595
G01 X-10.12519 Y64.97115
G01 X-10.08279 Y65.07515
G01 X-10.04599 Y65.22075
G01 X-10.00919 Y65.29595
G01 X-9.92999 Y65.33035
G01 X-9.85719 Y65.33035
G01 X-9.77719 Y65.29595
G01 X-9.74039 Y65.18555
G01 X-9.74039 Y65.04075
G01 X-9.77719 Y64.93035
G01 X-9.85719 Y64.89595
G01 X-9.92999 Y64.89595
G01 X-10.00919 Y64.93035
G01 X-10.04599 Y65.00555
G01 X-10.08279 Y65.15115
G01 X-10.12519 Y65.26075
G01 X-10.19879 Y65.33035
G01 X-10.27799 Y65.36555
G01 X-10.38839 Y65.36555
G01 X-10.46759 Y65.33035
G01 X-10.50439 Y65.29595
G01 X-10.54039 Y65.18555
G01 X-10.70039 Y65.18555
G01 X-10.70039 Y64.71275
G01 X-10.70039 Y64.38555
G01 X-10.54039 Y64.38555
G01 X-10.50439 Y64.49595
G01 X-10.46759 Y64.53035
G01 X-10.38839 Y64.56555
G01 X-10.46759 Y64.53035
G01 X-10.50439 Y64.49595
G01 X-10.54039 Y64.38555
G01 X-10.54039 Y64.27515
G01 X-10.50439 Y64.17115
G01 X-10.43079 Y64.09595
G01 X-10.31479 Y64.06075
G01 X-10.23559 Y64.06075
G01 X-10.12519 Y64.09595
G01 X-10.08279 Y64.13035
G01 X-10.04599 Y64.20555
G01 X-10.04599 Y64.31595
G01 X-9.74039 Y64.09595
G01 X-9.74039 Y64.49595
G01 X-9.74039 Y64.09595
G01 X-10.04599 Y64.31595
G01 X-10.04599 Y64.20555
G01 X-10.08279 Y64.13035
G01 X-10.12519 Y64.09595
G01 X-10.23559 Y64.06075
G01 X-10.31479 Y64.06075
G01 X-10.43079 Y64.09595
G01 X-10.50439 Y64.17115
G01 X-10.54039 Y64.27515
G01 X-10.54039 Y64.38555
G01 X-10.70039 Y64.38555
G01 X-10.70039 Y63.91275
G01 X-10.70039 Y63.56795
G01 X-10.54039 Y63.56795
G01 X-10.50439 Y63.67835
G01 X-10.43079 Y63.71275
G01 X-10.50439 Y63.67835
G01 X-10.54039 Y63.56795
G01 X-10.54039 Y63.49835
G01 X-10.50439 Y63.38875
G01 X-10.38839 Y63.31275
G01 X-10.19879 Y63.27835
G01 X-10.00919 Y63.27835
G01 X-9.85719 Y63.31275
G01 X-9.77719 Y63.38875
G01 X-9.74039 Y63.49835
G01 X-9.74039 Y63.53355
G01 X-9.77719 Y63.64395
G01 X-9.85719 Y63.71275
G01 X-9.97319 Y63.74795
G01 X-10.00919 Y63.74795
G01 X-10.12519 Y63.71275
G01 X-10.19879 Y63.64395
G01 X-10.23559 Y63.53355
G01 X-10.23559 Y63.49835
G01 X-10.19879 Y63.38875
G01 X-10.12519 Y63.31275
G01 X-10.00919 Y63.27835
G01 X-10.19879 Y63.27835
G01 X-10.38839 Y63.31275
G01 X-10.50439 Y63.38875
G01 X-10.54039 Y63.49835
G01 X-10.54039 Y63.56795
G01 X-10.70039 Y63.56795
G01 X-10.70039 Y63.11275
G01 X-10.70039 Y62.78555
G01 X-10.54039 Y62.78555
G01 X-10.54039 Y62.64075
G01 X-10.50439 Y62.53035
G01 X-10.46759 Y62.49595
G01 X-10.38839 Y62.46075
G01 X-10.27799 Y62.46075
G01 X-10.19879 Y62.49595
G01 X-10.12519 Y62.57115
G01 X-10.08279 Y62.67515
G01 X-10.04599 Y62.82075
G01 X-10.00919 Y62.89595
G01 X-9.92999 Y62.93035
G01 X-9.85719 Y62.93035
G01 X-9.77719 Y62.89595
G01 X-9.74039 Y62.78555
G01 X-9.74039 Y62.64075
G01 X-9.77719 Y62.53035
G01 X-9.85719 Y62.49595
G01 X-9.92999 Y62.49595
G01 X-10.00919 Y62.53035
G01 X-10.04599 Y62.60555
G01 X-10.08279 Y62.75115
G01 X-10.12519 Y62.86075
G01 X-10.19879 Y62.93035
G01 X-10.27799 Y62.96555
G01 X-10.38839 Y62.96555
G01 X-10.46759 Y62.93035
G01 X-10.50439 Y62.89595
G01 X-10.54039 Y62.78555
G01 X-10.70039 Y62.78555
G01 X-10.70039 Y62.31275
G01 X-10.70039 Y62.23755
G01 X-10.19879 Y62.23755
G01 X-10.19879 Y61.58875
G01 X-10.19879 Y62.23755
G01 X-10.70039 Y62.23755
G01 X-10.70039 Y61.51275
G01 X-10.70039 Y61.02315
G01 X-10.54039 Y61.02315
G01 X-9.74039 Y61.02315
G01 X-9.85719 Y61.13355
G01 X-9.89319 Y61.20315
G01 X-9.85719 Y61.13355
G01 X-9.74039 Y61.02315
G01 X-10.54039 Y61.02315
G01 X-10.70039 Y61.02315
G01 X-10.70039 Y60.71275
G260
M10
G00 X-11.39194 Y78.65147
(PartName=758399-2)
N10 M09
G261
G01 X-11.39194 Y78.35947
G01 X-11.23194 Y78.35947
G01 X-10.43194 Y77.99947
G01 X-10.43194 Y78.50427
G01 X-10.52394 Y78.50347
G01 X-10.43194 Y78.50427
G01 X-10.43194 Y77.99947
G01 X-11.23194 Y78.35947
G01 X-11.39194 Y78.35947
G01 X-11.39194 Y77.85147
G01 X-11.39194 Y77.52427
G01 X-11.23194 Y77.52427
G01 X-11.19594 Y77.63467
G01 X-11.15914 Y77.66907
G01 X-11.07994 Y77.70427
G01 X-11.15914 Y77.66907
G01 X-11.19594 Y77.63467
G01 X-11.23194 Y77.52427
G01 X-11.23194 Y77.41387
G01 X-11.19594 Y77.30987
G01 X-11.12234 Y77.23467
G01 X-11.00634 Y77.19947
G01 X-10.92714 Y77.19947
G01 X-10.81674 Y77.23467
G01 X-10.73754 Y77.30987
G01 X-10.70074 Y77.41387
G01 X-10.70074 Y77.52427
G01 X-10.73754 Y77.63467
G01 X-10.77434 Y77.66907
G01 X-10.43194 Y77.63467
G01 X-10.43194 Y77.26907
G01 X-10.43194 Y77.63467
G01 X-10.77434 Y77.66907
G01 X-10.73754 Y77.63467
G01 X-10.70074 Y77.52427
G01 X-10.70074 Y77.41387
G01 X-10.73754 Y77.30987
G01 X-10.81674 Y77.23467
G01 X-10.92714 Y77.19947
G01 X-11.00634 Y77.19947
G01 X-11.12234 Y77.23467
G01 X-11.19594 Y77.30987
G01 X-11.23194 Y77.41387
G01 X-11.23194 Y77.52427
G01 X-11.39194 Y77.52427
G01 X-11.39194 Y77.05147
G01 X-11.39194 Y76.72427
G01 X-11.23194 Y76.72427
G01 X-11.23194 Y76.57947
G01 X-11.19594 Y76.46907
G01 X-11.15914 Y76.43467
G01 X-11.07994 Y76.39947
G01 X-10.96954 Y76.39947
G01 X-10.89034 Y76.43467
G01 X-10.81674 Y76.50987
G01 X-10.77434 Y76.61387
G01 X-10.73754 Y76.75947
G01 X-10.70074 Y76.83467
G01 X-10.62154 Y76.86907
G01 X-10.54874 Y76.86907
G01 X-10.46874 Y76.83467
G01 X-10.43194 Y76.72427
G01 X-10.43194 Y76.57947
G01 X-10.46874 Y76.46907
G01 X-10.54874 Y76.43467
G01 X-10.62154 Y76.43467
G01 X-10.70074 Y76.46907
G01 X-10.73754 Y76.54427
G01 X-10.77434 Y76.68987
G01 X-10.81674 Y76.79947
G01 X-10.89034 Y76.86907
G01 X-10.96954 Y76.90427
G01 X-11.07994 Y76.90427
G01 X-11.15914 Y76.86907
G01 X-11.19594 Y76.83467
G01 X-11.23194 Y76.72427
G01 X-11.39194 Y76.72427
G01 X-11.39194 Y76.25147
G01 X-11.39194 Y75.92427
G01 X-11.23194 Y75.92427
G01 X-11.19594 Y76.03467
G01 X-11.15914 Y76.06907
G01 X-11.07994 Y76.10427
G01 X-11.15914 Y76.06907
G01 X-11.19594 Y76.03467
G01 X-11.23194 Y75.92427
G01 X-11.23194 Y75.81387
G01 X-11.19594 Y75.70987
G01 X-11.12234 Y75.63467
G01 X-11.00634 Y75.59947
G01 X-10.92714 Y75.59947
G01 X-10.81674 Y75.63467
G01 X-10.77434 Y75.66907
G01 X-10.73754 Y75.74427
G01 X-10.73754 Y75.85467
G01 X-10.43194 Y75.63467
G01 X-10.43194 Y76.03467
G01 X-10.43194 Y75.63467
G01 X-10.73754 Y75.85467
G01 X-10.73754 Y75.74427
G01 X-10.77434 Y75.66907
G01 X-10.81674 Y75.63467
G01 X-10.92714 Y75.59947
G01 X-11.00634 Y75.59947
G01 X-11.12234 Y75.63467
G01 X-11.19594 Y75.70987
G01 X-11.23194 Y75.81387
G01 X-11.23194 Y75.92427
G01 X-11.39194 Y75.92427
G01 X-11.39194 Y75.45147
G01 X-11.39194 Y75.10667
G01 X-11.23194 Y75.10667
G01 X-11.19594 Y75.21707
G01 X-11.12234 Y75.25147
G01 X-11.19594 Y75.21707
G01 X-11.23194 Y75.10667
G01 X-11.23194 Y75.03707
G01 X-11.19594 Y74.92747
G01 X-11.07994 Y74.85147
G01 X-10.89034 Y74.81707
G01 X-10.70074 Y74.81707
G01 X-10.54874 Y74.85147
G01 X-10.46874 Y74.92747
G01 X-10.43194 Y75.03707
G01 X-10.43194 Y75.07227
G01 X-10.46874 Y75.18267
G01 X-10.54874 Y75.25147
G01 X-10.66474 Y75.28667
G01 X-10.70074 Y75.28667
G01 X-10.81674 Y75.25147
G01 X-10.89034 Y75.18267
G01 X-10.92714 Y75.07227
G01 X-10.92714 Y75.03707
G01 X-10.89034 Y74.92747
G01 X-10.81674 Y74.85147
G01 X-10.70074 Y74.81707
G01 X-10.89034 Y74.81707
G01 X-11.07994 Y74.85147
G01 X-11.19594 Y74.92747
G01 X-11.23194 Y75.03707
G01 X-11.23194 Y75.10667
G01 X-11.39194 Y75.10667
G01 X-11.39194 Y74.65147
G01 X-11.39194 Y74.30667
G01 X-11.23194 Y74.30667
G01 X-11.19594 Y74.41707
G01 X-11.12234 Y74.45147
G01 X-11.19594 Y74.41707
G01 X-11.23194 Y74.30667
G01 X-11.23194 Y74.23707
G01 X-11.19594 Y74.12747
G01 X-11.07994 Y74.05147
G01 X-10.89034 Y74.01707
G01 X-10.70074 Y74.01707
G01 X-10.54874 Y74.05147
G01 X-10.46874 Y74.12747
G01 X-10.43194 Y74.23707
G01 X-10.43194 Y74.27227
G01 X-10.46874 Y74.38267
G01 X-10.54874 Y74.45147
G01 X-10.66474 Y74.48667
G01 X-10.70074 Y74.48667
G01 X-10.81674 Y74.45147
G01 X-10.89034 Y74.38267
G01 X-10.92714 Y74.27227
G01 X-10.92714 Y74.23707
G01 X-10.89034 Y74.12747
G01 X-10.81674 Y74.05147
G01 X-10.70074 Y74.01707
G01 X-10.89034 Y74.01707
G01 X-11.07994 Y74.05147
G01 X-11.19594 Y74.12747
G01 X-11.23194 Y74.23707
G01 X-11.23194 Y74.30667
G01 X-11.39194 Y74.30667
G01 X-11.39194 Y73.85147
G01 X-11.39194 Y73.77627
G01 X-10.89034 Y73.77627
G01 X-10.89034 Y73.12747
G01 X-10.89034 Y73.77627
G01 X-11.39194 Y73.77627
G01 X-11.39194 Y73.05147
G01 X-11.39194 Y72.90427
G01 X-11.23194 Y72.90427
G01 X-11.23194 Y72.39947
G01 X-11.23194 Y72.90427
G01 X-10.85354 Y72.54427
G01 X-10.73754 Y72.46907
G01 X-10.66474 Y72.43467
G01 X-10.58474 Y72.43467
G01 X-10.51194 Y72.46907
G01 X-10.46874 Y72.50987
G01 X-10.43194 Y72.57947
G01 X-10.43194 Y72.72427
G01 X-10.46874 Y72.79947
G01 X-10.51194 Y72.83467
G01 X-10.58474 Y72.86907
G01 X-10.62154 Y72.86907
G01 X-10.58474 Y72.86907
G01 X-10.51194 Y72.83467
G01 X-10.46874 Y72.79947
G01 X-10.43194 Y72.72427
G01 X-10.43194 Y72.57947
G01 X-10.46874 Y72.50987
G01 X-10.51194 Y72.46907
G01 X-10.58474 Y72.43467
G01 X-10.66474 Y72.43467
G01 X-10.73754 Y72.46907
G01 X-10.85354 Y72.54427
G01 X-11.23194 Y72.90427
G01 X-11.39194 Y72.90427
G01 X-11.39194 Y72.25147
G260
M10
G00 X-26.83026 Y79.25147
(PartName=758399-2)
N11 M09
G261
G01 X-26.83026 Y79.54347
G01 X-26.99026 Y79.54347
G01 X-27.79026 Y79.90347
G01 X-27.79026 Y79.39867
G01 X-27.69826 Y79.39947
G01 X-27.79026 Y79.39867
G01 X-27.79026 Y79.90347
G01 X-26.99026 Y79.54347
G01 X-26.83026 Y79.54347
G01 X-26.83026 Y80.05147
G01 X-26.83026 Y80.37867
G01 X-26.99026 Y80.37867
G01 X-27.02626 Y80.26827
G01 X-27.06306 Y80.23387
G01 X-27.14226 Y80.19867
G01 X-27.06306 Y80.23387
G01 X-27.02626 Y80.26827
G01 X-26.99026 Y80.37867
G01 X-26.99026 Y80.48907
G01 X-27.02626 Y80.59307
G01 X-27.09986 Y80.66827
G01 X-27.21586 Y80.70347
G01 X-27.29506 Y80.70347
G01 X-27.40546 Y80.66827
G01 X-27.48466 Y80.59307
G01 X-27.52146 Y80.48907
G01 X-27.52146 Y80.37867
G01 X-27.48466 Y80.26827
G01 X-27.44786 Y80.23387
G01 X-27.79026 Y80.26827
G01 X-27.79026 Y80.63387
G01 X-27.79026 Y80.26827
G01 X-27.44786 Y80.23387
G01 X-27.48466 Y80.26827
G01 X-27.52146 Y80.37867
G01 X-27.52146 Y80.48907
G01 X-27.48466 Y80.59307
G01 X-27.40546 Y80.66827
G01 X-27.29506 Y80.70347
G01 X-27.21586 Y80.70347
G01 X-27.09986 Y80.66827
G01 X-27.02626 Y80.59307
G01 X-26.99026 Y80.48907
G01 X-26.99026 Y80.37867
G01 X-26.83026 Y80.37867
G01 X-26.83026 Y80.85147
G01 X-26.83026 Y81.17867
G01 X-26.99026 Y81.17867
G01 X-26.99026 Y81.32347
G01 X-27.02626 Y81.43387
G01 X-27.06306 Y81.46827
G01 X-27.14226 Y81.50347
G01 X-27.25266 Y81.50347
G01 X-27.33186 Y81.46827
G01 X-27.40546 Y81.39307
G01 X-27.44786 Y81.28907
G01 X-27.48466 Y81.14347
G01 X-27.52146 Y81.06827
G01 X-27.60066 Y81.03387
G01 X-27.67346 Y81.03387
G01 X-27.75346 Y81.06827
G01 X-27.79026 Y81.17867
G01 X-27.79026 Y81.32347
G01 X-27.75346 Y81.43387
G01 X-27.67346 Y81.46827
G01 X-27.60066 Y81.46827
G01 X-27.52146 Y81.43387
G01 X-27.48466 Y81.35867
G01 X-27.44786 Y81.21307
G01 X-27.40546 Y81.10347
G01 X-27.33186 Y81.03387
G01 X-27.25266 Y80.99867
G01 X-27.14226 Y80.99867
G01 X-27.06306 Y81.03387
G01 X-27.02626 Y81.06827
G01 X-26.99026 Y81.17867
G01 X-26.83026 Y81.17867
G01 X-26.83026 Y81.65147
G01 X-26.83026 Y81.97867
G01 X-26.99026 Y81.97867
G01 X-27.02626 Y81.86827
G01 X-27.06306 Y81.83387
G01 X-27.14226 Y81.79867
G01 X-27.06306 Y81.83387
G01 X-27.02626 Y81.86827
G01 X-26.99026 Y81.97867
G01 X-26.99026 Y82.08907
G01 X-27.02626 Y82.19307
G01 X-27.09986 Y82.26827
G01 X-27.21586 Y82.30347
G01 X-27.29506 Y82.30347
G01 X-27.40546 Y82.26827
G01 X-27.44786 Y82.23387
G01 X-27.48466 Y82.15867
G01 X-27.48466 Y82.04827
G01 X-27.79026 Y82.26827
G01 X-27.79026 Y81.86827
G01 X-27.79026 Y82.26827
G01 X-27.48466 Y82.04827
G01 X-27.48466 Y82.15867
G01 X-27.44786 Y82.23387
G01 X-27.40546 Y82.26827
G01 X-27.29506 Y82.30347
G01 X-27.21586 Y82.30347
G01 X-27.09986 Y82.26827
G01 X-27.02626 Y82.19307
G01 X-26.99026 Y82.08907
G01 X-26.99026 Y81.97867
G01 X-26.83026 Y81.97867
G01 X-26.83026 Y82.45147
G01 X-26.83026 Y82.79627
G01 X-26.99026 Y82.79627
G01 X-27.02626 Y82.68587
G01 X-27.09986 Y82.65147
G01 X-27.02626 Y82.68587
G01 X-26.99026 Y82.79627
G01 X-26.99026 Y82.86587
G01 X-27.02626 Y82.97547
G01 X-27.14226 Y83.05147
G01 X-27.33186 Y83.08587
G01 X-27.52146 Y83.08587
G01 X-27.67346 Y83.05147
G01 X-27.75346 Y82.97547
G01 X-27.79026 Y82.86587
G01 X-27.79026 Y82.83067
G01 X-27.75346 Y82.72027
G01 X-27.67346 Y82.65147
G01 X-27.55746 Y82.61627
G01 X-27.52146 Y82.61627
G01 X-27.40546 Y82.65147
G01 X-27.33186 Y82.72027
G01 X-27.29506 Y82.83067
G01 X-27.29506 Y82.86587
G01 X-27.33186 Y82.97547
G01 X-27.40546 Y83.05147
G01 X-27.52146 Y83.08587
G01 X-27.33186 Y83.08587
G01 X-27.14226 Y83.05147
G01 X-27.02626 Y82.97547
G01 X-26.99026 Y82.86587
G01 X-26.99026 Y82.79627
G01 X-26.83026 Y82.79627
G01 X-26.83026 Y83.25147
G01 X-26.83026 Y83.59627
G01 X-26.99026 Y83.59627
G01 X-27.02626 Y83.48587
G01 X-27.09986 Y83.45147
G01 X-27.02626 Y83.48587
G01 X-26.99026 Y83.59627
G01 X-26.99026 Y83.66587
G01 X-27.02626 Y83.77547
G01 X-27.14226 Y83.85147
G01 X-27.33186 Y83.88587
G01 X-27.52146 Y83.88587
G01 X-27.67346 Y83.85147
G01 X-27.75346 Y83.77547
G01 X-27.79026 Y83.66587
G01 X-27.79026 Y83.63067
G01 X-27.75346 Y83.52027
G01 X-27.67346 Y83.45147
G01 X-27.55746 Y83.41627
G01 X-27.52146 Y83.41627
G01 X-27.40546 Y83.45147
G01 X-27.33186 Y83.52027
G01 X-27.29506 Y83.63067
G01 X-27.29506 Y83.66587
G01 X-27.33186 Y83.77547
G01 X-27.40546 Y83.85147
G01 X-27.52146 Y83.88587
G01 X-27.33186 Y83.88587
G01 X-27.14226 Y83.85147
G01 X-27.02626 Y83.77547
G01 X-26.99026 Y83.66587
G01 X-26.99026 Y83.59627
G01 X-26.83026 Y83.59627
G01 X-26.83026 Y84.05147
G01 X-26.83026 Y84.12667
G01 X-27.33186 Y84.12667
G01 X-27.33186 Y84.77547
G01 X-27.33186 Y84.12667
G01 X-26.83026 Y84.12667
G01 X-26.83026 Y84.85147
G01 X-26.83026 Y84.99867
G01 X-26.99026 Y84.99867
G01 X-26.99026 Y85.50347
G01 X-26.99026 Y84.99867
G01 X-27.36866 Y85.35867
G01 X-27.48466 Y85.43387
G01 X-27.55746 Y85.46827
G01 X-27.63746 Y85.46827
G01 X-27.71026 Y85.43387
G01 X-27.75346 Y85.39307
G01 X-27.79026 Y85.32347
G01 X-27.79026 Y85.17867
G01 X-27.75346 Y85.10347
G01 X-27.71026 Y85.06827
G01 X-27.63746 Y85.03387
G01 X-27.60066 Y85.03387
G01 X-27.63746 Y85.03387
G01 X-27.71026 Y85.06827
G01 X-27.75346 Y85.10347
G01 X-27.79026 Y85.17867
G01 X-27.79026 Y85.32347
G01 X-27.75346 Y85.39307
G01 X-27.71026 Y85.43387
G01 X-27.63746 Y85.46827
G01 X-27.55746 Y85.46827
G01 X-27.48466 Y85.43387
G01 X-27.36866 Y85.35867
G01 X-26.99026 Y84.99867
G01 X-26.83026 Y84.99867
G01 X-26.83026 Y85.65147
G260
M10
G00 X-11.39194 Y101.54243
(PartName=758399-2)
N12 M09
G261
G01 X-11.39194 Y101.25043
G01 X-11.23194 Y101.25043
G01 X-10.43194 Y100.89043
G01 X-10.43194 Y101.39523
G01 X-10.52394 Y101.39443
G01 X-10.43194 Y101.39523
G01 X-10.43194 Y100.89043
G01 X-11.23194 Y101.25043
G01 X-11.39194 Y101.25043
G01 X-11.39194 Y100.74243
G01 X-11.39194 Y100.41523
G01 X-11.23194 Y100.41523
G01 X-11.19594 Y100.52563
G01 X-11.15914 Y100.56003
G01 X-11.07994 Y100.59523
G01 X-11.15914 Y100.56003
G01 X-11.19594 Y100.52563
G01 X-11.23194 Y100.41523
G01 X-11.23194 Y100.30483
G01 X-11.19594 Y100.20083
G01 X-11.12234 Y100.12563
G01 X-11.00634 Y100.09043
G01 X-10.92714 Y100.09043
G01 X-10.81674 Y100.12563
G01 X-10.73754 Y100.20083
G01 X-10.70074 Y100.30483
G01 X-10.70074 Y100.41523
G01 X-10.73754 Y100.52563
G01 X-10.77434 Y100.56003
G01 X-10.43194 Y100.52563
G01 X-10.43194 Y100.16003
G01 X-10.43194 Y100.52563
G01 X-10.77434 Y100.56003
G01 X-10.73754 Y100.52563
G01 X-10.70074 Y100.41523
G01 X-10.70074 Y100.30483
G01 X-10.73754 Y100.20083
G01 X-10.81674 Y100.12563
G01 X-10.92714 Y100.09043
G01 X-11.00634 Y100.09043
G01 X-11.12234 Y100.12563
G01 X-11.19594 Y100.20083
G01 X-11.23194 Y100.30483
G01 X-11.23194 Y100.41523
G01 X-11.39194 Y100.41523
G01 X-11.39194 Y99.94243
G01 X-11.39194 Y99.61523
G01 X-11.23194 Y99.61523
G01 X-11.23194 Y99.47043
G01 X-11.19594 Y99.36003
G01 X-11.15914 Y99.32563
G01 X-11.07994 Y99.29043
G01 X-10.96954 Y99.29043
G01 X-10.89034 Y99.32563
G01 X-10.81674 Y99.40083
G01 X-10.77434 Y99.50483
G01 X-10.73754 Y99.65043
G01 X-10.70074 Y99.72563
G01 X-10.62154 Y99.76003
G01 X-10.54874 Y99.76003
G01 X-10.46874 Y99.72563
G01 X-10.43194 Y99.61523
G01 X-10.43194 Y99.47043
G01 X-10.46874 Y99.36003
G01 X-10.54874 Y99.32563
G01 X-10.62154 Y99.32563
G01 X-10.70074 Y99.36003
G01 X-10.73754 Y99.43523
G01 X-10.77434 Y99.58083
G01 X-10.81674 Y99.69043
G01 X-10.89034 Y99.76003
G01 X-10.96954 Y99.79523
G01 X-11.07994 Y99.79523
G01 X-11.15914 Y99.76003
G01 X-11.19594 Y99.72563
G01 X-11.23194 Y99.61523
G01 X-11.39194 Y99.61523
G01 X-11.39194 Y99.14243
G01 X-11.39194 Y98.81523
G01 X-11.23194 Y98.81523
G01 X-11.19594 Y98.92563
G01 X-11.15914 Y98.96003
G01 X-11.07994 Y98.99523
G01 X-11.15914 Y98.96003
G01 X-11.19594 Y98.92563
G01 X-11.23194 Y98.81523
G01 X-11.23194 Y98.70483
G01 X-11.19594 Y98.60083
G01 X-11.12234 Y98.52563
G01 X-11.00634 Y98.49043
G01 X-10.92714 Y98.49043
G01 X-10.81674 Y98.52563
G01 X-10.77434 Y98.56003
G01 X-10.73754 Y98.63523
G01 X-10.73754 Y98.74563
G01 X-10.43194 Y98.52563
G01 X-10.43194 Y98.92563
G01 X-10.43194 Y98.52563
G01 X-10.73754 Y98.74563
G01 X-10.73754 Y98.63523
G01 X-10.77434 Y98.56003
G01 X-10.81674 Y98.52563
G01 X-10.92714 Y98.49043
G01 X-11.00634 Y98.49043
G01 X-11.12234 Y98.52563
G01 X-11.19594 Y98.60083
G01 X-11.23194 Y98.70483
G01 X-11.23194 Y98.81523
G01 X-11.39194 Y98.81523
G01 X-11.39194 Y98.34243
G01 X-11.39194 Y97.99763
G01 X-11.23194 Y97.99763
G01 X-11.19594 Y98.10803
G01 X-11.12234 Y98.14243
G01 X-11.19594 Y98.10803
G01 X-11.23194 Y97.99763
G01 X-11.23194 Y97.92803
G01 X-11.19594 Y97.81843
G01 X-11.07994 Y97.74243
G01 X-10.89034 Y97.70803
G01 X-10.70074 Y97.70803
G01 X-10.54874 Y97.74243
G01 X-10.46874 Y97.81843
G01 X-10.43194 Y97.92803
G01 X-10.43194 Y97.96323
G01 X-10.46874 Y98.07363
G01 X-10.54874 Y98.14243
G01 X-10.66474 Y98.17763
G01 X-10.70074 Y98.17763
G01 X-10.81674 Y98.14243
G01 X-10.89034 Y98.07363
G01 X-10.92714 Y97.96323
G01 X-10.92714 Y97.92803
G01 X-10.89034 Y97.81843
G01 X-10.81674 Y97.74243
G01 X-10.70074 Y97.70803
G01 X-10.89034 Y97.70803
G01 X-11.07994 Y97.74243
G01 X-11.19594 Y97.81843
G01 X-11.23194 Y97.92803
G01 X-11.23194 Y97.99763
G01 X-11.39194 Y97.99763
G01 X-11.39194 Y97.54243
G01 X-11.39194 Y97.19763
G01 X-11.23194 Y97.19763
G01 X-11.19594 Y97.30803
G01 X-11.12234 Y97.34243
G01 X-11.19594 Y97.30803
G01 X-11.23194 Y97.19763
G01 X-11.23194 Y97.12803
G01 X-11.19594 Y97.01843
G01 X-11.07994 Y96.94243
G01 X-10.89034 Y96.90803
G01 X-10.70074 Y96.90803
G01 X-10.54874 Y96.94243
G01 X-10.46874 Y97.01843
G01 X-10.43194 Y97.12803
G01 X-10.43194 Y97.16323
G01 X-10.46874 Y97.27363
G01 X-10.54874 Y97.34243
G01 X-10.66474 Y97.37763
G01 X-10.70074 Y97.37763
G01 X-10.81674 Y97.34243
G01 X-10.89034 Y97.27363
G01 X-10.92714 Y97.16323
G01 X-10.92714 Y97.12803
G01 X-10.89034 Y97.01843
G01 X-10.81674 Y96.94243
G01 X-10.70074 Y96.90803
G01 X-10.89034 Y96.90803
G01 X-11.07994 Y96.94243
G01 X-11.19594 Y97.01843
G01 X-11.23194 Y97.12803
G01 X-11.23194 Y97.19763
G01 X-11.39194 Y97.19763
G01 X-11.39194 Y96.74243
G01 X-11.39194 Y96.66723
G01 X-10.89034 Y96.66723
G01 X-10.89034 Y96.01843
G01 X-10.89034 Y96.66723
G01 X-11.39194 Y96.66723
G01 X-11.39194 Y95.94243
G01 X-11.39194 Y95.79523
G01 X-11.23194 Y95.79523
G01 X-11.23194 Y95.29043
G01 X-11.23194 Y95.79523
G01 X-10.85354 Y95.43523
G01 X-10.73754 Y95.36003
G01 X-10.66474 Y95.32563
G01 X-10.58474 Y95.32563
G01 X-10.51194 Y95.36003
G01 X-10.46874 Y95.40083
G01 X-10.43194 Y95.47043
G01 X-10.43194 Y95.61523
G01 X-10.46874 Y95.69043
G01 X-10.51194 Y95.72563
G01 X-10.58474 Y95.76003
G01 X-10.62154 Y95.76003
G01 X-10.58474 Y95.76003
G01 X-10.51194 Y95.72563
G01 X-10.46874 Y95.69043
G01 X-10.43194 Y95.61523
G01 X-10.43194 Y95.47043
G01 X-10.46874 Y95.40083
G01 X-10.51194 Y95.36003
G01 X-10.58474 Y95.32563
G01 X-10.66474 Y95.32563
G01 X-10.73754 Y95.36003
G01 X-10.85354 Y95.43523
G01 X-11.23194 Y95.79523
G01 X-11.39194 Y95.79523
G01 X-11.39194 Y95.14243
G260
M10
G00 X-22.93707 Y17.41500
(PartName=758399-2)
N13 M09
G261
G01 X-22.64507 Y17.41500
G01 X-22.64507 Y17.57500
G01 X-22.28507 Y18.37500
G01 X-22.78987 Y18.37500
G01 X-22.78907 Y18.28300
G01 X-22.78987 Y18.37500
G01 X-22.28507 Y18.37500
G01 X-22.64507 Y17.57500
G01 X-22.64507 Y17.41500
G01 X-22.13707 Y17.41500
G01 X-21.80987 Y17.41500
G01 X-21.80987 Y17.57500
G01 X-21.92027 Y17.61100
G01 X-21.95467 Y17.64780
G01 X-21.98987 Y17.72700
G01 X-21.95467 Y17.64780
G01 X-21.92027 Y17.61100
G01 X-21.80987 Y17.57500
G01 X-21.69947 Y17.57500
G01 X-21.59547 Y17.61100
G01 X-21.52027 Y17.68460
G01 X-21.48507 Y17.80060
G01 X-21.48507 Y17.87980
G01 X-21.52027 Y17.99020
G01 X-21.59547 Y18.06940
G01 X-21.69947 Y18.10620
G01 X-21.80987 Y18.10620
G01 X-21.92027 Y18.06940
G01 X-21.95467 Y18.03260
G01 X-21.92027 Y18.37500
G01 X-21.55467 Y18.37500
G01 X-21.92027 Y18.37500
G01 X-21.95467 Y18.03260
G01 X-21.92027 Y18.06940
G01 X-21.80987 Y18.10620
G01 X-21.69947 Y18.10620
G01 X-21.59547 Y18.06940
G01 X-21.52027 Y17.99020
G01 X-21.48507 Y17.87980
G01 X-21.48507 Y17.80060
G01 X-21.52027 Y17.68460
G01 X-21.59547 Y17.61100
G01 X-21.69947 Y17.57500
G01 X-21.80987 Y17.57500
G01 X-21.80987 Y17.41500
G01 X-21.33707 Y17.41500
G01 X-21.00987 Y17.41500
G01 X-21.00987 Y17.57500
G01 X-20.86507 Y17.57500
G01 X-20.75467 Y17.61100
G01 X-20.72027 Y17.64780
G01 X-20.68507 Y17.72700
G01 X-20.68507 Y17.83740
G01 X-20.72027 Y17.91660
G01 X-20.79547 Y17.99020
G01 X-20.89947 Y18.03260
G01 X-21.04507 Y18.06940
G01 X-21.12027 Y18.10620
G01 X-21.15467 Y18.18540
G01 X-21.15467 Y18.25820
G01 X-21.12027 Y18.33820
G01 X-21.00987 Y18.37500
G01 X-20.86507 Y18.37500
G01 X-20.75467 Y18.33820
G01 X-20.72027 Y18.25820
G01 X-20.72027 Y18.18540
G01 X-20.75467 Y18.10620
G01 X-20.82987 Y18.06940
G01 X-20.97547 Y18.03260
G01 X-21.08507 Y17.99020
G01 X-21.15467 Y17.91660
G01 X-21.18987 Y17.83740
G01 X-21.18987 Y17.72700
G01 X-21.15467 Y17.64780
G01 X-21.12027 Y17.61100
G01 X-21.00987 Y17.57500
G01 X-21.00987 Y17.41500
G01 X-20.53707 Y17.41500
G01 X-20.20987 Y17.41500
G01 X-20.20987 Y17.57500
G01 X-20.32027 Y17.61100
G01 X-20.35467 Y17.64780
G01 X-20.38987 Y17.72700
G01 X-20.35467 Y17.64780
G01 X-20.32027 Y17.61100
G01 X-20.20987 Y17.57500
G01 X-20.09947 Y17.57500
G01 X-19.99547 Y17.61100
G01 X-19.92027 Y17.68460
G01 X-19.88507 Y17.80060
G01 X-19.88507 Y17.87980
G01 X-19.92027 Y17.99020
G01 X-19.95467 Y18.03260
G01 X-20.02987 Y18.06940
G01 X-20.14027 Y18.06940
G01 X-19.92027 Y18.37500
G01 X-20.32027 Y18.37500
G01 X-19.92027 Y18.37500
G01 X-20.14027 Y18.06940
G01 X-20.02987 Y18.06940
G01 X-19.95467 Y18.03260
G01 X-19.92027 Y17.99020
G01 X-19.88507 Y17.87980
G01 X-19.88507 Y17.80060
G01 X-19.92027 Y17.68460
G01 X-19.99547 Y17.61100
G01 X-20.09947 Y17.57500
G01 X-20.20987 Y17.57500
G01 X-20.20987 Y17.41500
G01 X-19.73707 Y17.41500
G01 X-19.39227 Y17.41500
G01 X-19.39227 Y17.57500
G01 X-19.50267 Y17.61100
G01 X-19.53707 Y17.68460
G01 X-19.50267 Y17.61100
G01 X-19.39227 Y17.57500
G01 X-19.32267 Y17.57500
G01 X-19.21307 Y17.61100
G01 X-19.13707 Y17.72700
G01 X-19.10267 Y17.91660
G01 X-19.10267 Y18.10620
G01 X-19.13707 Y18.25820
G01 X-19.21307 Y18.33820
G01 X-19.32267 Y18.37500
G01 X-19.35787 Y18.37500
G01 X-19.46827 Y18.33820
G01 X-19.53707 Y18.25820
G01 X-19.57227 Y18.14220
G01 X-19.57227 Y18.10620
G01 X-19.53707 Y17.99020
G01 X-19.46827 Y17.91660
G01 X-19.35787 Y17.87980
G01 X-19.32267 Y17.87980
G01 X-19.21307 Y17.91660
G01 X-19.13707 Y17.99020
G01 X-19.10267 Y18.10620
G01 X-19.10267 Y17.91660
G01 X-19.13707 Y17.72700
G01 X-19.21307 Y17.61100
G01 X-19.32267 Y17.57500
G01 X-19.39227 Y17.57500
G01 X-19.39227 Y17.41500
G01 X-18.93707 Y17.41500
G01 X-18.59227 Y17.41500
G01 X-18.59227 Y17.57500
G01 X-18.70267 Y17.61100
G01 X-18.73707 Y17.68460
G01 X-18.70267 Y17.61100
G01 X-18.59227 Y17.57500
G01 X-18.52267 Y17.57500
G01 X-18.41307 Y17.61100
G01 X-18.33707 Y17.72700
G01 X-18.30267 Y17.91660
G01 X-18.30267 Y18.10620
G01 X-18.33707 Y18.25820
G01 X-18.41307 Y18.33820
G01 X-18.52267 Y18.37500
G01 X-18.55787 Y18.37500
G01 X-18.66827 Y18.33820
G01 X-18.73707 Y18.25820
G01 X-18.77227 Y18.14220
G01 X-18.77227 Y18.10620
G01 X-18.73707 Y17.99020
G01 X-18.66827 Y17.91660
G01 X-18.55787 Y17.87980
G01 X-18.52267 Y17.87980
G01 X-18.41307 Y17.91660
G01 X-18.33707 Y17.99020
G01 X-18.30267 Y18.10620
G01 X-18.30267 Y17.91660
G01 X-18.33707 Y17.72700
G01 X-18.41307 Y17.61100
G01 X-18.52267 Y17.57500
G01 X-18.59227 Y17.57500
G01 X-18.59227 Y17.41500
G01 X-18.13707 Y17.41500
G01 X-18.06187 Y17.41500
G01 X-18.06187 Y17.91660
G01 X-17.41307 Y17.91660
G01 X-18.06187 Y17.91660
G01 X-18.06187 Y17.41500
G01 X-17.33707 Y17.41500
G01 X-17.18987 Y17.41500
G01 X-17.18987 Y17.57500
G01 X-16.68507 Y17.57500
G01 X-17.18987 Y17.57500
G01 X-16.82987 Y17.95340
G01 X-16.75467 Y18.06940
G01 X-16.72027 Y18.14220
G01 X-16.72027 Y18.22220
G01 X-16.75467 Y18.29500
G01 X-16.79547 Y18.33820
G01 X-16.86507 Y18.37500
G01 X-17.00987 Y18.37500
G01 X-17.08507 Y18.33820
G01 X-17.12027 Y18.29500
G01 X-17.15467 Y18.22220
G01 X-17.15467 Y18.18540
G01 X-17.15467 Y18.22220
G01 X-17.12027 Y18.29500
G01 X-17.08507 Y18.33820
G01 X-17.00987 Y18.37500
G01 X-16.86507 Y18.37500
G01 X-16.79547 Y18.33820
G01 X-16.75467 Y18.29500
G01 X-16.72027 Y18.22220
G01 X-16.72027 Y18.14220
G01 X-16.75467 Y18.06940
G01 X-16.82987 Y17.95340
G01 X-17.18987 Y17.57500
G01 X-17.18987 Y17.41500
G01 X-16.53707 Y17.41500
G260
M10
G00 X-20.25057 Y31.52604
(PartName=785986-4)
N14 M09
G261
G01 X-20.39657 Y31.77891
G01 X-20.53513 Y31.69891
G01 X-21.40795 Y31.61068
G01 X-21.15555 Y31.17351
G01 X-21.07628 Y31.22021
G01 X-21.15555 Y31.17351
G01 X-21.40795 Y31.61068
G01 X-20.53513 Y31.69891
G01 X-20.39657 Y31.77891
G01 X-20.65057 Y32.21886
G01 X-20.81417 Y32.50222
G01 X-20.95273 Y32.42222
G01 X-21.02513 Y32.54762
G01 X-21.11151 Y32.62523
G01 X-21.16058 Y32.63662
G01 X-21.24677 Y32.62750
G01 X-21.34238 Y32.57230
G01 X-21.39337 Y32.50222
G01 X-21.41951 Y32.40029
G01 X-21.40422 Y32.28903
G01 X-21.36329 Y32.14453
G01 X-21.35756 Y32.06101
G01 X-21.40895 Y31.99162
G01 X-21.47200 Y31.95522
G01 X-21.55848 Y31.94501
G01 X-21.64555 Y32.02222
G01 X-21.71795 Y32.14762
G01 X-21.74128 Y32.26163
G01 X-21.68920 Y32.33142
G01 X-21.62615 Y32.36782
G01 X-21.54036 Y32.37763
G01 X-21.47089 Y32.33090
G01 X-21.36622 Y32.22321
G01 X-21.27471 Y32.14949
G01 X-21.17617 Y32.12602
G01 X-21.08998 Y32.13513
G01 X-20.99437 Y32.19033
G01 X-20.94338 Y32.26042
G01 X-20.92871 Y32.30861
G01 X-20.95273 Y32.42222
G01 X-20.81417 Y32.50222
G01 X-21.05057 Y32.91168
G01 X-21.21417 Y33.19504
G01 X-21.35273 Y33.11504
G01 X-21.32871 Y33.00143
G01 X-21.34338 Y32.95324
G01 X-21.39437 Y32.88315
G01 X-21.34338 Y32.95324
G01 X-21.32871 Y33.00143
G01 X-21.35273 Y33.11504
G01 X-21.40793 Y33.21065
G01 X-21.49111 Y33.28272
G01 X-21.59245 Y33.31104
G01 X-21.71051 Y33.28352
G01 X-21.77910 Y33.24392
G01 X-21.85711 Y33.15824
G01 X-21.88809 Y33.05352
G01 X-21.86796 Y32.94505
G01 X-21.81276 Y32.84944
G01 X-21.72569 Y32.77223
G01 X-21.67662 Y32.76084
G01 X-21.99035 Y32.61943
G01 X-22.17315 Y32.93605
G01 X-21.99035 Y32.61943
G01 X-21.67662 Y32.76084
G01 X-21.72569 Y32.77223
G01 X-21.81276 Y32.84944
G01 X-21.86796 Y32.94505
G01 X-21.88809 Y33.05352
G01 X-21.85711 Y33.15824
G01 X-21.77910 Y33.24392
G01 X-21.71051 Y33.28352
G01 X-21.59245 Y33.31104
G01 X-21.49111 Y33.28272
G01 X-21.40793 Y33.21065
G01 X-21.35273 Y33.11504
G01 X-21.21417 Y33.19504
G01 X-21.45057 Y33.60450
G01 X-21.62297 Y33.90310
G01 X-21.76153 Y33.82310
G01 X-21.73751 Y33.70949
G01 X-21.78405 Y33.64290
G01 X-21.73751 Y33.70949
G01 X-21.76153 Y33.82310
G01 X-21.79633 Y33.88338
G01 X-21.88231 Y33.96029
G01 X-22.02077 Y33.96811
G01 X-22.20217 Y33.90310
G01 X-22.36636 Y33.80830
G01 X-22.48080 Y33.70251
G01 X-22.51208 Y33.59669
G01 X-22.48915 Y33.48338
G01 X-22.47155 Y33.45289
G01 X-22.38448 Y33.37568
G01 X-22.28080 Y33.35610
G01 X-22.16274 Y33.38362
G01 X-22.13156 Y33.40162
G01 X-22.04871 Y33.49010
G01 X-22.01937 Y33.58648
G01 X-22.04270 Y33.70049
G01 X-22.06030 Y33.73098
G01 X-22.14697 Y33.80749
G01 X-22.24871 Y33.83651
G01 X-22.36636 Y33.80830
G01 X-22.20217 Y33.90310
G01 X-22.02077 Y33.96811
G01 X-21.88231 Y33.96029
G01 X-21.79633 Y33.88338
G01 X-21.76153 Y33.82310
G01 X-21.62297 Y33.90310
G01 X-21.85057 Y34.29732
G01 X-22.01417 Y34.58068
G01 X-22.15273 Y34.50068
G01 X-22.22513 Y34.62608
G01 X-22.31151 Y34.70369
G01 X-22.36058 Y34.71508
G01 X-22.44677 Y34.70596
G01 X-22.54238 Y34.65076
G01 X-22.59337 Y34.58068
G01 X-22.61951 Y34.47876
G01 X-22.60422 Y34.36749
G01 X-22.56329 Y34.22300
G01 X-22.55756 Y34.13947
G01 X-22.60895 Y34.07008
G01 X-22.67200 Y34.03368
G01 X-22.75848 Y34.02347
G01 X-22.84555 Y34.10068
G01 X-22.91795 Y34.22608
G01 X-22.94128 Y34.34009
G01 X-22.88920 Y34.40988
G01 X-22.82615 Y34.44628
G01 X-22.74036 Y34.45609
G01 X-22.67089 Y34.40936
G01 X-22.56622 Y34.30167
G01 X-22.47471 Y34.22795
G01 X-22.37617 Y34.20448
G01 X-22.28998 Y34.21360
G01 X-22.19437 Y34.26880
G01 X-22.14338 Y34.33888
G01 X-22.12871 Y34.38707
G01 X-22.15273 Y34.50068
G01 X-22.01417 Y34.58068
G01 X-22.25057 Y34.99014
G01 X-22.44017 Y35.31853
G01 X-22.57873 Y35.23853
G01 X-22.59633 Y35.26902
G01 X-22.68231 Y35.34593
G01 X-22.78405 Y35.37495
G01 X-22.90171 Y35.34674
G01 X-22.93358 Y35.32834
G01 X-23.01684 Y35.24055
G01 X-23.04742 Y35.13513
G01 X-23.02449 Y35.02182
G01 X-23.00689 Y34.99133
G01 X-22.91982 Y34.91412
G01 X-22.81684 Y34.89414
G01 X-22.69878 Y34.92166
G01 X-22.86782 Y34.82406
G01 X-23.04962 Y34.75974
G01 X-23.18448 Y34.76132
G01 X-23.27155 Y34.83853
G01 X-23.30915 Y34.90366
G01 X-23.32968 Y35.01282
G01 X-23.28080 Y35.08815
G01 X-23.32968 Y35.01282
G01 X-23.30915 Y34.90366
G01 X-23.27155 Y34.83853
G01 X-23.18448 Y34.76132
G01 X-23.04962 Y34.75974
G01 X-22.86782 Y34.82406
G01 X-22.69878 Y34.92166
G01 X-22.58405 Y35.02854
G01 X-22.55471 Y35.12492
G01 X-22.57873 Y35.23853
G01 X-22.44017 Y35.31853
G01 X-22.65057 Y35.68296
G01 X-22.68817 Y35.74808
G01 X-23.12257 Y35.49728
G01 X-23.44697 Y36.05916
G01 X-23.12257 Y35.49728
G01 X-22.68817 Y35.74808
G01 X-23.05057 Y36.37578
G01 X-23.29657 Y36.80186
G01 X-23.43513 Y36.72186
G01 X-24.12795 Y36.32186
G01 X-23.47998 Y36.27474
G01 X-23.75238 Y36.74655
G01 X-23.66238 Y36.59066
G01 X-23.43513 Y36.72186
G01 X-23.29657 Y36.80186
G01 X-23.45057 Y37.06860
G260
M10
G00 X-19.46351 Y24.60307
(PartName=785986-4)
N15 M09
G261
G01 X-19.31751 Y24.35019
G01 X-19.17894 Y24.43019
G01 X-18.30612 Y24.51842
G01 X-18.55852 Y24.95559
G01 X-18.63780 Y24.90889
G01 X-18.55852 Y24.95559
G01 X-18.30612 Y24.51842
G01 X-19.17894 Y24.43019
G01 X-19.31751 Y24.35019
G01 X-19.06351 Y23.91025
G01 X-18.89991 Y23.62688
G01 X-18.76134 Y23.70688
G01 X-18.68894 Y23.58148
G01 X-18.60256 Y23.50387
G01 X-18.55350 Y23.49248
G01 X-18.46731 Y23.50160
G01 X-18.37170 Y23.55680
G01 X-18.32071 Y23.62688
G01 X-18.29457 Y23.72881
G01 X-18.30985 Y23.84007
G01 X-18.35078 Y23.98457
G01 X-18.35651 Y24.06809
G01 X-18.30512 Y24.13748
G01 X-18.24207 Y24.17388
G01 X-18.15559 Y24.18409
G01 X-18.06852 Y24.10688
G01 X-17.99612 Y23.98148
G01 X-17.97279 Y23.86747
G01 X-18.02487 Y23.79768
G01 X-18.08792 Y23.76128
G01 X-18.17371 Y23.75147
G01 X-18.24318 Y23.79820
G01 X-18.34785 Y23.90589
G01 X-18.43937 Y23.97961
G01 X-18.53791 Y24.00308
G01 X-18.62410 Y23.99397
G01 X-18.71971 Y23.93877
G01 X-18.77070 Y23.86868
G01 X-18.78536 Y23.82049
G01 X-18.76134 Y23.70688
G01 X-18.89991 Y23.62688
G01 X-18.66351 Y23.21743
G01 X-18.49991 Y22.93406
G01 X-18.36134 Y23.01406
G01 X-18.38536 Y23.12767
G01 X-18.37070 Y23.17586
G01 X-18.31971 Y23.24595
G01 X-18.37070 Y23.17586
G01 X-18.38536 Y23.12767
G01 X-18.36134 Y23.01406
G01 X-18.30614 Y22.91845
G01 X-18.22296 Y22.84639
G01 X-18.12163 Y22.81806
G01 X-18.00357 Y22.84558
G01 X-17.93498 Y22.88518
G01 X-17.85697 Y22.97086
G01 X-17.82598 Y23.07559
G01 X-17.84611 Y23.18405
G01 X-17.90131 Y23.27966
G01 X-17.98838 Y23.35687
G01 X-18.03745 Y23.36826
G01 X-17.72372 Y23.50967
G01 X-17.54092 Y23.19305
G01 X-17.72372 Y23.50967
G01 X-18.03745 Y23.36826
G01 X-17.98838 Y23.35687
G01 X-17.90131 Y23.27966
G01 X-17.84611 Y23.18405
G01 X-17.82598 Y23.07559
G01 X-17.85697 Y22.97086
G01 X-17.93498 Y22.88518
G01 X-18.00357 Y22.84558
G01 X-18.12163 Y22.81806
G01 X-18.22296 Y22.84639
G01 X-18.30614 Y22.91845
G01 X-18.36134 Y23.01406
G01 X-18.49991 Y22.93406
G01 X-18.26351 Y22.52461
G01 X-18.09111 Y22.22600
G01 X-17.95254 Y22.30600
G01 X-17.97656 Y22.41961
G01 X-17.93003 Y22.48620
G01 X-17.97656 Y22.41961
G01 X-17.95254 Y22.30600
G01 X-17.91774 Y22.24572
G01 X-17.83176 Y22.16881
G01 X-17.69331 Y22.16099
G01 X-17.51191 Y22.22600
G01 X-17.34771 Y22.32080
G01 X-17.23327 Y22.42659
G01 X-17.20199 Y22.53241
G01 X-17.22492 Y22.64572
G01 X-17.24252 Y22.67621
G01 X-17.32959 Y22.75342
G01 X-17.43327 Y22.77300
G01 X-17.55133 Y22.74548
G01 X-17.58251 Y22.72748
G01 X-17.66537 Y22.63900
G01 X-17.69471 Y22.54262
G01 X-17.67138 Y22.42861
G01 X-17.65378 Y22.39812
G01 X-17.56711 Y22.32161
G01 X-17.46537 Y22.29259
G01 X-17.34771 Y22.32080
G01 X-17.51191 Y22.22600
G01 X-17.69331 Y22.16099
G01 X-17.83176 Y22.16881
G01 X-17.91774 Y22.24572
G01 X-17.95254 Y22.30600
G01 X-18.09111 Y22.22600
G01 X-17.86351 Y21.83179
G01 X-17.69991 Y21.54842
G01 X-17.56134 Y21.62842
G01 X-17.48894 Y21.50302
G01 X-17.40256 Y21.42541
G01 X-17.35350 Y21.41402
G01 X-17.26731 Y21.42314
G01 X-17.17170 Y21.47834
G01 X-17.12071 Y21.54842
G01 X-17.09457 Y21.65035
G01 X-17.10985 Y21.76161
G01 X-17.15078 Y21.90611
G01 X-17.15651 Y21.98963
G01 X-17.10512 Y22.05902
G01 X-17.04207 Y22.09542
G01 X-16.95559 Y22.10563
G01 X-16.86852 Y22.02842
G01 X-16.79612 Y21.90302
G01 X-16.77279 Y21.78901
G01 X-16.82487 Y21.71922
G01 X-16.88792 Y21.68282
G01 X-16.97371 Y21.67301
G01 X-17.04318 Y21.71974
G01 X-17.14785 Y21.82743
G01 X-17.23937 Y21.90115
G01 X-17.33791 Y21.92462
G01 X-17.42410 Y21.91551
G01 X-17.51971 Y21.86031
G01 X-17.57070 Y21.79022
G01 X-17.58536 Y21.74203
G01 X-17.56134 Y21.62842
G01 X-17.69991 Y21.54842
G01 X-17.46351 Y21.13896
G01 X-17.27391 Y20.81057
G01 X-17.13534 Y20.89057
G01 X-17.11774 Y20.86008
G01 X-17.03176 Y20.78317
G01 X-16.93003 Y20.75415
G01 X-16.81237 Y20.78236
G01 X-16.78050 Y20.80076
G01 X-16.69724 Y20.88855
G01 X-16.66665 Y20.99397
G01 X-16.68958 Y21.10728
G01 X-16.70718 Y21.13777
G01 X-16.79425 Y21.21498
G01 X-16.89724 Y21.23496
G01 X-17.01530 Y21.20744
G01 X-16.84625 Y21.30504
G01 X-16.66445 Y21.36936
G01 X-16.52959 Y21.36778
G01 X-16.44252 Y21.29057
G01 X-16.40492 Y21.22544
G01 X-16.38439 Y21.11628
G01 X-16.43327 Y21.04095
G01 X-16.38439 Y21.11628
G01 X-16.40492 Y21.22544
G01 X-16.44252 Y21.29057
G01 X-16.52959 Y21.36778
G01 X-16.66445 Y21.36936
G01 X-16.84625 Y21.30504
G01 X-17.01530 Y21.20744
G01 X-17.13003 Y21.10056
G01 X-17.15936 Y21.00418
G01 X-17.13534 Y20.89057
G01 X-17.27391 Y20.81057
G01 X-17.06351 Y20.44614
G01 X-17.02591 Y20.38102
G01 X-16.59151 Y20.63182
G01 X-16.26711 Y20.06994
G01 X-16.59151 Y20.63182
G01 X-17.02591 Y20.38102
G01 X-16.66351 Y19.75332
G01 X-16.41751 Y19.32724
G01 X-16.27894 Y19.40724
G01 X-15.58612 Y19.80724
G01 X-16.23410 Y19.85437
G01 X-15.96170 Y19.38256
G01 X-16.05170 Y19.53844
G01 X-16.27894 Y19.40724
G01 X-16.41751 Y19.32724
G01 X-16.26351 Y19.06050
G260
M10
G00 X-20.25057 Y50.26771
(PartName=785987-4)
N16 M09
G261
G01 X-20.39657 Y50.52059
G01 X-20.53513 Y50.44059
G01 X-21.40795 Y50.35236
G01 X-21.15555 Y49.91519
G01 X-21.07628 Y49.96189
G01 X-21.15555 Y49.91519
G01 X-21.40795 Y50.35236
G01 X-20.53513 Y50.44059
G01 X-20.39657 Y50.52059
G01 X-20.65057 Y50.96054
G01 X-20.81417 Y51.24390
G01 X-20.95273 Y51.16390
G01 X-21.02513 Y51.28930
G01 X-21.11151 Y51.36691
G01 X-21.16058 Y51.37830
G01 X-21.24677 Y51.36918
G01 X-21.34238 Y51.31398
G01 X-21.39337 Y51.24390
G01 X-21.41951 Y51.14197
G01 X-21.40422 Y51.03071
G01 X-21.36329 Y50.88621
G01 X-21.35756 Y50.80269
G01 X-21.40895 Y50.73330
G01 X-21.47200 Y50.69690
G01 X-21.55848 Y50.68669
G01 X-21.64555 Y50.76390
G01 X-21.71795 Y50.88930
G01 X-21.74128 Y51.00331
G01 X-21.68920 Y51.07310
G01 X-21.62615 Y51.10950
G01 X-21.54036 Y51.11931
G01 X-21.47089 Y51.07258
G01 X-21.36622 Y50.96489
G01 X-21.27471 Y50.89117
G01 X-21.17617 Y50.86770
G01 X-21.08998 Y50.87681
G01 X-20.99437 Y50.93201
G01 X-20.94338 Y51.00210
G01 X-20.92871 Y51.05029
G01 X-20.95273 Y51.16390
G01 X-20.81417 Y51.24390
G01 X-21.05057 Y51.65336
G01 X-21.21417 Y51.93672
G01 X-21.35273 Y51.85672
G01 X-21.32871 Y51.74311
G01 X-21.34338 Y51.69492
G01 X-21.39437 Y51.62483
G01 X-21.34338 Y51.69492
G01 X-21.32871 Y51.74311
G01 X-21.35273 Y51.85672
G01 X-21.40793 Y51.95233
G01 X-21.49111 Y52.02439
G01 X-21.59245 Y52.05272
G01 X-21.71051 Y52.02520
G01 X-21.77910 Y51.98560
G01 X-21.85711 Y51.89992
G01 X-21.88809 Y51.79519
G01 X-21.86796 Y51.68673
G01 X-21.81276 Y51.59112
G01 X-21.72569 Y51.51391
G01 X-21.67662 Y51.50252
G01 X-21.99035 Y51.36111
G01 X-22.17315 Y51.67773
G01 X-21.99035 Y51.36111
G01 X-21.67662 Y51.50252
G01 X-21.72569 Y51.51391
G01 X-21.81276 Y51.59112
G01 X-21.86796 Y51.68673
G01 X-21.88809 Y51.79519
G01 X-21.85711 Y51.89992
G01 X-21.77910 Y51.98560
G01 X-21.71051 Y52.02520
G01 X-21.59245 Y52.05272
G01 X-21.49111 Y52.02439
G01 X-21.40793 Y51.95233
G01 X-21.35273 Y51.85672
G01 X-21.21417 Y51.93672
G01 X-21.45057 Y52.34618
G01 X-21.62297 Y52.64478
G01 X-21.76153 Y52.56478
G01 X-21.73751 Y52.45117
G01 X-21.78405 Y52.38458
G01 X-21.73751 Y52.45117
G01 X-21.76153 Y52.56478
G01 X-21.79633 Y52.62506
G01 X-21.88231 Y52.70197
G01 X-22.02077 Y52.70979
G01 X-22.20217 Y52.64478
G01 X-22.36636 Y52.54998
G01 X-22.48080 Y52.44419
G01 X-22.51208 Y52.33837
G01 X-22.48915 Y52.22506
G01 X-22.47155 Y52.19457
G01 X-22.38448 Y52.11736
G01 X-22.28080 Y52.09778
G01 X-22.16274 Y52.12530
G01 X-22.13156 Y52.14330
G01 X-22.04871 Y52.23178
G01 X-22.01937 Y52.32816
G01 X-22.04270 Y52.44217
G01 X-22.06030 Y52.47266
G01 X-22.14697 Y52.54917
G01 X-22.24871 Y52.57819
G01 X-22.36636 Y52.54998
G01 X-22.20217 Y52.64478
G01 X-22.02077 Y52.70979
G01 X-21.88231 Y52.70197
G01 X-21.79633 Y52.62506
G01 X-21.76153 Y52.56478
G01 X-21.62297 Y52.64478
G01 X-21.85057 Y53.03900
G01 X-22.01417 Y53.32236
G01 X-22.15273 Y53.24236
G01 X-22.22513 Y53.36776
G01 X-22.31151 Y53.44537
G01 X-22.36058 Y53.45676
G01 X-22.44677 Y53.44764
G01 X-22.54238 Y53.39244
G01 X-22.59337 Y53.32236
G01 X-22.61951 Y53.22044
G01 X-22.60422 Y53.10917
G01 X-22.56329 Y52.96468
G01 X-22.55756 Y52.88115
G01 X-22.60895 Y52.81176
G01 X-22.67200 Y52.77536
G01 X-22.75848 Y52.76515
G01 X-22.84555 Y52.84236
G01 X-22.91795 Y52.96776
G01 X-22.94128 Y53.08177
G01 X-22.88920 Y53.15156
G01 X-22.82615 Y53.18796
G01 X-22.74036 Y53.19777
G01 X-22.67089 Y53.15104
G01 X-22.56622 Y53.04335
G01 X-22.47471 Y52.96963
G01 X-22.37617 Y52.94616
G01 X-22.28998 Y52.95528
G01 X-22.19437 Y53.01048
G01 X-22.14338 Y53.08056
G01 X-22.12871 Y53.12875
G01 X-22.15273 Y53.24236
G01 X-22.01417 Y53.32236
G01 X-22.25057 Y53.73182
G01 X-22.39657 Y53.98470
G01 X-22.53513 Y53.90470
G01 X-23.40795 Y53.81647
G01 X-23.15555 Y53.37930
G01 X-23.07628 Y53.42599
G01 X-23.15555 Y53.37930
G01 X-23.40795 Y53.81647
G01 X-22.53513 Y53.90470
G01 X-22.39657 Y53.98470
G01 X-22.65057 Y54.42464
G01 X-22.68817 Y54.48976
G01 X-23.12257 Y54.23896
G01 X-23.44697 Y54.80084
G01 X-23.12257 Y54.23896
G01 X-22.68817 Y54.48976
G01 X-23.05057 Y55.11746
G01 X-23.29657 Y55.54354
G01 X-23.43513 Y55.46354
G01 X-24.12795 Y55.06354
G01 X-23.47998 Y55.01642
G01 X-23.75238 Y55.48823
G01 X-23.66238 Y55.33234
G01 X-23.43513 Y55.46354
G01 X-23.29657 Y55.54354
G01 X-23.45057 Y55.81028
G260
M10
G00 X-19.46351 Y43.34475
(PartName=785987-4)
N17 M09
G261
G01 X-19.31751 Y43.09187
G01 X-19.17894 Y43.17187
G01 X-18.30612 Y43.26010
G01 X-18.55852 Y43.69727
G01 X-18.63780 Y43.65057
G01 X-18.55852 Y43.69727
G01 X-18.30612 Y43.26010
G01 X-19.17894 Y43.17187
G01 X-19.31751 Y43.09187
G01 X-19.06351 Y42.65193
G01 X-18.89991 Y42.36856
G01 X-18.76134 Y42.44856
G01 X-18.68894 Y42.32316
G01 X-18.60256 Y42.24555
G01 X-18.55350 Y42.23416
G01 X-18.46731 Y42.24328
G01 X-18.37170 Y42.29848
G01 X-18.32071 Y42.36856
G01 X-18.29457 Y42.47049
G01 X-18.30985 Y42.58175
G01 X-18.35078 Y42.72625
G01 X-18.35651 Y42.80977
G01 X-18.30512 Y42.87916
G01 X-18.24207 Y42.91556
G01 X-18.15559 Y42.92577
G01 X-18.06852 Y42.84856
G01 X-17.99612 Y42.72316
G01 X-17.97279 Y42.60915
G01 X-18.02487 Y42.53936
G01 X-18.08792 Y42.50296
G01 X-18.17371 Y42.49315
G01 X-18.24318 Y42.53988
G01 X-18.34785 Y42.64757
G01 X-18.43937 Y42.72129
G01 X-18.53791 Y42.74476
G01 X-18.62410 Y42.73565
G01 X-18.71971 Y42.68045
G01 X-18.77070 Y42.61036
G01 X-18.78536 Y42.56217
G01 X-18.76134 Y42.44856
G01 X-18.89991 Y42.36856
G01 X-18.66351 Y41.95911
G01 X-18.49991 Y41.67574
G01 X-18.36134 Y41.75574
G01 X-18.38536 Y41.86935
G01 X-18.37070 Y41.91754
G01 X-18.31971 Y41.98763
G01 X-18.37070 Y41.91754
G01 X-18.38536 Y41.86935
G01 X-18.36134 Y41.75574
G01 X-18.30614 Y41.66013
G01 X-18.22296 Y41.58807
G01 X-18.12163 Y41.55974
G01 X-18.00357 Y41.58726
G01 X-17.93498 Y41.62686
G01 X-17.85697 Y41.71254
G01 X-17.82598 Y41.81727
G01 X-17.84611 Y41.92573
G01 X-17.90131 Y42.02134
G01 X-17.98838 Y42.09855
G01 X-18.03745 Y42.10994
G01 X-17.72372 Y42.25135
G01 X-17.54092 Y41.93473
G01 X-17.72372 Y42.25135
G01 X-18.03745 Y42.10994
G01 X-17.98838 Y42.09855
G01 X-17.90131 Y42.02134
G01 X-17.84611 Y41.92573
G01 X-17.82598 Y41.81727
G01 X-17.85697 Y41.71254
G01 X-17.93498 Y41.62686
G01 X-18.00357 Y41.58726
G01 X-18.12163 Y41.55974
G01 X-18.22296 Y41.58807
G01 X-18.30614 Y41.66013
G01 X-18.36134 Y41.75574
G01 X-18.49991 Y41.67574
G01 X-18.26351 Y41.26629
G01 X-18.09111 Y40.96768
G01 X-17.95254 Y41.04768
G01 X-17.97656 Y41.16129
G01 X-17.93003 Y41.22788
G01 X-17.97656 Y41.16129
G01 X-17.95254 Y41.04768
G01 X-17.91774 Y40.98740
G01 X-17.83176 Y40.91049
G01 X-17.69331 Y40.90267
G01 X-17.51191 Y40.96768
G01 X-17.34771 Y41.06248
G01 X-17.23327 Y41.16827
G01 X-17.20199 Y41.27409
G01 X-17.22492 Y41.38740
G01 X-17.24252 Y41.41789
G01 X-17.32959 Y41.49510
G01 X-17.43327 Y41.51468
G01 X-17.55133 Y41.48716
G01 X-17.58251 Y41.46916
G01 X-17.66537 Y41.38068
G01 X-17.69471 Y41.28430
G01 X-17.67138 Y41.17029
G01 X-17.65378 Y41.13980
G01 X-17.56711 Y41.06329
G01 X-17.46537 Y41.03427
G01 X-17.34771 Y41.06248
G01 X-17.51191 Y40.96768
G01 X-17.69331 Y40.90267
G01 X-17.83176 Y40.91049
G01 X-17.91774 Y40.98740
G01 X-17.95254 Y41.04768
G01 X-18.09111 Y40.96768
G01 X-17.86351 Y40.57346
G01 X-17.69991 Y40.29010
G01 X-17.56134 Y40.37010
G01 X-17.48894 Y40.24470
G01 X-17.40256 Y40.16709
G01 X-17.35350 Y40.15570
G01 X-17.26731 Y40.16482
G01 X-17.17170 Y40.22002
G01 X-17.12071 Y40.29010
G01 X-17.09457 Y40.39203
G01 X-17.10985 Y40.50329
G01 X-17.15078 Y40.64779
G01 X-17.15651 Y40.73131
G01 X-17.10512 Y40.80070
G01 X-17.04207 Y40.83710
G01 X-16.95559 Y40.84731
G01 X-16.86852 Y40.77010
G01 X-16.79612 Y40.64470
G01 X-16.77279 Y40.53069
G01 X-16.82487 Y40.46090
G01 X-16.88792 Y40.42450
G01 X-16.97371 Y40.41469
G01 X-17.04318 Y40.46142
G01 X-17.14785 Y40.56911
G01 X-17.23937 Y40.64283
G01 X-17.33791 Y40.66630
G01 X-17.42410 Y40.65719
G01 X-17.51971 Y40.60199
G01 X-17.57070 Y40.53190
G01 X-17.58536 Y40.48371
G01 X-17.56134 Y40.37010
G01 X-17.69991 Y40.29010
G01 X-17.46351 Y39.88064
G01 X-17.31751 Y39.62777
G01 X-17.17894 Y39.70777
G01 X-16.30612 Y39.79600
G01 X-16.55852 Y40.23317
G01 X-16.63780 Y40.18647
G01 X-16.55852 Y40.23317
G01 X-16.30612 Y39.79600
G01 X-17.17894 Y39.70777
G01 X-17.31751 Y39.62777
G01 X-17.06351 Y39.18782
G01 X-17.02591 Y39.12270
G01 X-16.59151 Y39.37350
G01 X-16.26711 Y38.81162
G01 X-16.59151 Y39.37350
G01 X-17.02591 Y39.12270
G01 X-16.66351 Y38.49500
G01 X-16.41751 Y38.06892
G01 X-16.27894 Y38.14892
G01 X-15.58612 Y38.54892
G01 X-16.23410 Y38.59605
G01 X-15.96170 Y38.12423
G01 X-16.05170 Y38.28012
G01 X-16.27894 Y38.14892
G01 X-16.41751 Y38.06892
G01 X-16.26351 Y37.80218
G260
M10
G00 X-30.18086 Y13.15732
(PartName=758397-2)
N18 M09
G261
G01 X-30.32686 Y13.41020
G01 X-30.46542 Y13.33020
G01 X-31.33824 Y13.24197
G01 X-31.08584 Y12.80480
G01 X-31.00657 Y12.85150
G01 X-31.08584 Y12.80480
G01 X-31.33824 Y13.24197
G01 X-30.46542 Y13.33020
G01 X-30.32686 Y13.41020
G01 X-30.58086 Y13.85014
G01 X-30.74446 Y14.13351
G01 X-30.88302 Y14.05351
G01 X-30.85900 Y13.93990
G01 X-30.87367 Y13.89171
G01 X-30.92466 Y13.82162
G01 X-30.87367 Y13.89171
G01 X-30.85900 Y13.93990
G01 X-30.88302 Y14.05351
G01 X-30.93822 Y14.14912
G01 X-31.02140 Y14.22118
G01 X-31.12274 Y14.24951
G01 X-31.24080 Y14.22199
G01 X-31.30939 Y14.18239
G01 X-31.38740 Y14.09671
G01 X-31.41839 Y13.99198
G01 X-31.39826 Y13.88352
G01 X-31.34306 Y13.78791
G01 X-31.25599 Y13.71070
G01 X-31.20692 Y13.69931
G01 X-31.52064 Y13.55790
G01 X-31.70344 Y13.87452
G01 X-31.52064 Y13.55790
G01 X-31.20692 Y13.69931
G01 X-31.25599 Y13.71070
G01 X-31.34306 Y13.78791
G01 X-31.39826 Y13.88352
G01 X-31.41839 Y13.99198
G01 X-31.38740 Y14.09671
G01 X-31.30939 Y14.18239
G01 X-31.24080 Y14.22199
G01 X-31.12274 Y14.24951
G01 X-31.02140 Y14.22118
G01 X-30.93822 Y14.14912
G01 X-30.88302 Y14.05351
G01 X-30.74446 Y14.13351
G01 X-30.98086 Y14.54296
G01 X-31.14446 Y14.82633
G01 X-31.28302 Y14.74633
G01 X-31.35542 Y14.87173
G01 X-31.44180 Y14.94934
G01 X-31.49087 Y14.96073
G01 X-31.57706 Y14.95161
G01 X-31.67267 Y14.89641
G01 X-31.72366 Y14.82633
G01 X-31.74980 Y14.72440
G01 X-31.73452 Y14.61314
G01 X-31.69359 Y14.46864
G01 X-31.68786 Y14.38512
G01 X-31.73925 Y14.31573
G01 X-31.80229 Y14.27933
G01 X-31.88877 Y14.26912
G01 X-31.97584 Y14.34633
G01 X-32.04824 Y14.47173
G01 X-32.07157 Y14.58574
G01 X-32.01949 Y14.65553
G01 X-31.95645 Y14.69193
G01 X-31.87066 Y14.70174
G01 X-31.80119 Y14.65501
G01 X-31.69652 Y14.54732
G01 X-31.60500 Y14.47360
G01 X-31.50646 Y14.45013
G01 X-31.42027 Y14.45924
G01 X-31.32466 Y14.51444
G01 X-31.27367 Y14.58453
G01 X-31.25900 Y14.63272
G01 X-31.28302 Y14.74633
G01 X-31.14446 Y14.82633
G01 X-31.38086 Y15.23579
G01 X-31.54446 Y15.51915
G01 X-31.68302 Y15.43915
G01 X-31.65900 Y15.32554
G01 X-31.67367 Y15.27735
G01 X-31.72466 Y15.20726
G01 X-31.67367 Y15.27735
G01 X-31.65900 Y15.32554
G01 X-31.68302 Y15.43915
G01 X-31.73822 Y15.53476
G01 X-31.82140 Y15.60682
G01 X-31.92274 Y15.63515
G01 X-32.04080 Y15.60763
G01 X-32.10939 Y15.56803
G01 X-32.18740 Y15.48235
G01 X-32.20692 Y15.43136
G01 X-32.20119 Y15.34783
G01 X-32.14599 Y15.25222
G01 X-32.52064 Y15.28995
G01 X-32.32064 Y14.94354
G01 X-32.52064 Y15.28995
G01 X-32.14599 Y15.25222
G01 X-32.20119 Y15.34783
G01 X-32.20692 Y15.43136
G01 X-32.18740 Y15.48235
G01 X-32.10939 Y15.56803
G01 X-32.04080 Y15.60763
G01 X-31.92274 Y15.63515
G01 X-31.82140 Y15.60682
G01 X-31.73822 Y15.53476
G01 X-31.68302 Y15.43915
G01 X-31.54446 Y15.51915
G01 X-31.78086 Y15.92861
G01 X-31.95326 Y16.22721
G01 X-32.09182 Y16.14721
G01 X-32.06780 Y16.03360
G01 X-32.11434 Y15.96701
G01 X-32.06780 Y16.03360
G01 X-32.09182 Y16.14721
G01 X-32.12662 Y16.20749
G01 X-32.21260 Y16.28440
G01 X-32.35106 Y16.29222
G01 X-32.53246 Y16.22721
G01 X-32.69666 Y16.13241
G01 X-32.81109 Y16.02662
G01 X-32.84237 Y15.92080
G01 X-32.81944 Y15.80749
G01 X-32.80184 Y15.77700
G01 X-32.71477 Y15.69979
G01 X-32.61109 Y15.68021
G01 X-32.49303 Y15.70773
G01 X-32.46186 Y15.72573
G01 X-32.37900 Y15.81421
G01 X-32.34966 Y15.91059
G01 X-32.37299 Y16.02460
G01 X-32.39059 Y16.05509
G01 X-32.47726 Y16.13160
G01 X-32.57900 Y16.16062
G01 X-32.69666 Y16.13241
G01 X-32.53246 Y16.22721
G01 X-32.35106 Y16.29222
G01 X-32.21260 Y16.28440
G01 X-32.12662 Y16.20749
G01 X-32.09182 Y16.14721
G01 X-31.95326 Y16.22721
G01 X-32.18086 Y16.62143
G01 X-32.32686 Y16.87431
G01 X-32.46542 Y16.79431
G01 X-33.33824 Y16.70607
G01 X-33.08584 Y16.26890
G01 X-33.00657 Y16.31560
G01 X-33.08584 Y16.26890
G01 X-33.33824 Y16.70607
G01 X-32.46542 Y16.79431
G01 X-32.32686 Y16.87431
G01 X-32.58086 Y17.31425
G01 X-32.61846 Y17.37937
G01 X-33.05286 Y17.12857
G01 X-33.37726 Y17.69045
G01 X-33.05286 Y17.12857
G01 X-32.61846 Y17.37937
G01 X-32.98086 Y18.00707
G01 X-33.05446 Y18.13455
G01 X-33.19302 Y18.05455
G01 X-33.44542 Y18.49172
G01 X-33.19302 Y18.05455
G01 X-33.70073 Y18.17711
G01 X-33.83879 Y18.18424
G01 X-33.91903 Y18.17763
G01 X-33.98832 Y18.13763
G01 X-34.03416 Y18.07144
G01 X-34.05117 Y18.01451
G01 X-34.04824 Y17.93583
G01 X-33.97584 Y17.81043
G01 X-33.90637 Y17.76370
G01 X-33.85136 Y17.75482
G01 X-33.77112 Y17.76143
G01 X-33.73925 Y17.77983
G01 X-33.77112 Y17.76143
G01 X-33.85136 Y17.75482
G01 X-33.90637 Y17.76370
G01 X-33.97584 Y17.81043
G01 X-34.04824 Y17.93583
G01 X-34.05117 Y18.01451
G01 X-34.03416 Y18.07144
G01 X-33.98832 Y18.13763
G01 X-33.91903 Y18.17763
G01 X-33.83879 Y18.18424
G01 X-33.70073 Y18.17711
G01 X-33.19302 Y18.05455
G01 X-33.05446 Y18.13455
G01 X-33.38086 Y18.69989
G260
M10
G00 X-29.39380 Y6.23436
(PartName=758397-2)
N19 M09
G261
G01 X-29.24780 Y5.98148
G01 X-29.10923 Y6.06148
G01 X-28.23641 Y6.14971
G01 X-28.48881 Y6.58688
G01 X-28.56809 Y6.54018
G01 X-28.48881 Y6.58688
G01 X-28.23641 Y6.14971
G01 X-29.10923 Y6.06148
G01 X-29.24780 Y5.98148
G01 X-28.99380 Y5.54154
G01 X-28.83020 Y5.25817
G01 X-28.69163 Y5.33817
G01 X-28.71566 Y5.45178
G01 X-28.70099 Y5.49997
G01 X-28.65000 Y5.57006
G01 X-28.70099 Y5.49997
G01 X-28.71566 Y5.45178
G01 X-28.69163 Y5.33817
G01 X-28.63643 Y5.24256
G01 X-28.55326 Y5.17050
G01 X-28.45192 Y5.14217
G01 X-28.33386 Y5.16969
G01 X-28.26527 Y5.20929
G01 X-28.18726 Y5.29497
G01 X-28.15627 Y5.39970
G01 X-28.17640 Y5.50816
G01 X-28.23160 Y5.60377
G01 X-28.31867 Y5.68098
G01 X-28.36774 Y5.69237
G01 X-28.05401 Y5.83378
G01 X-27.87121 Y5.51716
G01 X-28.05401 Y5.83378
G01 X-28.36774 Y5.69237
G01 X-28.31867 Y5.68098
G01 X-28.23160 Y5.60377
G01 X-28.17640 Y5.50816
G01 X-28.15627 Y5.39970
G01 X-28.18726 Y5.29497
G01 X-28.26527 Y5.20929
G01 X-28.33386 Y5.16969
G01 X-28.45192 Y5.14217
G01 X-28.55326 Y5.17050
G01 X-28.63643 Y5.24256
G01 X-28.69163 Y5.33817
G01 X-28.83020 Y5.25817
G01 X-28.59380 Y4.84871
G01 X-28.43020 Y4.56535
G01 X-28.29163 Y4.64535
G01 X-28.21923 Y4.51995
G01 X-28.13286 Y4.44234
G01 X-28.08379 Y4.43095
G01 X-27.99760 Y4.44007
G01 X-27.90199 Y4.49527
G01 X-27.85100 Y4.56535
G01 X-27.82486 Y4.66728
G01 X-27.84014 Y4.77854
G01 X-27.88107 Y4.92304
G01 X-27.88680 Y5.00656
G01 X-27.83541 Y5.07595
G01 X-27.77237 Y5.11235
G01 X-27.68588 Y5.12256
G01 X-27.59881 Y5.04535
G01 X-27.52641 Y4.91995
G01 X-27.50308 Y4.80594
G01 X-27.55517 Y4.73615
G01 X-27.61821 Y4.69975
G01 X-27.70400 Y4.68994
G01 X-27.77347 Y4.73667
G01 X-27.87814 Y4.84436
G01 X-27.96966 Y4.91808
G01 X-28.06820 Y4.94155
G01 X-28.15439 Y4.93244
G01 X-28.25000 Y4.87724
G01 X-28.30099 Y4.80715
G01 X-28.31566 Y4.75896
G01 X-28.29163 Y4.64535
G01 X-28.43020 Y4.56535
G01 X-28.19380 Y4.15589
G01 X-28.03020 Y3.87253
G01 X-27.89163 Y3.95253
G01 X-27.91566 Y4.06614
G01 X-27.90099 Y4.11433
G01 X-27.85000 Y4.18442
G01 X-27.90099 Y4.11433
G01 X-27.91566 Y4.06614
G01 X-27.89163 Y3.95253
G01 X-27.83643 Y3.85692
G01 X-27.75326 Y3.78486
G01 X-27.65192 Y3.75653
G01 X-27.53386 Y3.78405
G01 X-27.46527 Y3.82365
G01 X-27.38726 Y3.90933
G01 X-27.36774 Y3.96032
G01 X-27.37347 Y4.04385
G01 X-27.42867 Y4.13946
G01 X-27.05401 Y4.10173
G01 X-27.25401 Y4.44814
G01 X-27.05401 Y4.10173
G01 X-27.42867 Y4.13946
G01 X-27.37347 Y4.04385
G01 X-27.36774 Y3.96032
G01 X-27.38726 Y3.90933
G01 X-27.46527 Y3.82365
G01 X-27.53386 Y3.78405
G01 X-27.65192 Y3.75653
G01 X-27.75326 Y3.78486
G01 X-27.83643 Y3.85692
G01 X-27.89163 Y3.95253
G01 X-28.03020 Y3.87253
G01 X-27.79380 Y3.46307
G01 X-27.62140 Y3.16447
G01 X-27.48283 Y3.24447
G01 X-27.50686 Y3.35808
G01 X-27.46032 Y3.42467
G01 X-27.50686 Y3.35808
G01 X-27.48283 Y3.24447
G01 X-27.44803 Y3.18419
G01 X-27.36206 Y3.10728
G01 X-27.22360 Y3.09946
G01 X-27.04220 Y3.16447
G01 X-26.87800 Y3.25927
G01 X-26.76357 Y3.36506
G01 X-26.73228 Y3.47088
G01 X-26.75521 Y3.58419
G01 X-26.77281 Y3.61468
G01 X-26.85988 Y3.69189
G01 X-26.96357 Y3.71147
G01 X-27.08163 Y3.68395
G01 X-27.11280 Y3.66595
G01 X-27.19566 Y3.57747
G01 X-27.22500 Y3.48109
G01 X-27.20167 Y3.36708
G01 X-27.18407 Y3.33659
G01 X-27.09740 Y3.26008
G01 X-26.99566 Y3.23106
G01 X-26.87800 Y3.25927
G01 X-27.04220 Y3.16447
G01 X-27.22360 Y3.09946
G01 X-27.36206 Y3.10728
G01 X-27.44803 Y3.18419
G01 X-27.48283 Y3.24447
G01 X-27.62140 Y3.16447
G01 X-27.39380 Y2.77025
G01 X-27.24780 Y2.51737
G01 X-27.10923 Y2.59737
G01 X-26.23641 Y2.68561
G01 X-26.48881 Y3.12277
G01 X-26.56809 Y3.07608
G01 X-26.48881 Y3.12277
G01 X-26.23641 Y2.68561
G01 X-27.10923 Y2.59737
G01 X-27.24780 Y2.51737
G01 X-26.99380 Y2.07743
G01 X-26.95620 Y2.01231
G01 X-26.52180 Y2.26311
G01 X-26.19740 Y1.70123
G01 X-26.52180 Y2.26311
G01 X-26.95620 Y2.01231
G01 X-26.59380 Y1.38461
G01 X-26.52020 Y1.25713
G01 X-26.38163 Y1.33713
G01 X-26.12923 Y0.89996
G01 X-26.38163 Y1.33713
G01 X-25.87393 Y1.21457
G01 X-25.73587 Y1.20744
G01 X-25.65563 Y1.21405
G01 X-25.58634 Y1.25405
G01 X-25.54050 Y1.32024
G01 X-25.52348 Y1.37717
G01 X-25.52641 Y1.45585
G01 X-25.59881 Y1.58125
G01 X-25.66828 Y1.62797
G01 X-25.72330 Y1.63686
G01 X-25.80354 Y1.63025
G01 X-25.83541 Y1.61185
G01 X-25.80354 Y1.63025
G01 X-25.72330 Y1.63686
G01 X-25.66828 Y1.62797
G01 X-25.59881 Y1.58125
G01 X-25.52641 Y1.45585
G01 X-25.52348 Y1.37717
G01 X-25.54050 Y1.32024
G01 X-25.58634 Y1.25405
G01 X-25.65563 Y1.21405
G01 X-25.73587 Y1.20744
G01 X-25.87393 Y1.21457
G01 X-26.38163 Y1.33713
G01 X-26.52020 Y1.25713
G01 X-26.19380 Y0.69179
G260
M10
G00 X-39.05314 Y25.38659
(PartName=758397-2)
N20 M09
G261
G01 X-39.30602 Y25.24059
G01 X-39.22602 Y25.10202
G01 X-39.13779 Y24.22920
G01 X-38.70062 Y24.48160
G01 X-38.74731 Y24.56088
G01 X-38.70062 Y24.48160
G01 X-39.13779 Y24.22920
G01 X-39.22602 Y25.10202
G01 X-39.30602 Y25.24059
G01 X-39.74596 Y24.98659
G01 X-40.02932 Y24.82299
G01 X-39.94932 Y24.68442
G01 X-39.83571 Y24.70845
G01 X-39.78752 Y24.69378
G01 X-39.71744 Y24.64279
G01 X-39.78752 Y24.69378
G01 X-39.83571 Y24.70845
G01 X-39.94932 Y24.68442
G01 X-40.04493 Y24.62922
G01 X-40.11700 Y24.54605
G01 X-40.14532 Y24.44471
G01 X-40.11781 Y24.32665
G01 X-40.07821 Y24.25806
G01 X-39.99252 Y24.18005
G01 X-39.88780 Y24.14906
G01 X-39.77933 Y24.16919
G01 X-39.68372 Y24.22439
G01 X-39.60651 Y24.31146
G01 X-39.59512 Y24.36053
G01 X-39.45371 Y24.04680
G01 X-39.77033 Y23.86400
G01 X-39.45371 Y24.04680
G01 X-39.59512 Y24.36053
G01 X-39.60651 Y24.31146
G01 X-39.68372 Y24.22439
G01 X-39.77933 Y24.16919
G01 X-39.88780 Y24.14906
G01 X-39.99252 Y24.18005
G01 X-40.07821 Y24.25806
G01 X-40.11781 Y24.32665
G01 X-40.14532 Y24.44471
G01 X-40.11700 Y24.54605
G01 X-40.04493 Y24.62922
G01 X-39.94932 Y24.68442
G01 X-40.02932 Y24.82299
G01 X-40.43878 Y24.58659
G01 X-40.72214 Y24.42299
G01 X-40.64214 Y24.28442
G01 X-40.76754 Y24.21202
G01 X-40.84515 Y24.12565
G01 X-40.85655 Y24.07658
G01 X-40.84743 Y23.99039
G01 X-40.79223 Y23.89478
G01 X-40.72215 Y23.84379
G01 X-40.62022 Y23.81765
G01 X-40.50895 Y23.83293
G01 X-40.36446 Y23.87386
G01 X-40.28094 Y23.87959
G01 X-40.21154 Y23.82820
G01 X-40.17514 Y23.76515
G01 X-40.16494 Y23.67867
G01 X-40.24214 Y23.59160
G01 X-40.36754 Y23.51920
G01 X-40.48155 Y23.49587
G01 X-40.55135 Y23.54795
G01 X-40.58775 Y23.61100
G01 X-40.59755 Y23.69679
G01 X-40.55083 Y23.76626
G01 X-40.44314 Y23.87093
G01 X-40.36942 Y23.96245
G01 X-40.34594 Y24.06099
G01 X-40.35506 Y24.14718
G01 X-40.41026 Y24.24279
G01 X-40.48034 Y24.29378
G01 X-40.52854 Y24.30845
G01 X-40.64214 Y24.28442
G01 X-40.72214 Y24.42299
G01 X-41.13160 Y24.18659
G01 X-41.41496 Y24.02299
G01 X-41.33496 Y23.88442
G01 X-41.22136 Y23.90845
G01 X-41.17316 Y23.89378
G01 X-41.10308 Y23.84279
G01 X-41.17316 Y23.89378
G01 X-41.22136 Y23.90845
G01 X-41.33496 Y23.88442
G01 X-41.43057 Y23.82922
G01 X-41.50264 Y23.74605
G01 X-41.53097 Y23.64471
G01 X-41.50345 Y23.52665
G01 X-41.46385 Y23.45806
G01 X-41.37817 Y23.38005
G01 X-41.32717 Y23.36053
G01 X-41.24365 Y23.36626
G01 X-41.14804 Y23.42146
G01 X-41.18577 Y23.04680
G01 X-40.83936 Y23.24680
G01 X-41.18577 Y23.04680
G01 X-41.14804 Y23.42146
G01 X-41.24365 Y23.36626
G01 X-41.32717 Y23.36053
G01 X-41.37817 Y23.38005
G01 X-41.46385 Y23.45806
G01 X-41.50345 Y23.52665
G01 X-41.53097 Y23.64471
G01 X-41.50264 Y23.74605
G01 X-41.43057 Y23.82922
G01 X-41.33496 Y23.88442
G01 X-41.41496 Y24.02299
G01 X-41.82442 Y23.78659
G01 X-42.12303 Y23.61419
G01 X-42.04303 Y23.47562
G01 X-41.92942 Y23.49965
G01 X-41.86283 Y23.45311
G01 X-41.92942 Y23.49965
G01 X-42.04303 Y23.47562
G01 X-42.10330 Y23.44082
G01 X-42.18022 Y23.35485
G01 X-42.18804 Y23.21639
G01 X-42.12303 Y23.03499
G01 X-42.02823 Y22.87079
G01 X-41.92244 Y22.75635
G01 X-41.81662 Y22.72507
G01 X-41.70330 Y22.74800
G01 X-41.67282 Y22.76560
G01 X-41.59561 Y22.85267
G01 X-41.57603 Y22.95635
G01 X-41.60354 Y23.07441
G01 X-41.62154 Y23.10559
G01 X-41.71003 Y23.18845
G01 X-41.80641 Y23.21779
G01 X-41.92042 Y23.19446
G01 X-41.95090 Y23.17686
G01 X-42.02742 Y23.09019
G01 X-42.05644 Y22.98845
G01 X-42.02823 Y22.87079
G01 X-42.12303 Y23.03499
G01 X-42.18804 Y23.21639
G01 X-42.18022 Y23.35485
G01 X-42.10330 Y23.44082
G01 X-42.04303 Y23.47562
G01 X-42.12303 Y23.61419
G01 X-42.51724 Y23.38659
G01 X-42.77012 Y23.24059
G01 X-42.69012 Y23.10202
G01 X-42.60189 Y22.22920
G01 X-42.16472 Y22.48160
G01 X-42.21141 Y22.56088
G01 X-42.16472 Y22.48160
G01 X-42.60189 Y22.22920
G01 X-42.69012 Y23.10202
G01 X-42.77012 Y23.24059
G01 X-43.21006 Y22.98659
G01 X-43.27519 Y22.94899
G01 X-43.02439 Y22.51459
G01 X-43.58626 Y22.19019
G01 X-43.02439 Y22.51459
G01 X-43.27519 Y22.94899
G01 X-43.90288 Y22.58659
G01 X-44.03036 Y22.51299
G01 X-43.95036 Y22.37442
G01 X-44.38753 Y22.12202
G01 X-43.95036 Y22.37442
G01 X-44.07293 Y21.86672
G01 X-44.08006 Y21.72866
G01 X-44.07345 Y21.64841
G01 X-44.03345 Y21.57913
G01 X-43.96726 Y21.53328
G01 X-43.91032 Y21.51627
G01 X-43.83165 Y21.51920
G01 X-43.70625 Y21.59160
G01 X-43.65952 Y21.66107
G01 X-43.65064 Y21.71608
G01 X-43.65725 Y21.79633
G01 X-43.67565 Y21.82820
G01 X-43.65725 Y21.79633
G01 X-43.65064 Y21.71608
G01 X-43.65952 Y21.66107
G01 X-43.70625 Y21.59160
G01 X-43.83165 Y21.51920
G01 X-43.91032 Y21.51627
G01 X-43.96726 Y21.53328
G01 X-44.03345 Y21.57913
G01 X-44.07345 Y21.64841
G01 X-44.08006 Y21.72866
G01 X-44.07293 Y21.86672
G01 X-43.95036 Y22.37442
G01 X-44.03036 Y22.51299
G01 X-44.59570 Y22.18659
G260
M10
G00 X-32.13017 Y26.17365
(PartName=758397-2)
N21 M09
G261
G01 X-31.87729 Y26.31965
G01 X-31.95729 Y26.45821
G01 X-32.04552 Y27.33103
G01 X-32.48269 Y27.07863
G01 X-32.43600 Y26.99936
G01 X-32.48269 Y27.07863
G01 X-32.04552 Y27.33103
G01 X-31.95729 Y26.45821
G01 X-31.87729 Y26.31965
G01 X-31.43735 Y26.57365
G01 X-31.15399 Y26.73725
G01 X-31.23399 Y26.87581
G01 X-31.34760 Y26.85179
G01 X-31.39579 Y26.86646
G01 X-31.46587 Y26.91745
G01 X-31.39579 Y26.86646
G01 X-31.34760 Y26.85179
