(PP_NAME=PP_Din)
(PP_VERSION=	4.0)
(PP_INI_NAME=GC_US_PLASMA_4.7.ini)
(PP_INI_VERSION=2014-02-26)
(%%INFO MACHINE=HPRXD SS 260A H35)
(%%INFO Material=A240 304L Thickness=0.5 PlateLength=48 PlateWidth=96)
(%%INFO PartName=770936-3=1pcs=8.4lbs)
(%%INFO PartName=801537-1=4pcs=0.43lbs)
(%%INFO PartName=801534-3=1pcs=3.55lbs)
(%%INFO PartName=758475-3=1pcs=8.4lbs)
(%%INFO PartName=785987-3=2pcs=8.4lbs)
(%%INFO PartName=784505-3=1pcs=8.4lbs)
(%%INFO PartName=785986-3=2pcs=8.4lbs)
(%%INFO TotalCutLength=497.896)
(%%INFO TotalPierceCount=13)
(%%INFO TotalProductionTime=00:11:54)
G70
#CONTOUR MODE[DEV PATH_DEV=0.008 RELEVANT_PATH=0.004]
G90
(PlanHeaderCommand)
G162
G141
G237
#CS ON [V.E.START_X, V.E.START_Y, 0, 0, 0, V.E.ROTATION]
M190
G00 X-1.25527 Y0.65500
T23
(PartName=784505-3)
N1 M09
G261
G01 X-1.25527 Y0.94700
G01 X-1.41527 Y0.94700
G01 X-2.21527 Y1.30700
G01 X-2.21527 Y0.80220
G01 X-2.12327 Y0.80300
G01 X-2.21527 Y0.80220
G01 X-2.21527 Y1.30700
G01 X-1.41527 Y0.94700
G01 X-1.25527 Y0.94700
G01 X-1.25527 Y1.45500
G01 X-1.25527 Y1.78220
G01 X-1.41527 Y1.78220
G01 X-1.41527 Y1.92700
G01 X-1.45127 Y2.03740
G01 X-1.48807 Y2.07180
G01 X-1.56727 Y2.10700
G01 X-1.67767 Y2.10700
G01 X-1.75687 Y2.07180
G01 X-1.83047 Y1.99660
G01 X-1.87287 Y1.89260
G01 X-1.90967 Y1.74700
G01 X-1.94647 Y1.67180
G01 X-2.02567 Y1.63740
G01 X-2.09847 Y1.63740
G01 X-2.17847 Y1.67180
G01 X-2.21527 Y1.78220
G01 X-2.21527 Y1.92700
G01 X-2.17847 Y2.03740
G01 X-2.09847 Y2.07180
G01 X-2.02567 Y2.07180
G01 X-1.94647 Y2.03740
G01 X-1.90967 Y1.96220
G01 X-1.87287 Y1.81660
G01 X-1.83047 Y1.70700
G01 X-1.75687 Y1.63740
G01 X-1.67767 Y1.60220
G01 X-1.56727 Y1.60220
G01 X-1.48807 Y1.63740
G01 X-1.45127 Y1.67180
G01 X-1.41527 Y1.78220
G01 X-1.25527 Y1.78220
G01 X-1.25527 Y2.25500
G01 X-1.25527 Y2.74700
G01 X-1.41527 Y2.74700
G01 X-2.21527 Y2.74700
G01 X-1.67767 Y2.38220
G01 X-1.67767 Y2.92700
G01 X-1.67767 Y2.74700
G01 X-1.41527 Y2.74700
G01 X-1.25527 Y2.74700
G01 X-1.25527 Y3.05500
G01 X-1.25527 Y3.38220
G01 X-1.41527 Y3.38220
G01 X-1.45127 Y3.27180
G01 X-1.48807 Y3.23740
G01 X-1.56727 Y3.20220
G01 X-1.48807 Y3.23740
G01 X-1.45127 Y3.27180
G01 X-1.41527 Y3.38220
G01 X-1.41527 Y3.49260
G01 X-1.45127 Y3.59660
G01 X-1.52487 Y3.67180
G01 X-1.64087 Y3.70700
G01 X-1.72007 Y3.70700
G01 X-1.83047 Y3.67180
G01 X-1.90967 Y3.59660
G01 X-1.94647 Y3.49260
G01 X-1.94647 Y3.38220
G01 X-1.90967 Y3.27180
G01 X-1.87287 Y3.23740
G01 X-2.21527 Y3.27180
G01 X-2.21527 Y3.63740
G01 X-2.21527 Y3.27180
G01 X-1.87287 Y3.23740
G01 X-1.90967 Y3.27180
G01 X-1.94647 Y3.38220
G01 X-1.94647 Y3.49260
G01 X-1.90967 Y3.59660
G01 X-1.83047 Y3.67180
G01 X-1.72007 Y3.70700
G01 X-1.64087 Y3.70700
G01 X-1.52487 Y3.67180
G01 X-1.45127 Y3.59660
G01 X-1.41527 Y3.49260
G01 X-1.41527 Y3.38220
G01 X-1.25527 Y3.38220
G01 X-1.25527 Y3.85500
G01 X-1.25527 Y4.21660
G01 X-1.41527 Y4.21660
G01 X-1.45127 Y4.11260
G01 X-1.56727 Y4.03740
G01 X-1.75687 Y4.00220
G01 X-1.87287 Y4.00220
G01 X-2.06247 Y4.03740
G01 X-2.17847 Y4.11260
G01 X-2.21527 Y4.21660
G01 X-2.21527 Y4.29260
G01 X-2.17847 Y4.40220
G01 X-2.06247 Y4.47180
G01 X-1.87287 Y4.50700
G01 X-1.75687 Y4.50700
G01 X-1.56727 Y4.47180
G01 X-1.45127 Y4.40220
G01 X-1.41527 Y4.29260
G01 X-1.41527 Y4.21660
G01 X-1.25527 Y4.21660
G01 X-1.25527 Y4.65500
G01 X-1.25527 Y4.98220
G01 X-1.41527 Y4.98220
G01 X-1.45127 Y4.87180
G01 X-1.48807 Y4.83740
G01 X-1.56727 Y4.80220
G01 X-1.48807 Y4.83740
G01 X-1.45127 Y4.87180
G01 X-1.41527 Y4.98220
G01 X-1.41527 Y5.09260
G01 X-1.45127 Y5.19660
G01 X-1.52487 Y5.27180
G01 X-1.64087 Y5.30700
G01 X-1.72007 Y5.30700
G01 X-1.83047 Y5.27180
G01 X-1.90967 Y5.19660
G01 X-1.94647 Y5.09260
G01 X-1.94647 Y4.98220
G01 X-1.90967 Y4.87180
G01 X-1.87287 Y4.83740
G01 X-2.21527 Y4.87180
G01 X-2.21527 Y5.23740
G01 X-2.21527 Y4.87180
G01 X-1.87287 Y4.83740
G01 X-1.90967 Y4.87180
G01 X-1.94647 Y4.98220
G01 X-1.94647 Y5.09260
G01 X-1.90967 Y5.19660
G01 X-1.83047 Y5.27180
G01 X-1.72007 Y5.30700
G01 X-1.64087 Y5.30700
G01 X-1.52487 Y5.27180
G01 X-1.45127 Y5.19660
G01 X-1.41527 Y5.09260
G01 X-1.41527 Y4.98220
G01 X-1.25527 Y4.98220
G01 X-1.25527 Y5.45500
G01 X-1.25527 Y5.53020
G01 X-1.75687 Y5.53020
G01 X-1.75687 Y6.17900
G01 X-1.75687 Y5.53020
G01 X-1.25527 Y5.53020
G01 X-1.25527 Y6.25500
G01 X-1.25527 Y6.58220
G01 X-1.41527 Y6.58220
G01 X-1.45127 Y6.47180
G01 X-1.48807 Y6.43740
G01 X-1.56727 Y6.40220
G01 X-1.48807 Y6.43740
G01 X-1.45127 Y6.47180
G01 X-1.41527 Y6.58220
G01 X-1.41527 Y6.69260
G01 X-1.45127 Y6.79660
G01 X-1.52487 Y6.87180
G01 X-1.64087 Y6.90700
G01 X-1.72007 Y6.90700
G01 X-1.83047 Y6.87180
G01 X-1.87287 Y6.83740
G01 X-1.90967 Y6.76220
G01 X-1.90967 Y6.65180
G01 X-2.21527 Y6.87180
G01 X-2.21527 Y6.47180
G01 X-2.21527 Y6.87180
G01 X-1.90967 Y6.65180
G01 X-1.90967 Y6.76220
G01 X-1.87287 Y6.83740
G01 X-1.83047 Y6.87180
G01 X-1.72007 Y6.90700
G01 X-1.64087 Y6.90700
G01 X-1.52487 Y6.87180
G01 X-1.45127 Y6.79660
G01 X-1.41527 Y6.69260
G01 X-1.41527 Y6.58220
G01 X-1.25527 Y6.58220
G01 X-1.25527 Y7.05500
G260
M10
G00 X-1.25527 Y19.18719
(PartName=785986-3)
N2 M09
G261
G01 X-1.25527 Y19.47919
G01 X-1.41527 Y19.47919
G01 X-2.21527 Y19.83919
G01 X-2.21527 Y19.33439
G01 X-2.12327 Y19.33519
G01 X-2.21527 Y19.33439
G01 X-2.21527 Y19.83919
G01 X-1.41527 Y19.47919
G01 X-1.25527 Y19.47919
G01 X-1.25527 Y19.98719
G01 X-1.25527 Y20.31439
G01 X-1.41527 Y20.31439
G01 X-1.41527 Y20.45919
G01 X-1.45127 Y20.56959
G01 X-1.48807 Y20.60399
G01 X-1.56727 Y20.63919
G01 X-1.67767 Y20.63919
G01 X-1.75687 Y20.60399
G01 X-1.83047 Y20.52879
G01 X-1.87287 Y20.42479
G01 X-1.90967 Y20.27919
G01 X-1.94647 Y20.20399
G01 X-2.02567 Y20.16959
G01 X-2.09847 Y20.16959
G01 X-2.17847 Y20.20399
G01 X-2.21527 Y20.31439
G01 X-2.21527 Y20.45919
G01 X-2.17847 Y20.56959
G01 X-2.09847 Y20.60399
G01 X-2.02567 Y20.60399
G01 X-1.94647 Y20.56959
G01 X-1.90967 Y20.49439
G01 X-1.87287 Y20.34879
G01 X-1.83047 Y20.23919
G01 X-1.75687 Y20.16959
G01 X-1.67767 Y20.13439
G01 X-1.56727 Y20.13439
G01 X-1.48807 Y20.16959
G01 X-1.45127 Y20.20399
G01 X-1.41527 Y20.31439
G01 X-1.25527 Y20.31439
G01 X-1.25527 Y20.78719
G01 X-1.25527 Y21.11439
G01 X-1.41527 Y21.11439
G01 X-1.45127 Y21.00399
G01 X-1.48807 Y20.96959
G01 X-1.56727 Y20.93439
G01 X-1.48807 Y20.96959
G01 X-1.45127 Y21.00399
G01 X-1.41527 Y21.11439
G01 X-1.41527 Y21.22479
G01 X-1.45127 Y21.32879
G01 X-1.52487 Y21.40399
G01 X-1.64087 Y21.43919
G01 X-1.72007 Y21.43919
G01 X-1.83047 Y21.40399
G01 X-1.90967 Y21.32879
G01 X-1.94647 Y21.22479
G01 X-1.94647 Y21.11439
G01 X-1.90967 Y21.00399
G01 X-1.87287 Y20.96959
G01 X-2.21527 Y21.00399
G01 X-2.21527 Y21.36959
G01 X-2.21527 Y21.00399
G01 X-1.87287 Y20.96959
G01 X-1.90967 Y21.00399
G01 X-1.94647 Y21.11439
G01 X-1.94647 Y21.22479
G01 X-1.90967 Y21.32879
G01 X-1.83047 Y21.40399
G01 X-1.72007 Y21.43919
G01 X-1.64087 Y21.43919
G01 X-1.52487 Y21.40399
G01 X-1.45127 Y21.32879
G01 X-1.41527 Y21.22479
G01 X-1.41527 Y21.11439
G01 X-1.25527 Y21.11439
G01 X-1.25527 Y21.58719
G01 X-1.25527 Y21.93199
G01 X-1.41527 Y21.93199
G01 X-1.45127 Y21.82159
G01 X-1.52487 Y21.78719
G01 X-1.45127 Y21.82159
G01 X-1.41527 Y21.93199
G01 X-1.41527 Y22.00159
G01 X-1.45127 Y22.11119
G01 X-1.56727 Y22.18719
G01 X-1.75687 Y22.22159
G01 X-1.94647 Y22.22159
G01 X-2.09847 Y22.18719
G01 X-2.17847 Y22.11119
G01 X-2.21527 Y22.00159
G01 X-2.21527 Y21.96639
G01 X-2.17847 Y21.85599
G01 X-2.09847 Y21.78719
G01 X-1.98247 Y21.75199
G01 X-1.94647 Y21.75199
G01 X-1.83047 Y21.78719
G01 X-1.75687 Y21.85599
G01 X-1.72007 Y21.96639
G01 X-1.72007 Y22.00159
G01 X-1.75687 Y22.11119
G01 X-1.83047 Y22.18719
G01 X-1.94647 Y22.22159
G01 X-1.75687 Y22.22159
G01 X-1.56727 Y22.18719
G01 X-1.45127 Y22.11119
G01 X-1.41527 Y22.00159
G01 X-1.41527 Y21.93199
G01 X-1.25527 Y21.93199
G01 X-1.25527 Y22.38719
G01 X-1.25527 Y22.71439
G01 X-1.41527 Y22.71439
G01 X-1.41527 Y22.85919
G01 X-1.45127 Y22.96959
G01 X-1.48807 Y23.00399
G01 X-1.56727 Y23.03919
G01 X-1.67767 Y23.03919
G01 X-1.75687 Y23.00399
G01 X-1.83047 Y22.92879
G01 X-1.87287 Y22.82479
G01 X-1.90967 Y22.67919
G01 X-1.94647 Y22.60399
G01 X-2.02567 Y22.56959
G01 X-2.09847 Y22.56959
G01 X-2.17847 Y22.60399
G01 X-2.21527 Y22.71439
G01 X-2.21527 Y22.85919
G01 X-2.17847 Y22.96959
G01 X-2.09847 Y23.00399
G01 X-2.02567 Y23.00399
G01 X-1.94647 Y22.96959
G01 X-1.90967 Y22.89439
G01 X-1.87287 Y22.74879
G01 X-1.83047 Y22.63919
G01 X-1.75687 Y22.56959
G01 X-1.67767 Y22.53439
G01 X-1.56727 Y22.53439
G01 X-1.48807 Y22.56959
G01 X-1.45127 Y22.60399
G01 X-1.41527 Y22.71439
G01 X-1.25527 Y22.71439
G01 X-1.25527 Y23.18719
G01 X-1.25527 Y23.56639
G01 X-1.41527 Y23.56639
G01 X-1.41527 Y23.60159
G01 X-1.45127 Y23.71119
G01 X-1.52487 Y23.78719
G01 X-1.64087 Y23.82159
G01 X-1.67767 Y23.82159
G01 X-1.79367 Y23.78719
G01 X-1.87287 Y23.71119
G01 X-1.90967 Y23.60159
G01 X-1.90967 Y23.56639
G01 X-1.87287 Y23.45599
G01 X-1.79367 Y23.38719
G01 X-1.67767 Y23.35199
G01 X-1.87287 Y23.35199
G01 X-2.06247 Y23.38719
G01 X-2.17847 Y23.45599
G01 X-2.21527 Y23.56639
G01 X-2.21527 Y23.64159
G01 X-2.17847 Y23.74639
G01 X-2.09847 Y23.78719
G01 X-2.17847 Y23.74639
G01 X-2.21527 Y23.64159
G01 X-2.21527 Y23.56639
G01 X-2.17847 Y23.45599
G01 X-2.06247 Y23.38719
G01 X-1.87287 Y23.35199
G01 X-1.67767 Y23.35199
G01 X-1.52487 Y23.38719
G01 X-1.45127 Y23.45599
G01 X-1.41527 Y23.56639
G01 X-1.25527 Y23.56639
G01 X-1.25527 Y23.98719
G01 X-1.25527 Y24.06239
G01 X-1.75687 Y24.06239
G01 X-1.75687 Y24.71119
G01 X-1.75687 Y24.06239
G01 X-1.25527 Y24.06239
G01 X-1.25527 Y24.78719
G01 X-1.25527 Y25.11439
G01 X-1.41527 Y25.11439
G01 X-1.45127 Y25.00399
G01 X-1.48807 Y24.96959
G01 X-1.56727 Y24.93439
G01 X-1.48807 Y24.96959
G01 X-1.45127 Y25.00399
G01 X-1.41527 Y25.11439
G01 X-1.41527 Y25.22479
G01 X-1.45127 Y25.32879
G01 X-1.52487 Y25.40399
G01 X-1.64087 Y25.43919
G01 X-1.72007 Y25.43919
G01 X-1.83047 Y25.40399
G01 X-1.87287 Y25.36959
G01 X-1.90967 Y25.29439
G01 X-1.90967 Y25.18399
G01 X-2.21527 Y25.40399
G01 X-2.21527 Y25.00399
G01 X-2.21527 Y25.40399
G01 X-1.90967 Y25.18399
G01 X-1.90967 Y25.29439
G01 X-1.87287 Y25.36959
G01 X-1.83047 Y25.40399
G01 X-1.72007 Y25.43919
G01 X-1.64087 Y25.43919
G01 X-1.52487 Y25.40399
G01 X-1.45127 Y25.32879
G01 X-1.41527 Y25.22479
G01 X-1.41527 Y25.11439
G01 X-1.25527 Y25.11439
G01 X-1.25527 Y25.58719
G260
M10
G00 X-1.25527 Y37.71937
(PartName=785986-3)
N3 M09
G261
G01 X-1.25527 Y38.01138
G01 X-1.41527 Y38.01138
G01 X-2.21527 Y38.37138
G01 X-2.21527 Y37.86657
G01 X-2.12327 Y37.86738
G01 X-2.21527 Y37.86657
G01 X-2.21527 Y38.37138
G01 X-1.41527 Y38.01138
G01 X-1.25527 Y38.01138
G01 X-1.25527 Y38.51937
G01 X-1.25527 Y38.84658
G01 X-1.41527 Y38.84658
G01 X-1.41527 Y38.99137
G01 X-1.45127 Y39.10177
G01 X-1.48807 Y39.13618
G01 X-1.56727 Y39.17138
G01 X-1.67767 Y39.17138
G01 X-1.75687 Y39.13618
G01 X-1.83047 Y39.06097
G01 X-1.87287 Y38.95697
G01 X-1.90967 Y38.81137
G01 X-1.94647 Y38.73618
G01 X-2.02567 Y38.70177
G01 X-2.09847 Y38.70177
G01 X-2.17847 Y38.73618
G01 X-2.21527 Y38.84658
G01 X-2.21527 Y38.99137
G01 X-2.17847 Y39.10177
G01 X-2.09847 Y39.13618
G01 X-2.02567 Y39.13618
G01 X-1.94647 Y39.10177
G01 X-1.90967 Y39.02658
G01 X-1.87287 Y38.88097
G01 X-1.83047 Y38.77137
G01 X-1.75687 Y38.70177
G01 X-1.67767 Y38.66657
G01 X-1.56727 Y38.66657
G01 X-1.48807 Y38.70177
G01 X-1.45127 Y38.73618
G01 X-1.41527 Y38.84658
G01 X-1.25527 Y38.84658
G01 X-1.25527 Y39.31938
G01 X-1.25527 Y39.64657
G01 X-1.41527 Y39.64657
G01 X-1.45127 Y39.53618
G01 X-1.48807 Y39.50178
G01 X-1.56727 Y39.46657
G01 X-1.48807 Y39.50178
G01 X-1.45127 Y39.53618
G01 X-1.41527 Y39.64657
G01 X-1.41527 Y39.75698
G01 X-1.45127 Y39.86097
G01 X-1.52487 Y39.93617
G01 X-1.64087 Y39.97138
G01 X-1.72007 Y39.97138
G01 X-1.83047 Y39.93617
G01 X-1.90967 Y39.86097
G01 X-1.94647 Y39.75698
G01 X-1.94647 Y39.64657
G01 X-1.90967 Y39.53618
G01 X-1.87287 Y39.50178
G01 X-2.21527 Y39.53618
G01 X-2.21527 Y39.90178
G01 X-2.21527 Y39.53618
G01 X-1.87287 Y39.50178
G01 X-1.90967 Y39.53618
G01 X-1.94647 Y39.64657
G01 X-1.94647 Y39.75698
G01 X-1.90967 Y39.86097
G01 X-1.83047 Y39.93617
G01 X-1.72007 Y39.97138
G01 X-1.64087 Y39.97138
G01 X-1.52487 Y39.93617
G01 X-1.45127 Y39.86097
G01 X-1.41527 Y39.75698
G01 X-1.41527 Y39.64657
G01 X-1.25527 Y39.64657
G01 X-1.25527 Y40.11937
G01 X-1.25527 Y40.46417
G01 X-1.41527 Y40.46417
G01 X-1.45127 Y40.35377
G01 X-1.52487 Y40.31938
G01 X-1.45127 Y40.35377
G01 X-1.41527 Y40.46417
G01 X-1.41527 Y40.53377
G01 X-1.45127 Y40.64337
G01 X-1.56727 Y40.71937
G01 X-1.75687 Y40.75377
G01 X-1.94647 Y40.75377
G01 X-2.09847 Y40.71937
G01 X-2.17847 Y40.64337
G01 X-2.21527 Y40.53377
G01 X-2.21527 Y40.49857
G01 X-2.17847 Y40.38817
G01 X-2.09847 Y40.31938
G01 X-1.98247 Y40.28417
G01 X-1.94647 Y40.28417
G01 X-1.83047 Y40.31938
G01 X-1.75687 Y40.38817
G01 X-1.72007 Y40.49857
G01 X-1.72007 Y40.53377
G01 X-1.75687 Y40.64337
G01 X-1.83047 Y40.71937
G01 X-1.94647 Y40.75377
G01 X-1.75687 Y40.75377
G01 X-1.56727 Y40.71937
G01 X-1.45127 Y40.64337
G01 X-1.41527 Y40.53377
G01 X-1.41527 Y40.46417
G01 X-1.25527 Y40.46417
G01 X-1.25527 Y40.91937
G01 X-1.25527 Y41.24658
G01 X-1.41527 Y41.24658
G01 X-1.41527 Y41.39137
G01 X-1.45127 Y41.50178
G01 X-1.48807 Y41.53618
G01 X-1.56727 Y41.57138
G01 X-1.67767 Y41.57138
G01 X-1.75687 Y41.53618
G01 X-1.83047 Y41.46097
G01 X-1.87287 Y41.35697
G01 X-1.90967 Y41.21138
G01 X-1.94647 Y41.13618
G01 X-2.02567 Y41.10178
G01 X-2.09847 Y41.10178
G01 X-2.17847 Y41.13618
G01 X-2.21527 Y41.24658
G01 X-2.21527 Y41.39137
G01 X-2.17847 Y41.50178
G01 X-2.09847 Y41.53618
G01 X-2.02567 Y41.53618
G01 X-1.94647 Y41.50178
G01 X-1.90967 Y41.42657
G01 X-1.87287 Y41.28098
G01 X-1.83047 Y41.17137
G01 X-1.75687 Y41.10178
G01 X-1.67767 Y41.06658
G01 X-1.56727 Y41.06658
G01 X-1.48807 Y41.10178
G01 X-1.45127 Y41.13618
G01 X-1.41527 Y41.24658
G01 X-1.25527 Y41.24658
G01 X-1.25527 Y41.71937
G01 X-1.25527 Y42.09857
G01 X-1.41527 Y42.09857
G01 X-1.41527 Y42.13377
G01 X-1.45127 Y42.24338
G01 X-1.52487 Y42.31938
G01 X-1.64087 Y42.35377
G01 X-1.67767 Y42.35377
G01 X-1.79367 Y42.31938
G01 X-1.87287 Y42.24338
G01 X-1.90967 Y42.13377
G01 X-1.90967 Y42.09857
G01 X-1.87287 Y41.98818
G01 X-1.79367 Y41.91937
G01 X-1.67767 Y41.88417
G01 X-1.87287 Y41.88417
G01 X-2.06247 Y41.91937
G01 X-2.17847 Y41.98818
G01 X-2.21527 Y42.09857
G01 X-2.21527 Y42.17377
G01 X-2.17847 Y42.27857
G01 X-2.09847 Y42.31938
G01 X-2.17847 Y42.27857
G01 X-2.21527 Y42.17377
G01 X-2.21527 Y42.09857
G01 X-2.17847 Y41.98818
G01 X-2.06247 Y41.91937
G01 X-1.87287 Y41.88417
G01 X-1.67767 Y41.88417
G01 X-1.52487 Y41.91937
G01 X-1.45127 Y41.98818
G01 X-1.41527 Y42.09857
G01 X-1.25527 Y42.09857
G01 X-1.25527 Y42.51937
G01 X-1.25527 Y42.59458
G01 X-1.75687 Y42.59458
G01 X-1.75687 Y43.24338
G01 X-1.75687 Y42.59458
G01 X-1.25527 Y42.59458
G01 X-1.25527 Y43.31937
G01 X-1.25527 Y43.64657
G01 X-1.41527 Y43.64657
G01 X-1.45127 Y43.53618
G01 X-1.48807 Y43.50178
G01 X-1.56727 Y43.46657
G01 X-1.48807 Y43.50178
G01 X-1.45127 Y43.53618
G01 X-1.41527 Y43.64657
G01 X-1.41527 Y43.75698
G01 X-1.45127 Y43.86097
G01 X-1.52487 Y43.93618
G01 X-1.64087 Y43.97137
G01 X-1.72007 Y43.97137
G01 X-1.83047 Y43.93618
G01 X-1.87287 Y43.90177
G01 X-1.90967 Y43.82657
G01 X-1.90967 Y43.71617
G01 X-2.21527 Y43.93618
G01 X-2.21527 Y43.53618
G01 X-2.21527 Y43.93618
G01 X-1.90967 Y43.71617
G01 X-1.90967 Y43.82657
G01 X-1.87287 Y43.90177
G01 X-1.83047 Y43.93618
G01 X-1.72007 Y43.97137
G01 X-1.64087 Y43.97137
G01 X-1.52487 Y43.93618
G01 X-1.45127 Y43.86097
G01 X-1.41527 Y43.75698
G01 X-1.41527 Y43.64657
G01 X-1.25527 Y43.64657
G01 X-1.25527 Y44.11938
G260
M10
G00 X-1.25527 Y56.25156
(PartName=785987-3)
N4 M09
G261
G01 X-1.25527 Y56.54356
G01 X-1.41527 Y56.54356
G01 X-2.21527 Y56.90356
G01 X-2.21527 Y56.39876
G01 X-2.12327 Y56.39956
G01 X-2.21527 Y56.39876
G01 X-2.21527 Y56.90356
G01 X-1.41527 Y56.54356
G01 X-1.25527 Y56.54356
G01 X-1.25527 Y57.05156
G01 X-1.25527 Y57.37876
G01 X-1.41527 Y57.37876
G01 X-1.41527 Y57.52356
G01 X-1.45127 Y57.63396
G01 X-1.48807 Y57.66836
G01 X-1.56727 Y57.70356
G01 X-1.67767 Y57.70356
G01 X-1.75687 Y57.66836
G01 X-1.83047 Y57.59316
G01 X-1.87287 Y57.48916
G01 X-1.90967 Y57.34356
G01 X-1.94647 Y57.26836
G01 X-2.02567 Y57.23396
G01 X-2.09847 Y57.23396
G01 X-2.17847 Y57.26836
G01 X-2.21527 Y57.37876
G01 X-2.21527 Y57.52356
G01 X-2.17847 Y57.63396
G01 X-2.09847 Y57.66836
G01 X-2.02567 Y57.66836
G01 X-1.94647 Y57.63396
G01 X-1.90967 Y57.55876
G01 X-1.87287 Y57.41316
G01 X-1.83047 Y57.30356
G01 X-1.75687 Y57.23396
G01 X-1.67767 Y57.19876
G01 X-1.56727 Y57.19876
G01 X-1.48807 Y57.23396
G01 X-1.45127 Y57.26836
G01 X-1.41527 Y57.37876
G01 X-1.25527 Y57.37876
G01 X-1.25527 Y57.85156
G01 X-1.25527 Y58.17876
G01 X-1.41527 Y58.17876
G01 X-1.45127 Y58.06836
G01 X-1.48807 Y58.03396
G01 X-1.56727 Y57.99876
G01 X-1.48807 Y58.03396
G01 X-1.45127 Y58.06836
G01 X-1.41527 Y58.17876
G01 X-1.41527 Y58.28916
G01 X-1.45127 Y58.39316
G01 X-1.52487 Y58.46836
G01 X-1.64087 Y58.50356
G01 X-1.72007 Y58.50356
G01 X-1.83047 Y58.46836
G01 X-1.90967 Y58.39316
G01 X-1.94647 Y58.28916
G01 X-1.94647 Y58.17876
G01 X-1.90967 Y58.06836
G01 X-1.87287 Y58.03396
G01 X-2.21527 Y58.06836
G01 X-2.21527 Y58.43396
G01 X-2.21527 Y58.06836
G01 X-1.87287 Y58.03396
G01 X-1.90967 Y58.06836
G01 X-1.94647 Y58.17876
G01 X-1.94647 Y58.28916
G01 X-1.90967 Y58.39316
G01 X-1.83047 Y58.46836
G01 X-1.72007 Y58.50356
G01 X-1.64087 Y58.50356
G01 X-1.52487 Y58.46836
G01 X-1.45127 Y58.39316
G01 X-1.41527 Y58.28916
G01 X-1.41527 Y58.17876
G01 X-1.25527 Y58.17876
G01 X-1.25527 Y58.65156
G01 X-1.25527 Y58.99636
G01 X-1.41527 Y58.99636
G01 X-1.45127 Y58.88596
G01 X-1.52487 Y58.85156
G01 X-1.45127 Y58.88596
G01 X-1.41527 Y58.99636
G01 X-1.41527 Y59.06596
G01 X-1.45127 Y59.17556
G01 X-1.56727 Y59.25156
G01 X-1.75687 Y59.28596
G01 X-1.94647 Y59.28596
G01 X-2.09847 Y59.25156
G01 X-2.17847 Y59.17556
G01 X-2.21527 Y59.06596
G01 X-2.21527 Y59.03076
G01 X-2.17847 Y58.92036
G01 X-2.09847 Y58.85156
G01 X-1.98247 Y58.81636
G01 X-1.94647 Y58.81636
G01 X-1.83047 Y58.85156
G01 X-1.75687 Y58.92036
G01 X-1.72007 Y59.03076
G01 X-1.72007 Y59.06596
G01 X-1.75687 Y59.17556
G01 X-1.83047 Y59.25156
G01 X-1.94647 Y59.28596
G01 X-1.75687 Y59.28596
G01 X-1.56727 Y59.25156
G01 X-1.45127 Y59.17556
G01 X-1.41527 Y59.06596
G01 X-1.41527 Y58.99636
G01 X-1.25527 Y58.99636
G01 X-1.25527 Y59.45156
G01 X-1.25527 Y59.77876
G01 X-1.41527 Y59.77876
G01 X-1.41527 Y59.92356
G01 X-1.45127 Y60.03396
G01 X-1.48807 Y60.06836
G01 X-1.56727 Y60.10356
G01 X-1.67767 Y60.10356
G01 X-1.75687 Y60.06836
G01 X-1.83047 Y59.99316
G01 X-1.87287 Y59.88916
G01 X-1.90967 Y59.74356
G01 X-1.94647 Y59.66836
G01 X-2.02567 Y59.63396
G01 X-2.09847 Y59.63396
G01 X-2.17847 Y59.66836
G01 X-2.21527 Y59.77876
G01 X-2.21527 Y59.92356
G01 X-2.17847 Y60.03396
G01 X-2.09847 Y60.06836
G01 X-2.02567 Y60.06836
G01 X-1.94647 Y60.03396
G01 X-1.90967 Y59.95876
G01 X-1.87287 Y59.81316
G01 X-1.83047 Y59.70356
G01 X-1.75687 Y59.63396
G01 X-1.67767 Y59.59876
G01 X-1.56727 Y59.59876
G01 X-1.48807 Y59.63396
G01 X-1.45127 Y59.66836
G01 X-1.41527 Y59.77876
G01 X-1.25527 Y59.77876
G01 X-1.25527 Y60.25156
G01 X-1.25527 Y60.54356
G01 X-1.41527 Y60.54356
G01 X-2.21527 Y60.90356
G01 X-2.21527 Y60.39876
G01 X-2.12327 Y60.39956
G01 X-2.21527 Y60.39876
G01 X-2.21527 Y60.90356
G01 X-1.41527 Y60.54356
G01 X-1.25527 Y60.54356
G01 X-1.25527 Y61.05156
G01 X-1.25527 Y61.12676
G01 X-1.75687 Y61.12676
G01 X-1.75687 Y61.77556
G01 X-1.75687 Y61.12676
G01 X-1.25527 Y61.12676
G01 X-1.25527 Y61.85156
G01 X-1.25527 Y62.17876
G01 X-1.41527 Y62.17876
G01 X-1.45127 Y62.06836
G01 X-1.48807 Y62.03396
G01 X-1.56727 Y61.99876
G01 X-1.48807 Y62.03396
G01 X-1.45127 Y62.06836
G01 X-1.41527 Y62.17876
G01 X-1.41527 Y62.28916
G01 X-1.45127 Y62.39316
G01 X-1.52487 Y62.46836
G01 X-1.64087 Y62.50356
G01 X-1.72007 Y62.50356
G01 X-1.83047 Y62.46836
G01 X-1.87287 Y62.43396
G01 X-1.90967 Y62.35876
G01 X-1.90967 Y62.24836
G01 X-2.21527 Y62.46836
G01 X-2.21527 Y62.06836
G01 X-2.21527 Y62.46836
G01 X-1.90967 Y62.24836
G01 X-1.90967 Y62.35876
G01 X-1.87287 Y62.43396
G01 X-1.83047 Y62.46836
G01 X-1.72007 Y62.50356
G01 X-1.64087 Y62.50356
G01 X-1.52487 Y62.46836
G01 X-1.45127 Y62.39316
G01 X-1.41527 Y62.28916
G01 X-1.41527 Y62.17876
G01 X-1.25527 Y62.17876
G01 X-1.25527 Y62.65156
G260
M10
G00 X-7.56967 Y18.27027
(PartName=758475-3)
N5 M09
G261
G01 X-7.56967 Y17.97827
G01 X-7.40967 Y17.97827
G01 X-6.60967 Y17.61827
G01 X-6.60967 Y18.12307
G01 X-6.70167 Y18.12227
G01 X-6.60967 Y18.12307
G01 X-6.60967 Y17.61827
G01 X-7.40967 Y17.97827
G01 X-7.56967 Y17.97827
G01 X-7.56967 Y17.47027
G01 X-7.56967 Y17.14307
G01 X-7.40967 Y17.14307
G01 X-7.37367 Y17.25347
G01 X-7.33687 Y17.28787
G01 X-7.25767 Y17.32307
G01 X-7.33687 Y17.28787
G01 X-7.37367 Y17.25347
G01 X-7.40967 Y17.14307
G01 X-7.40967 Y17.03267
G01 X-7.37367 Y16.92867
G01 X-7.30007 Y16.85347
G01 X-7.18407 Y16.81827
G01 X-7.10487 Y16.81827
G01 X-6.99447 Y16.85347
G01 X-6.91527 Y16.92867
G01 X-6.87847 Y17.03267
G01 X-6.87847 Y17.14307
G01 X-6.91527 Y17.25347
G01 X-6.95207 Y17.28787
G01 X-6.60967 Y17.25347
G01 X-6.60967 Y16.88787
G01 X-6.60967 Y17.25347
G01 X-6.95207 Y17.28787
G01 X-6.91527 Y17.25347
G01 X-6.87847 Y17.14307
G01 X-6.87847 Y17.03267
G01 X-6.91527 Y16.92867
G01 X-6.99447 Y16.85347
G01 X-7.10487 Y16.81827
G01 X-7.18407 Y16.81827
G01 X-7.30007 Y16.85347
G01 X-7.37367 Y16.92867
G01 X-7.40967 Y17.03267
G01 X-7.40967 Y17.14307
G01 X-7.56967 Y17.14307
G01 X-7.56967 Y16.67027
G01 X-7.56967 Y16.34307
G01 X-7.40967 Y16.34307
G01 X-7.40967 Y16.19827
G01 X-7.37367 Y16.08787
G01 X-7.33687 Y16.05347
G01 X-7.25767 Y16.01827
G01 X-7.14727 Y16.01827
G01 X-7.06807 Y16.05347
G01 X-6.99447 Y16.12867
G01 X-6.95207 Y16.23267
G01 X-6.91527 Y16.37827
G01 X-6.87847 Y16.45347
G01 X-6.79927 Y16.48787
G01 X-6.72647 Y16.48787
G01 X-6.64647 Y16.45347
G01 X-6.60967 Y16.34307
G01 X-6.60967 Y16.19827
G01 X-6.64647 Y16.08787
G01 X-6.72647 Y16.05347
G01 X-6.79927 Y16.05347
G01 X-6.87847 Y16.08787
G01 X-6.91527 Y16.16307
G01 X-6.95207 Y16.30867
G01 X-6.99447 Y16.41827
G01 X-7.06807 Y16.48787
G01 X-7.14727 Y16.52307
G01 X-7.25767 Y16.52307
G01 X-7.33687 Y16.48787
G01 X-7.37367 Y16.45347
G01 X-7.40967 Y16.34307
G01 X-7.56967 Y16.34307
G01 X-7.56967 Y15.87027
G01 X-7.56967 Y15.37827
G01 X-7.40967 Y15.37827
G01 X-6.60967 Y15.37827
G01 X-7.14727 Y15.74307
G01 X-7.14727 Y15.19827
G01 X-7.14727 Y15.37827
G01 X-7.40967 Y15.37827
G01 X-7.56967 Y15.37827
G01 X-7.56967 Y15.07027
G01 X-7.56967 Y14.77827
G01 X-7.40967 Y14.77827
G01 X-6.60967 Y14.41827
G01 X-6.60967 Y14.92307
G01 X-6.70167 Y14.92227
G01 X-6.60967 Y14.92307
G01 X-6.60967 Y14.41827
G01 X-7.40967 Y14.77827
G01 X-7.56967 Y14.77827
G01 X-7.56967 Y14.27027
G01 X-7.56967 Y13.94307
G01 X-7.40967 Y13.94307
G01 X-7.37367 Y14.05347
G01 X-7.33687 Y14.08787
G01 X-7.25767 Y14.12307
G01 X-7.33687 Y14.08787
G01 X-7.37367 Y14.05347
G01 X-7.40967 Y13.94307
G01 X-7.40967 Y13.83267
G01 X-7.37367 Y13.72867
G01 X-7.30007 Y13.65347
G01 X-7.18407 Y13.61827
G01 X-7.10487 Y13.61827
G01 X-6.99447 Y13.65347
G01 X-6.91527 Y13.72867
G01 X-6.87847 Y13.83267
G01 X-6.87847 Y13.94307
G01 X-6.91527 Y14.05347
G01 X-6.95207 Y14.08787
G01 X-6.60967 Y14.05347
G01 X-6.60967 Y13.68787
G01 X-6.60967 Y14.05347
G01 X-6.95207 Y14.08787
G01 X-6.91527 Y14.05347
G01 X-6.87847 Y13.94307
G01 X-6.87847 Y13.83267
G01 X-6.91527 Y13.72867
G01 X-6.99447 Y13.65347
G01 X-7.10487 Y13.61827
G01 X-7.18407 Y13.61827
G01 X-7.30007 Y13.65347
G01 X-7.37367 Y13.72867
G01 X-7.40967 Y13.83267
G01 X-7.40967 Y13.94307
G01 X-7.56967 Y13.94307
G01 X-7.56967 Y13.47027
G01 X-7.56967 Y13.39507
G01 X-7.06807 Y13.39507
G01 X-7.06807 Y12.74627
G01 X-7.06807 Y13.39507
G01 X-7.56967 Y13.39507
G01 X-7.56967 Y12.67027
G01 X-7.56967 Y12.34307
G01 X-7.40967 Y12.34307
G01 X-7.37367 Y12.45347
G01 X-7.33687 Y12.48787
G01 X-7.25767 Y12.52307
G01 X-7.33687 Y12.48787
G01 X-7.37367 Y12.45347
G01 X-7.40967 Y12.34307
G01 X-7.40967 Y12.23267
G01 X-7.37367 Y12.12867
G01 X-7.30007 Y12.05347
G01 X-7.18407 Y12.01827
G01 X-7.10487 Y12.01827
G01 X-6.99447 Y12.05347
G01 X-6.95207 Y12.08787
G01 X-6.91527 Y12.16307
G01 X-6.91527 Y12.27347
G01 X-6.60967 Y12.05347
G01 X-6.60967 Y12.45347
G01 X-6.60967 Y12.05347
G01 X-6.91527 Y12.27347
G01 X-6.91527 Y12.16307
G01 X-6.95207 Y12.08787
G01 X-6.99447 Y12.05347
G01 X-7.10487 Y12.01827
G01 X-7.18407 Y12.01827
G01 X-7.30007 Y12.05347
G01 X-7.37367 Y12.12867
G01 X-7.40967 Y12.23267
G01 X-7.40967 Y12.34307
G01 X-7.56967 Y12.34307
G01 X-7.56967 Y11.87027
G260
M10
G00 X-7.56967 Y36.80246
(PartName=770936-3)
N6 M09
G261
G01 X-7.56967 Y36.51046
G01 X-7.40967 Y36.51046
G01 X-6.60967 Y36.15046
G01 X-6.60967 Y36.65526
G01 X-6.70167 Y36.65446
G01 X-6.60967 Y36.65526
G01 X-6.60967 Y36.15046
G01 X-7.40967 Y36.51046
G01 X-7.56967 Y36.51046
G01 X-7.56967 Y36.00246
G01 X-7.56967 Y35.71046
G01 X-7.40967 Y35.71046
G01 X-6.60967 Y35.35046
G01 X-6.60967 Y35.85526
G01 X-6.70167 Y35.85446
G01 X-6.60967 Y35.85526
G01 X-6.60967 Y35.35046
G01 X-7.40967 Y35.71046
G01 X-7.56967 Y35.71046
G01 X-7.56967 Y35.20246
G01 X-7.56967 Y34.84086
G01 X-7.40967 Y34.84086
G01 X-7.37367 Y34.94486
G01 X-7.25767 Y35.02006
G01 X-7.06807 Y35.05526
G01 X-6.95207 Y35.05526
G01 X-6.76247 Y35.02006
G01 X-6.64647 Y34.94486
G01 X-6.60967 Y34.84086
G01 X-6.60967 Y34.76486
G01 X-6.64647 Y34.65526
G01 X-6.76247 Y34.58566
G01 X-6.95207 Y34.55046
G01 X-7.06807 Y34.55046
G01 X-7.25767 Y34.58566
G01 X-7.37367 Y34.65526
G01 X-7.40967 Y34.76486
G01 X-7.40967 Y34.84086
G01 X-7.56967 Y34.84086
G01 X-7.56967 Y34.40246
G01 X-7.56967 Y34.05766
G01 X-7.40967 Y34.05766
G01 X-7.37367 Y34.16806
G01 X-7.30007 Y34.20246
G01 X-7.37367 Y34.16806
G01 X-7.40967 Y34.05766
G01 X-7.40967 Y33.98806
G01 X-7.37367 Y33.87846
G01 X-7.25767 Y33.80246
G01 X-7.06807 Y33.76806
G01 X-6.87847 Y33.76806
G01 X-6.72647 Y33.80246
G01 X-6.64647 Y33.87846
G01 X-6.60967 Y33.98806
G01 X-6.60967 Y34.02326
G01 X-6.64647 Y34.13366
G01 X-6.72647 Y34.20246
G01 X-6.84247 Y34.23766
G01 X-6.87847 Y34.23766
G01 X-6.99447 Y34.20246
G01 X-7.06807 Y34.13366
G01 X-7.10487 Y34.02326
G01 X-7.10487 Y33.98806
G01 X-7.06807 Y33.87846
G01 X-6.99447 Y33.80246
G01 X-6.87847 Y33.76806
G01 X-7.06807 Y33.76806
G01 X-7.25767 Y33.80246
G01 X-7.37367 Y33.87846
G01 X-7.40967 Y33.98806
G01 X-7.40967 Y34.05766
G01 X-7.56967 Y34.05766
G01 X-7.56967 Y33.60246
G01 X-7.56967 Y33.27526
G01 X-7.40967 Y33.27526
G01 X-7.37367 Y33.38566
G01 X-7.33687 Y33.42006
G01 X-7.25767 Y33.45526
G01 X-7.33687 Y33.42006
G01 X-7.37367 Y33.38566
G01 X-7.40967 Y33.27526
G01 X-7.40967 Y33.16486
G01 X-7.37367 Y33.06086
G01 X-7.30007 Y32.98566
G01 X-7.18407 Y32.95046
G01 X-7.10487 Y32.95046
G01 X-6.99447 Y32.98566
G01 X-6.95207 Y33.02006
G01 X-6.91527 Y33.09526
G01 X-6.91527 Y33.20566
G01 X-6.60967 Y32.98566
G01 X-6.60967 Y33.38566
G01 X-6.60967 Y32.98566
G01 X-6.91527 Y33.20566
G01 X-6.91527 Y33.09526
G01 X-6.95207 Y33.02006
G01 X-6.99447 Y32.98566
G01 X-7.10487 Y32.95046
G01 X-7.18407 Y32.95046
G01 X-7.30007 Y32.98566
G01 X-7.37367 Y33.06086
G01 X-7.40967 Y33.16486
G01 X-7.40967 Y33.27526
G01 X-7.56967 Y33.27526
G01 X-7.56967 Y32.80246
G01 X-7.56967 Y32.42326
G01 X-7.40967 Y32.42326
G01 X-7.40967 Y32.38806
G01 X-7.37367 Y32.27846
G01 X-7.30007 Y32.20246
G01 X-7.18407 Y32.16806
G01 X-7.14727 Y32.16806
G01 X-7.03127 Y32.20246
G01 X-6.95207 Y32.27846
G01 X-6.91527 Y32.38806
G01 X-6.91527 Y32.42326
G01 X-6.95207 Y32.53366
G01 X-7.03127 Y32.60246
G01 X-7.14727 Y32.63766
G01 X-6.95207 Y32.63766
G01 X-6.76247 Y32.60246
G01 X-6.64647 Y32.53366
G01 X-6.60967 Y32.42326
G01 X-6.60967 Y32.34806
G01 X-6.64647 Y32.24326
G01 X-6.72647 Y32.20246
G01 X-6.64647 Y32.24326
G01 X-6.60967 Y32.34806
G01 X-6.60967 Y32.42326
G01 X-6.64647 Y32.53366
G01 X-6.76247 Y32.60246
G01 X-6.95207 Y32.63766
G01 X-7.14727 Y32.63766
G01 X-7.30007 Y32.60246
G01 X-7.37367 Y32.53366
G01 X-7.40967 Y32.42326
G01 X-7.56967 Y32.42326
G01 X-7.56967 Y32.00246
G01 X-7.56967 Y31.92726
G01 X-7.06807 Y31.92726
G01 X-7.06807 Y31.27846
G01 X-7.06807 Y31.92726
G01 X-7.56967 Y31.92726
G01 X-7.56967 Y31.20246
G01 X-7.56967 Y30.87526
G01 X-7.40967 Y30.87526
G01 X-7.37367 Y30.98566
G01 X-7.33687 Y31.02006
G01 X-7.25767 Y31.05526
G01 X-7.33687 Y31.02006
G01 X-7.37367 Y30.98566
G01 X-7.40967 Y30.87526
G01 X-7.40967 Y30.76486
G01 X-7.37367 Y30.66086
G01 X-7.30007 Y30.58566
G01 X-7.18407 Y30.55046
G01 X-7.10487 Y30.55046
G01 X-6.99447 Y30.58566
G01 X-6.95207 Y30.62006
G01 X-6.91527 Y30.69526
G01 X-6.91527 Y30.80566
G01 X-6.60967 Y30.58566
G01 X-6.60967 Y30.98566
G01 X-6.60967 Y30.58566
G01 X-6.91527 Y30.80566
G01 X-6.91527 Y30.69526
G01 X-6.95207 Y30.62006
G01 X-6.99447 Y30.58566
G01 X-7.10487 Y30.55046
G01 X-7.18407 Y30.55046
G01 X-7.30007 Y30.58566
G01 X-7.37367 Y30.66086
G01 X-7.40967 Y30.76486
G01 X-7.40967 Y30.87526
G01 X-7.56967 Y30.87526
G01 X-7.56967 Y30.40246
G260
M10
G00 X-5.03774 Y92.21901
(PartName=785987-3)
N7 M09
G261
G01 X-5.03774 Y91.92701
G01 X-4.87774 Y91.92701
G01 X-4.07774 Y91.56701
G01 X-4.07774 Y92.07181
G01 X-4.16974 Y92.07101
G01 X-4.07774 Y92.07181
G01 X-4.07774 Y91.56701
G01 X-4.87774 Y91.92701
G01 X-5.03774 Y91.92701
G01 X-5.03774 Y91.41901
G01 X-5.03774 Y91.09181
G01 X-4.87774 Y91.09181
G01 X-4.87774 Y90.94701
G01 X-4.84174 Y90.83661
G01 X-4.80494 Y90.80221
G01 X-4.72574 Y90.76701
G01 X-4.61534 Y90.76701
G01 X-4.53614 Y90.80221
G01 X-4.46254 Y90.87741
G01 X-4.42014 Y90.98141
G01 X-4.38334 Y91.12701
G01 X-4.34654 Y91.20221
G01 X-4.26734 Y91.23661
G01 X-4.19454 Y91.23661
G01 X-4.11454 Y91.20221
G01 X-4.07774 Y91.09181
G01 X-4.07774 Y90.94701
G01 X-4.11454 Y90.83661
G01 X-4.19454 Y90.80221
G01 X-4.26734 Y90.80221
G01 X-4.34654 Y90.83661
G01 X-4.38334 Y90.91181
G01 X-4.42014 Y91.05741
G01 X-4.46254 Y91.16701
G01 X-4.53614 Y91.23661
G01 X-4.61534 Y91.27181
G01 X-4.72574 Y91.27181
G01 X-4.80494 Y91.23661
G01 X-4.84174 Y91.20221
G01 X-4.87774 Y91.09181
G01 X-5.03774 Y91.09181
G01 X-5.03774 Y90.61901
G01 X-5.03774 Y90.29181
G01 X-4.87774 Y90.29181
G01 X-4.84174 Y90.40221
G01 X-4.80494 Y90.43661
G01 X-4.72574 Y90.47181
G01 X-4.80494 Y90.43661
G01 X-4.84174 Y90.40221
G01 X-4.87774 Y90.29181
G01 X-4.87774 Y90.18141
G01 X-4.84174 Y90.07741
G01 X-4.76814 Y90.00221
G01 X-4.65214 Y89.96701
G01 X-4.57294 Y89.96701
G01 X-4.46254 Y90.00221
G01 X-4.38334 Y90.07741
G01 X-4.34654 Y90.18141
G01 X-4.34654 Y90.29181
G01 X-4.38334 Y90.40221
G01 X-4.42014 Y90.43661
G01 X-4.07774 Y90.40221
G01 X-4.07774 Y90.03661
G01 X-4.07774 Y90.40221
G01 X-4.42014 Y90.43661
G01 X-4.38334 Y90.40221
G01 X-4.34654 Y90.29181
G01 X-4.34654 Y90.18141
G01 X-4.38334 Y90.07741
G01 X-4.46254 Y90.00221
G01 X-4.57294 Y89.96701
G01 X-4.65214 Y89.96701
G01 X-4.76814 Y90.00221
G01 X-4.84174 Y90.07741
G01 X-4.87774 Y90.18141
G01 X-4.87774 Y90.29181
G01 X-5.03774 Y90.29181
G01 X-5.03774 Y89.81901
G01 X-5.03774 Y89.47421
G01 X-4.87774 Y89.47421
G01 X-4.84174 Y89.58461
G01 X-4.76814 Y89.61901
G01 X-4.84174 Y89.58461
G01 X-4.87774 Y89.47421
G01 X-4.87774 Y89.40461
G01 X-4.84174 Y89.29501
G01 X-4.72574 Y89.21901
G01 X-4.53614 Y89.18461
G01 X-4.34654 Y89.18461
G01 X-4.19454 Y89.21901
G01 X-4.11454 Y89.29501
G01 X-4.07774 Y89.40461
G01 X-4.07774 Y89.43981
G01 X-4.11454 Y89.55021
G01 X-4.19454 Y89.61901
G01 X-4.31054 Y89.65421
G01 X-4.34654 Y89.65421
G01 X-4.46254 Y89.61901
G01 X-4.53614 Y89.55021
G01 X-4.57294 Y89.43981
G01 X-4.57294 Y89.40461
G01 X-4.53614 Y89.29501
G01 X-4.46254 Y89.21901
G01 X-4.34654 Y89.18461
G01 X-4.53614 Y89.18461
G01 X-4.72574 Y89.21901
G01 X-4.84174 Y89.29501
G01 X-4.87774 Y89.40461
G01 X-4.87774 Y89.47421
G01 X-5.03774 Y89.47421
G01 X-5.03774 Y89.01901
G01 X-5.03774 Y88.69181
G01 X-4.87774 Y88.69181
G01 X-4.87774 Y88.54701
G01 X-4.84174 Y88.43661
G01 X-4.80494 Y88.40221
G01 X-4.72574 Y88.36701
G01 X-4.61534 Y88.36701
G01 X-4.53614 Y88.40221
G01 X-4.46254 Y88.47741
G01 X-4.42014 Y88.58141
G01 X-4.38334 Y88.72701
G01 X-4.34654 Y88.80221
G01 X-4.26734 Y88.83661
G01 X-4.19454 Y88.83661
G01 X-4.11454 Y88.80221
G01 X-4.07774 Y88.69181
G01 X-4.07774 Y88.54701
G01 X-4.11454 Y88.43661
G01 X-4.19454 Y88.40221
G01 X-4.26734 Y88.40221
G01 X-4.34654 Y88.43661
G01 X-4.38334 Y88.51181
G01 X-4.42014 Y88.65741
G01 X-4.46254 Y88.76701
G01 X-4.53614 Y88.83661
G01 X-4.61534 Y88.87181
G01 X-4.72574 Y88.87181
G01 X-4.80494 Y88.83661
G01 X-4.84174 Y88.80221
G01 X-4.87774 Y88.69181
G01 X-5.03774 Y88.69181
G01 X-5.03774 Y88.21901
G01 X-5.03774 Y87.92701
G01 X-4.87774 Y87.92701
G01 X-4.07774 Y87.56701
G01 X-4.07774 Y88.07181
G01 X-4.16974 Y88.07101
G01 X-4.07774 Y88.07181
G01 X-4.07774 Y87.56701
G01 X-4.87774 Y87.92701
G01 X-5.03774 Y87.92701
G01 X-5.03774 Y87.41901
G01 X-5.03774 Y87.34381
G01 X-4.53614 Y87.34381
G01 X-4.53614 Y86.69501
G01 X-4.53614 Y87.34381
G01 X-5.03774 Y87.34381
G01 X-5.03774 Y86.61901
G01 X-5.03774 Y86.29181
G01 X-4.87774 Y86.29181
G01 X-4.84174 Y86.40221
G01 X-4.80494 Y86.43661
G01 X-4.72574 Y86.47181
G01 X-4.80494 Y86.43661
G01 X-4.84174 Y86.40221
G01 X-4.87774 Y86.29181
G01 X-4.87774 Y86.18141
G01 X-4.84174 Y86.07741
G01 X-4.76814 Y86.00221
G01 X-4.65214 Y85.96701
G01 X-4.57294 Y85.96701
G01 X-4.46254 Y86.00221
G01 X-4.42014 Y86.03661
G01 X-4.38334 Y86.11181
G01 X-4.38334 Y86.22221
G01 X-4.07774 Y86.00221
G01 X-4.07774 Y86.40221
G01 X-4.07774 Y86.00221
G01 X-4.38334 Y86.22221
G01 X-4.38334 Y86.11181
G01 X-4.42014 Y86.03661
G01 X-4.46254 Y86.00221
G01 X-4.57294 Y85.96701
G01 X-4.65214 Y85.96701
G01 X-4.76814 Y86.00221
G01 X-4.84174 Y86.07741
G01 X-4.87774 Y86.18141
G01 X-4.87774 Y86.29181
G01 X-5.03774 Y86.29181
G01 X-5.03774 Y85.81901
G260
M10
G00 X-4.27041 Y0.53000
T21
G41
N8 M07
G261
G01 X-3.87041 Y0.53000
G01 X-3.87041 Y5.90500
G01 X-2.37041 Y5.90500
G01 X-2.37041 Y7.15500
G01 X-3.87041 Y7.15500
G01 X-3.87041 Y11.90500
G01 X-2.37041 Y11.90500
G01 X-2.37041 Y13.15500
G01 X-3.87041 Y13.15500
G01 X-3.87041 Y18.53000
G01 X-0.37041 Y18.53000
G01 X-0.37041 Y0.53000
G01 X-3.49285 Y0.53000
M50
G01 X-3.87041 Y0.53000
G01 X-3.87041 Y0.35000
G260
M08
G40
M51
G00 X-4.27041 Y19.06219
G41
N9 M07
G261
G01 X-3.87041 Y19.06219
G01 X-3.87041 Y24.43719
G01 X-2.37041 Y24.43719
G01 X-2.37041 Y25.68719
G01 X-3.87041 Y25.68719
G01 X-3.87041 Y30.43719
G01 X-2.37041 Y30.43719
G01 X-2.37041 Y31.68719
G01 X-3.87041 Y31.68719
G01 X-3.87041 Y37.06219
G01 X-0.37041 Y37.06219
G01 X-0.37041 Y19.06219
G01 X-3.49285 Y19.06219
M50
G01 X-3.87041 Y19.06219
G01 X-3.87041 Y18.88219
G260
M08
G40
M51
G00 X-4.27041 Y37.59437
G41
N10 M07
G261
G01 X-3.87041 Y37.59437
G01 X-3.87041 Y42.96937
G01 X-2.37041 Y42.96937
G01 X-2.37041 Y44.21937
G01 X-3.87041 Y44.21937
G01 X-3.87041 Y48.96937
G01 X-2.37041 Y48.96937
G01 X-2.37041 Y50.21937
G01 X-3.87041 Y50.21937
G01 X-3.87041 Y55.59437
G01 X-0.37041 Y55.59437
G01 X-0.37041 Y37.59437
G01 X-3.49285 Y37.59437
M50
G01 X-3.87041 Y37.59437
G01 X-3.87041 Y37.41437
G260
M08
G40
M51
G00 X-4.27041 Y56.12656
G41
N11 M07
G261
G01 X-3.87041 Y56.12656
G01 X-3.87041 Y61.50156
G01 X-2.37041 Y61.50156
G01 X-2.37041 Y62.75156
G01 X-3.87041 Y62.75156
G01 X-3.87041 Y67.50156
G01 X-2.37041 Y67.50156
G01 X-2.37041 Y68.75156
G01 X-3.87041 Y68.75156
G01 X-3.87041 Y74.12656
G01 X-0.37041 Y74.12656
G01 X-0.37041 Y56.12656
G01 X-3.49285 Y56.12656
M50
G01 X-3.87041 Y56.12656
G01 X-3.87041 Y55.94656
G260
M08
G40
M51
G00 X-2.02260 Y92.34401
G41
N12 M07
G261
G01 X-2.42260 Y92.34401
G01 X-2.42260 Y86.96901
G01 X-3.92260 Y86.96901
G01 X-3.92260 Y85.71901
G01 X-2.42260 Y85.71901
G01 X-2.42260 Y80.96901
G01 X-3.92260 Y80.96901
G01 X-3.92260 Y79.71901
G01 X-2.42260 Y79.71901
G01 X-2.42260 Y74.34401
G01 X-5.92260 Y74.34401
G01 X-5.92260 Y92.34401
G01 X-2.80016 Y92.34401
M50
G01 X-2.42260 Y92.34401
G01 X-2.42260 Y92.52401
G260
M08
G40
M51
G00 X-4.55452 Y18.39527
G41
N13 M07
G261
G01 X-4.95452 Y18.39527
G01 X-4.95452 Y13.02027
G01 X-6.45452 Y13.02027
G01 X-6.45452 Y11.77027
G01 X-4.95452 Y11.77027
G01 X-4.95452 Y7.02027
G01 X-6.45452 Y7.02027
G01 X-6.45452 Y5.77027
G01 X-4.95452 Y5.77027
G01 X-4.95452 Y0.39527
G01 X-8.45452 Y0.39527
G01 X-8.45452 Y18.39527
G01 X-5.33208 Y18.39527
M50
G01 X-4.95452 Y18.39527
G01 X-4.95452 Y18.57527
G260
M08
G40
M51
G00 X-4.55452 Y36.92746
G41
N14 M07
G261
G01 X-4.95452 Y36.92746
G01 X-4.95452 Y31.55246
G01 X-6.45452 Y31.55246
G01 X-6.45452 Y30.30246
G01 X-4.95452 Y30.30246
G01 X-4.95452 Y25.55246
G01 X-6.45452 Y25.55246
G01 X-6.45452 Y24.30246
G01 X-4.95452 Y24.30246
G01 X-4.95452 Y18.92746
G01 X-8.45452 Y18.92746
G01 X-8.45452 Y36.92746
G01 X-5.33208 Y36.92746
M50
G01 X-4.95452 Y36.92746
G01 X-4.95452 Y37.10746
G260
M08
G40
M51
G00 X7.47353 Y95.63132
(PartName=801537-1)
G41
N15 M07
G261
G01 X7.47353 Y95.23132
G01 X8.97353 Y95.23132
G01 X8.97353 Y93.23132
G01 X7.47353 Y93.23132
G01 X7.47353 Y94.85376
M50
G01 X7.47353 Y95.23132
G01 X7.29353 Y95.23132
G260
M08
G40
M51
G00 X7.47353 Y92.86644
(PartName=801537-1)
G41
N16 M07
G261
G01 X7.47353 Y92.46644
G01 X8.97353 Y92.46644
G01 X8.97353 Y90.46644
G01 X7.47353 Y90.46644
G01 X7.47353 Y92.08888
M50
G01 X7.47353 Y92.46644
G01 X7.29353 Y92.46644
G260
M08
G40
M51
G00 X7.09979 Y89.74165
(PartName=801537-1)
G41
N17 M07
G261
G01 X7.09979 Y90.14165
G01 X5.59979 Y90.14165
G01 X5.59979 Y92.14165
G01 X7.09979 Y92.14165
G01 X7.09979 Y90.51921
M50
G01 X7.09979 Y90.14165
G01 X7.27979 Y90.14165
G260
M08
G40
M51
G00 X5.60536 Y95.29505
(PartName=801537-1)
G41
N18 M07
G261
G01 X5.60536 Y94.89505
G01 X7.10536 Y94.89505
G01 X7.10536 Y92.89505
G01 X5.60536 Y92.89505
G01 X5.60536 Y94.51749
M50
G01 X5.60536 Y94.89505
G01 X5.42536 Y94.89505
G260
M08
G40
M51
G00 X-1.34424 Y80.34809
(PartName=801534-3)
G41
N19 M07
G261
G01 X-0.94424 Y80.34809
G01 X-0.94424 Y85.34809
G01 X4.05576 Y85.34809
G01 X4.05576 Y80.34809
G01 X-0.56668 Y80.34809
M50
G01 X-0.94424 Y80.34809
G01 X-0.94424 Y80.16809
G260
M08
G40
M51
G00 X-6.47018 Y95.63359
(PartName=Remnant)
T21
G40
M07
G00 X-6.67018 Y95.98000
G01 X-6.67018 Y95.58000
G01 X-6.67018 Y39.11111
G01 X-10.22573 Y39.11111
G01 X-10.22573 Y0.40000
M50
G01 X-10.22573 Y0.00000
M08
M51
(PlanFooterCommand)
T0
#CS OFF
M30
