(PP_NAME=PP_Din)
(PP_VERSION=	4.0)
(PP_INI_NAME=GC_US_PLASMA_4.7.ini)
(PP_INI_VERSION=2014-02-26)
(%%INFO MACHINE=HPRXD SS 130A MIX)
(%%INFO Material=A240 304L Thickness=0.25 PlateLength=34.01 PlateWidth=28.379)
(%%INFO PartName=775592-6=2pcs=1.13lbs)
(%%INFO PartName=775591-6=2pcs=1.13lbs)
(%%INFO PartName=770769-6=1pcs=13.9lbs)
(%%INFO PartName=762232-6=2pcs=7.09lbs)
(%%INFO PartName=762231-6=1pcs=7.09lbs)
(%%INFO TotalCutLength=243.44)
(%%INFO TotalPierceCount=8)
(%%INFO TotalProductionTime=00:06:15)
G70
#CONTOUR MODE[DEV PATH_DEV=0.008 RELEVANT_PATH=0.004]
G90
(PlanHeaderCommand)
G162
G141
G237
#CS ON [V.E.START_X, V.E.START_Y, 0, 0, 0, V.E.ROTATION]
M190
G00 X1.46649 Y13.01678
T23
(PartName=770769-6)
N1 M09
G261
G01 X1.17449 Y13.01678
G01 X1.17449 Y12.85678
G01 X0.81449 Y12.05678
G01 X1.31929 Y12.05678
G01 X1.31849 Y12.14878
G01 X1.31929 Y12.05678
G01 X0.81449 Y12.05678
G01 X1.17449 Y12.85678
G01 X1.17449 Y13.01678
G01 X0.66649 Y13.01678
G01 X0.37449 Y13.01678
G01 X0.37449 Y12.85678
G01 X0.01449 Y12.05678
G01 X0.51929 Y12.05678
G01 X0.51849 Y12.14878
G01 X0.51929 Y12.05678
G01 X0.01449 Y12.05678
G01 X0.37449 Y12.85678
G01 X0.37449 Y13.01678
G01 X-0.13351 Y13.01678
G01 X-0.49511 Y13.01678
G01 X-0.49511 Y12.85678
G01 X-0.39111 Y12.82078
G01 X-0.31591 Y12.70478
G01 X-0.28071 Y12.51518
G01 X-0.28071 Y12.39918
G01 X-0.31591 Y12.20958
G01 X-0.39111 Y12.09358
G01 X-0.49511 Y12.05678
G01 X-0.57111 Y12.05678
G01 X-0.68071 Y12.09358
G01 X-0.75031 Y12.20958
G01 X-0.78551 Y12.39918
G01 X-0.78551 Y12.51518
G01 X-0.75031 Y12.70478
G01 X-0.68071 Y12.82078
G01 X-0.57111 Y12.85678
G01 X-0.49511 Y12.85678
G01 X-0.49511 Y13.01678
G01 X-0.93351 Y13.01678
G01 X-1.22551 Y13.01678
G01 X-1.22551 Y12.85678
G01 X-1.58551 Y12.05678
G01 X-1.08071 Y12.05678
G01 X-1.08151 Y12.14878
G01 X-1.08071 Y12.05678
G01 X-1.58551 Y12.05678
G01 X-1.22551 Y12.85678
G01 X-1.22551 Y13.01678
G01 X-1.73351 Y13.01678
G01 X-2.11271 Y13.01678
G01 X-2.11271 Y12.85678
G01 X-2.14791 Y12.85678
G01 X-2.25751 Y12.82078
G01 X-2.33351 Y12.74718
G01 X-2.36791 Y12.63118
G01 X-2.36791 Y12.59438
G01 X-2.33351 Y12.47838
G01 X-2.25751 Y12.39918
G01 X-2.14791 Y12.36238
G01 X-2.11271 Y12.36238
G01 X-2.00231 Y12.39918
G01 X-1.93351 Y12.47838
G01 X-1.89831 Y12.59438
G01 X-1.89831 Y12.39918
G01 X-1.93351 Y12.20958
G01 X-2.00231 Y12.09358
G01 X-2.11271 Y12.05678
G01 X-2.18791 Y12.05678
G01 X-2.29271 Y12.09358
G01 X-2.33351 Y12.17358
G01 X-2.29271 Y12.09358
G01 X-2.18791 Y12.05678
G01 X-2.11271 Y12.05678
G01 X-2.00231 Y12.09358
G01 X-1.93351 Y12.20958
G01 X-1.89831 Y12.39918
G01 X-1.89831 Y12.59438
G01 X-1.93351 Y12.74718
G01 X-2.00231 Y12.82078
G01 X-2.11271 Y12.85678
G01 X-2.11271 Y13.01678
G01 X-2.53351 Y13.01678
G01 X-2.87831 Y13.01678
G01 X-2.87831 Y12.85678
G01 X-2.76791 Y12.82078
G01 X-2.73351 Y12.74718
G01 X-2.76791 Y12.82078
G01 X-2.87831 Y12.85678
G01 X-2.94791 Y12.85678
G01 X-3.05751 Y12.82078
G01 X-3.13351 Y12.70478
G01 X-3.16791 Y12.51518
G01 X-3.16791 Y12.32558
G01 X-3.13351 Y12.17358
G01 X-3.05751 Y12.09358
G01 X-2.94791 Y12.05678
G01 X-2.91271 Y12.05678
G01 X-2.80231 Y12.09358
G01 X-2.73351 Y12.17358
G01 X-2.69831 Y12.28958
G01 X-2.69831 Y12.32558
G01 X-2.73351 Y12.44158
G01 X-2.80231 Y12.51518
G01 X-2.91271 Y12.55198
G01 X-2.94791 Y12.55198
G01 X-3.05751 Y12.51518
G01 X-3.13351 Y12.44158
G01 X-3.16791 Y12.32558
G01 X-3.16791 Y12.51518
G01 X-3.13351 Y12.70478
G01 X-3.05751 Y12.82078
G01 X-2.94791 Y12.85678
G01 X-2.87831 Y12.85678
G01 X-2.87831 Y13.01678
G01 X-3.33351 Y13.01678
G01 X-3.40871 Y13.01678
G01 X-3.40871 Y12.51518
G01 X-4.05751 Y12.51518
G01 X-3.40871 Y12.51518
G01 X-3.40871 Y13.01678
G01 X-4.13351 Y13.01678
G01 X-4.51271 Y13.01678
G01 X-4.51271 Y12.85678
G01 X-4.54791 Y12.85678
G01 X-4.65751 Y12.82078
G01 X-4.73351 Y12.74718
G01 X-4.76791 Y12.63118
G01 X-4.76791 Y12.59438
G01 X-4.73351 Y12.47838
G01 X-4.65751 Y12.39918
G01 X-4.54791 Y12.36238
G01 X-4.51271 Y12.36238
G01 X-4.40231 Y12.39918
G01 X-4.33351 Y12.47838
G01 X-4.29831 Y12.59438
G01 X-4.29831 Y12.39918
G01 X-4.33351 Y12.20958
G01 X-4.40231 Y12.09358
G01 X-4.51271 Y12.05678
G01 X-4.58791 Y12.05678
G01 X-4.69271 Y12.09358
G01 X-4.73351 Y12.17358
G01 X-4.69271 Y12.09358
G01 X-4.58791 Y12.05678
G01 X-4.51271 Y12.05678
G01 X-4.40231 Y12.09358
G01 X-4.33351 Y12.20958
G01 X-4.29831 Y12.39918
G01 X-4.29831 Y12.59438
G01 X-4.33351 Y12.74718
G01 X-4.40231 Y12.82078
G01 X-4.51271 Y12.85678
G01 X-4.51271 Y13.01678
G01 X-4.93351 Y13.01678
G260
M10
G00 X-12.04373 Y10.23017
(PartName=762232-6)
N2 M09
G261
G01 X-12.04373 Y9.93817
G01 X-11.88373 Y9.93817
G01 X-11.08373 Y9.57817
G01 X-11.08373 Y10.08297
G01 X-11.17573 Y10.08217
G01 X-11.08373 Y10.08297
G01 X-11.08373 Y9.57817
G01 X-11.88373 Y9.93817
G01 X-12.04373 Y9.93817
G01 X-12.04373 Y9.43017
G01 X-12.04373 Y9.05097
G01 X-11.88373 Y9.05097
G01 X-11.88373 Y9.01577
G01 X-11.84773 Y8.90617
G01 X-11.77413 Y8.83017
G01 X-11.65813 Y8.79577
G01 X-11.62133 Y8.79577
G01 X-11.50533 Y8.83017
G01 X-11.42613 Y8.90617
G01 X-11.38933 Y9.01577
G01 X-11.38933 Y9.05097
G01 X-11.42613 Y9.16137
G01 X-11.50533 Y9.23017
G01 X-11.62133 Y9.26537
G01 X-11.42613 Y9.26537
G01 X-11.23653 Y9.23017
G01 X-11.12053 Y9.16137
G01 X-11.08373 Y9.05097
G01 X-11.08373 Y8.97577
G01 X-11.12053 Y8.87097
G01 X-11.20053 Y8.83017
G01 X-11.12053 Y8.87097
G01 X-11.08373 Y8.97577
G01 X-11.08373 Y9.05097
G01 X-11.12053 Y9.16137
G01 X-11.23653 Y9.23017
G01 X-11.42613 Y9.26537
G01 X-11.62133 Y9.26537
G01 X-11.77413 Y9.23017
G01 X-11.84773 Y9.16137
G01 X-11.88373 Y9.05097
G01 X-12.04373 Y9.05097
G01 X-12.04373 Y8.63017
G01 X-12.04373 Y8.48297
G01 X-11.88373 Y8.48297
G01 X-11.88373 Y7.97817
G01 X-11.88373 Y8.48297
G01 X-11.50533 Y8.12297
G01 X-11.38933 Y8.04777
G01 X-11.31653 Y8.01337
G01 X-11.23653 Y8.01337
G01 X-11.16373 Y8.04777
G01 X-11.12053 Y8.08857
G01 X-11.08373 Y8.15817
G01 X-11.08373 Y8.30297
G01 X-11.12053 Y8.37817
G01 X-11.16373 Y8.41337
G01 X-11.23653 Y8.44777
G01 X-11.27333 Y8.44777
G01 X-11.23653 Y8.44777
G01 X-11.16373 Y8.41337
G01 X-11.12053 Y8.37817
G01 X-11.08373 Y8.30297
G01 X-11.08373 Y8.15817
G01 X-11.12053 Y8.08857
G01 X-11.16373 Y8.04777
G01 X-11.23653 Y8.01337
G01 X-11.31653 Y8.01337
G01 X-11.38933 Y8.04777
G01 X-11.50533 Y8.12297
G01 X-11.88373 Y8.48297
G01 X-12.04373 Y8.48297
G01 X-12.04373 Y7.83017
G01 X-12.04373 Y7.68297
G01 X-11.88373 Y7.68297
G01 X-11.88373 Y7.17817
G01 X-11.88373 Y7.68297
G01 X-11.50533 Y7.32297
G01 X-11.38933 Y7.24777
G01 X-11.31653 Y7.21337
G01 X-11.23653 Y7.21337
G01 X-11.16373 Y7.24777
G01 X-11.12053 Y7.28857
G01 X-11.08373 Y7.35817
G01 X-11.08373 Y7.50297
G01 X-11.12053 Y7.57817
G01 X-11.16373 Y7.61337
G01 X-11.23653 Y7.64777
G01 X-11.27333 Y7.64777
G01 X-11.23653 Y7.64777
G01 X-11.16373 Y7.61337
G01 X-11.12053 Y7.57817
G01 X-11.08373 Y7.50297
G01 X-11.08373 Y7.35817
G01 X-11.12053 Y7.28857
G01 X-11.16373 Y7.24777
G01 X-11.23653 Y7.21337
G01 X-11.31653 Y7.21337
G01 X-11.38933 Y7.24777
G01 X-11.50533 Y7.32297
G01 X-11.88373 Y7.68297
G01 X-12.04373 Y7.68297
G01 X-12.04373 Y7.03017
G01 X-12.04373 Y6.70297
G01 X-11.88373 Y6.70297
G01 X-11.84773 Y6.81337
G01 X-11.81093 Y6.84777
G01 X-11.73173 Y6.88297
G01 X-11.81093 Y6.84777
G01 X-11.84773 Y6.81337
G01 X-11.88373 Y6.70297
G01 X-11.88373 Y6.59257
G01 X-11.84773 Y6.48857
G01 X-11.77413 Y6.41337
G01 X-11.65813 Y6.37817
G01 X-11.57893 Y6.37817
G01 X-11.46853 Y6.41337
G01 X-11.42613 Y6.44777
G01 X-11.38933 Y6.52297
G01 X-11.38933 Y6.63337
G01 X-11.08373 Y6.41337
G01 X-11.08373 Y6.81337
G01 X-11.08373 Y6.41337
G01 X-11.38933 Y6.63337
G01 X-11.38933 Y6.52297
G01 X-11.42613 Y6.44777
G01 X-11.46853 Y6.41337
G01 X-11.57893 Y6.37817
G01 X-11.65813 Y6.37817
G01 X-11.77413 Y6.41337
G01 X-11.84773 Y6.48857
G01 X-11.88373 Y6.59257
G01 X-11.88373 Y6.70297
G01 X-12.04373 Y6.70297
G01 X-12.04373 Y6.23017
G01 X-12.04373 Y6.08297
G01 X-11.88373 Y6.08297
G01 X-11.88373 Y5.57817
G01 X-11.88373 Y6.08297
G01 X-11.50533 Y5.72297
G01 X-11.38933 Y5.64777
G01 X-11.31653 Y5.61337
G01 X-11.23653 Y5.61337
G01 X-11.16373 Y5.64777
G01 X-11.12053 Y5.68857
G01 X-11.08373 Y5.75817
G01 X-11.08373 Y5.90297
G01 X-11.12053 Y5.97817
G01 X-11.16373 Y6.01337
G01 X-11.23653 Y6.04777
G01 X-11.27333 Y6.04777
G01 X-11.23653 Y6.04777
G01 X-11.16373 Y6.01337
G01 X-11.12053 Y5.97817
G01 X-11.08373 Y5.90297
G01 X-11.08373 Y5.75817
G01 X-11.12053 Y5.68857
G01 X-11.16373 Y5.64777
G01 X-11.23653 Y5.61337
G01 X-11.31653 Y5.61337
G01 X-11.38933 Y5.64777
G01 X-11.50533 Y5.72297
G01 X-11.88373 Y6.08297
G01 X-12.04373 Y6.08297
G01 X-12.04373 Y5.43017
G01 X-12.04373 Y5.35497
G01 X-11.54213 Y5.35497
G01 X-11.54213 Y4.70617
G01 X-11.54213 Y5.35497
G01 X-12.04373 Y5.35497
G01 X-12.04373 Y4.63017
G01 X-12.04373 Y4.25097
G01 X-11.88373 Y4.25097
G01 X-11.88373 Y4.21577
G01 X-11.84773 Y4.10617
G01 X-11.77413 Y4.03017
G01 X-11.65813 Y3.99577
G01 X-11.62133 Y3.99577
G01 X-11.50533 Y4.03017
G01 X-11.42613 Y4.10617
G01 X-11.38933 Y4.21577
G01 X-11.38933 Y4.25097
G01 X-11.42613 Y4.36137
G01 X-11.50533 Y4.43017
G01 X-11.62133 Y4.46537
G01 X-11.42613 Y4.46537
G01 X-11.23653 Y4.43017
G01 X-11.12053 Y4.36137
G01 X-11.08373 Y4.25097
G01 X-11.08373 Y4.17577
G01 X-11.12053 Y4.07097
G01 X-11.20053 Y4.03017
G01 X-11.12053 Y4.07097
G01 X-11.08373 Y4.17577
G01 X-11.08373 Y4.25097
G01 X-11.12053 Y4.36137
G01 X-11.23653 Y4.43017
G01 X-11.42613 Y4.46537
G01 X-11.62133 Y4.46537
G01 X-11.77413 Y4.43017
G01 X-11.84773 Y4.36137
G01 X-11.88373 Y4.25097
G01 X-12.04373 Y4.25097
G01 X-12.04373 Y3.83017
G260
M10
G00 X-9.52191 Y0.65500
(PartName=762232-6)
N3 M09
G261
G01 X-9.52191 Y0.94700
G01 X-9.68191 Y0.94700
G01 X-10.48191 Y1.30700
G01 X-10.48191 Y0.80220
G01 X-10.38991 Y0.80300
G01 X-10.48191 Y0.80220
G01 X-10.48191 Y1.30700
G01 X-9.68191 Y0.94700
G01 X-9.52191 Y0.94700
G01 X-9.52191 Y1.45500
G01 X-9.52191 Y1.83420
G01 X-9.68191 Y1.83420
G01 X-9.68191 Y1.86940
G01 X-9.71791 Y1.97900
G01 X-9.79151 Y2.05500
G01 X-9.90751 Y2.08940
G01 X-9.94431 Y2.08940
G01 X-10.06031 Y2.05500
G01 X-10.13951 Y1.97900
G01 X-10.17631 Y1.86940
G01 X-10.17631 Y1.83420
G01 X-10.13951 Y1.72380
G01 X-10.06031 Y1.65500
G01 X-9.94431 Y1.61980
G01 X-10.13951 Y1.61980
G01 X-10.32911 Y1.65500
G01 X-10.44511 Y1.72380
G01 X-10.48191 Y1.83420
G01 X-10.48191 Y1.90940
G01 X-10.44511 Y2.01420
G01 X-10.36511 Y2.05500
G01 X-10.44511 Y2.01420
G01 X-10.48191 Y1.90940
G01 X-10.48191 Y1.83420
G01 X-10.44511 Y1.72380
G01 X-10.32911 Y1.65500
G01 X-10.13951 Y1.61980
G01 X-9.94431 Y1.61980
G01 X-9.79151 Y1.65500
G01 X-9.71791 Y1.72380
G01 X-9.68191 Y1.83420
G01 X-9.52191 Y1.83420
G01 X-9.52191 Y2.25500
G01 X-9.52191 Y2.40220
G01 X-9.68191 Y2.40220
G01 X-9.68191 Y2.90700
G01 X-9.68191 Y2.40220
G01 X-10.06031 Y2.76220
G01 X-10.17631 Y2.83740
G01 X-10.24911 Y2.87180
G01 X-10.32911 Y2.87180
G01 X-10.40191 Y2.83740
G01 X-10.44511 Y2.79660
G01 X-10.48191 Y2.72700
G01 X-10.48191 Y2.58220
G01 X-10.44511 Y2.50700
G01 X-10.40191 Y2.47180
G01 X-10.32911 Y2.43740
G01 X-10.29231 Y2.43740
G01 X-10.32911 Y2.43740
G01 X-10.40191 Y2.47180
G01 X-10.44511 Y2.50700
G01 X-10.48191 Y2.58220
G01 X-10.48191 Y2.72700
G01 X-10.44511 Y2.79660
G01 X-10.40191 Y2.83740
G01 X-10.32911 Y2.87180
G01 X-10.24911 Y2.87180
G01 X-10.17631 Y2.83740
G01 X-10.06031 Y2.76220
G01 X-9.68191 Y2.40220
G01 X-9.52191 Y2.40220
G01 X-9.52191 Y3.05500
G01 X-9.52191 Y3.20220
G01 X-9.68191 Y3.20220
G01 X-9.68191 Y3.70700
G01 X-9.68191 Y3.20220
G01 X-10.06031 Y3.56220
G01 X-10.17631 Y3.63740
G01 X-10.24911 Y3.67180
G01 X-10.32911 Y3.67180
G01 X-10.40191 Y3.63740
G01 X-10.44511 Y3.59660
G01 X-10.48191 Y3.52700
G01 X-10.48191 Y3.38220
G01 X-10.44511 Y3.30700
G01 X-10.40191 Y3.27180
G01 X-10.32911 Y3.23740
G01 X-10.29231 Y3.23740
G01 X-10.32911 Y3.23740
G01 X-10.40191 Y3.27180
G01 X-10.44511 Y3.30700
G01 X-10.48191 Y3.38220
G01 X-10.48191 Y3.52700
G01 X-10.44511 Y3.59660
G01 X-10.40191 Y3.63740
G01 X-10.32911 Y3.67180
G01 X-10.24911 Y3.67180
G01 X-10.17631 Y3.63740
G01 X-10.06031 Y3.56220
G01 X-9.68191 Y3.20220
G01 X-9.52191 Y3.20220
G01 X-9.52191 Y3.85500
G01 X-9.52191 Y4.18220
G01 X-9.68191 Y4.18220
G01 X-9.71791 Y4.07180
G01 X-9.75471 Y4.03740
G01 X-9.83391 Y4.00220
G01 X-9.75471 Y4.03740
G01 X-9.71791 Y4.07180
G01 X-9.68191 Y4.18220
G01 X-9.68191 Y4.29260
G01 X-9.71791 Y4.39660
G01 X-9.79151 Y4.47180
G01 X-9.90751 Y4.50700
G01 X-9.98671 Y4.50700
G01 X-10.09711 Y4.47180
G01 X-10.13951 Y4.43740
G01 X-10.17631 Y4.36220
G01 X-10.17631 Y4.25180
G01 X-10.48191 Y4.47180
G01 X-10.48191 Y4.07180
G01 X-10.48191 Y4.47180
G01 X-10.17631 Y4.25180
G01 X-10.17631 Y4.36220
G01 X-10.13951 Y4.43740
G01 X-10.09711 Y4.47180
G01 X-9.98671 Y4.50700
G01 X-9.90751 Y4.50700
G01 X-9.79151 Y4.47180
G01 X-9.71791 Y4.39660
G01 X-9.68191 Y4.29260
G01 X-9.68191 Y4.18220
G01 X-9.52191 Y4.18220
G01 X-9.52191 Y4.65500
G01 X-9.52191 Y4.80220
G01 X-9.68191 Y4.80220
G01 X-9.68191 Y5.30700
G01 X-9.68191 Y4.80220
G01 X-10.06031 Y5.16220
G01 X-10.17631 Y5.23740
G01 X-10.24911 Y5.27180
G01 X-10.32911 Y5.27180
G01 X-10.40191 Y5.23740
G01 X-10.44511 Y5.19660
G01 X-10.48191 Y5.12700
G01 X-10.48191 Y4.98220
G01 X-10.44511 Y4.90700
G01 X-10.40191 Y4.87180
G01 X-10.32911 Y4.83740
G01 X-10.29231 Y4.83740
G01 X-10.32911 Y4.83740
G01 X-10.40191 Y4.87180
G01 X-10.44511 Y4.90700
G01 X-10.48191 Y4.98220
G01 X-10.48191 Y5.12700
G01 X-10.44511 Y5.19660
G01 X-10.40191 Y5.23740
G01 X-10.32911 Y5.27180
G01 X-10.24911 Y5.27180
G01 X-10.17631 Y5.23740
G01 X-10.06031 Y5.16220
G01 X-9.68191 Y4.80220
G01 X-9.52191 Y4.80220
G01 X-9.52191 Y5.45500
G01 X-9.52191 Y5.53020
G01 X-10.02351 Y5.53020
G01 X-10.02351 Y6.17900
G01 X-10.02351 Y5.53020
G01 X-9.52191 Y5.53020
G01 X-9.52191 Y6.25500
G01 X-9.52191 Y6.63420
G01 X-9.68191 Y6.63420
G01 X-9.68191 Y6.66940
G01 X-9.71791 Y6.77900
G01 X-9.79151 Y6.85500
G01 X-9.90751 Y6.88940
G01 X-9.94431 Y6.88940
G01 X-10.06031 Y6.85500
G01 X-10.13951 Y6.77900
G01 X-10.17631 Y6.66940
G01 X-10.17631 Y6.63420
G01 X-10.13951 Y6.52380
G01 X-10.06031 Y6.45500
G01 X-9.94431 Y6.41980
G01 X-10.13951 Y6.41980
G01 X-10.32911 Y6.45500
G01 X-10.44511 Y6.52380
G01 X-10.48191 Y6.63420
G01 X-10.48191 Y6.70940
G01 X-10.44511 Y6.81420
G01 X-10.36511 Y6.85500
G01 X-10.44511 Y6.81420
G01 X-10.48191 Y6.70940
G01 X-10.48191 Y6.63420
G01 X-10.44511 Y6.52380
G01 X-10.32911 Y6.45500
G01 X-10.13951 Y6.41980
G01 X-9.94431 Y6.41980
G01 X-9.79151 Y6.45500
G01 X-9.71791 Y6.52380
G01 X-9.68191 Y6.63420
G01 X-9.52191 Y6.63420
G01 X-9.52191 Y7.05500
G260
M10
G00 X-12.89815 Y17.32905
(PartName=762231-6)
N4 M09
G261
G01 X-13.19015 Y17.32905
G01 X-13.19015 Y17.16905
G01 X-13.55015 Y16.36905
G01 X-13.04535 Y16.36905
G01 X-13.04615 Y16.46105
G01 X-13.04535 Y16.36905
G01 X-13.55015 Y16.36905
G01 X-13.19015 Y17.16905
G01 X-13.19015 Y17.32905
G01 X-13.69815 Y17.32905
G01 X-14.07735 Y17.32905
G01 X-14.07735 Y17.16905
G01 X-14.11255 Y17.16905
G01 X-14.22215 Y17.13305
G01 X-14.29815 Y17.05945
G01 X-14.33255 Y16.94345
G01 X-14.33255 Y16.90665
G01 X-14.29815 Y16.79065
G01 X-14.22215 Y16.71145
G01 X-14.11255 Y16.67465
G01 X-14.07735 Y16.67465
G01 X-13.96695 Y16.71145
G01 X-13.89815 Y16.79065
G01 X-13.86295 Y16.90665
G01 X-13.86295 Y16.71145
G01 X-13.89815 Y16.52185
G01 X-13.96695 Y16.40585
G01 X-14.07735 Y16.36905
G01 X-14.15255 Y16.36905
G01 X-14.25735 Y16.40585
G01 X-14.29815 Y16.48585
G01 X-14.25735 Y16.40585
G01 X-14.15255 Y16.36905
G01 X-14.07735 Y16.36905
G01 X-13.96695 Y16.40585
G01 X-13.89815 Y16.52185
G01 X-13.86295 Y16.71145
G01 X-13.86295 Y16.90665
G01 X-13.89815 Y17.05945
G01 X-13.96695 Y17.13305
G01 X-14.07735 Y17.16905
G01 X-14.07735 Y17.32905
G01 X-14.49815 Y17.32905
G01 X-14.64535 Y17.32905
G01 X-14.64535 Y17.16905
G01 X-15.15015 Y17.16905
G01 X-14.64535 Y17.16905
G01 X-15.00535 Y16.79065
G01 X-15.08055 Y16.67465
G01 X-15.11495 Y16.60185
G01 X-15.11495 Y16.52185
G01 X-15.08055 Y16.44905
G01 X-15.03975 Y16.40585
G01 X-14.97015 Y16.36905
G01 X-14.82535 Y16.36905
G01 X-14.75015 Y16.40585
G01 X-14.71495 Y16.44905
G01 X-14.68055 Y16.52185
G01 X-14.68055 Y16.55865
G01 X-14.68055 Y16.52185
G01 X-14.71495 Y16.44905
G01 X-14.75015 Y16.40585
G01 X-14.82535 Y16.36905
G01 X-14.97015 Y16.36905
G01 X-15.03975 Y16.40585
G01 X-15.08055 Y16.44905
G01 X-15.11495 Y16.52185
G01 X-15.11495 Y16.60185
G01 X-15.08055 Y16.67465
G01 X-15.00535 Y16.79065
G01 X-14.64535 Y17.16905
G01 X-14.64535 Y17.32905
G01 X-15.29815 Y17.32905
G01 X-15.44535 Y17.32905
G01 X-15.44535 Y17.16905
G01 X-15.95015 Y17.16905
G01 X-15.44535 Y17.16905
G01 X-15.80535 Y16.79065
G01 X-15.88055 Y16.67465
G01 X-15.91495 Y16.60185
G01 X-15.91495 Y16.52185
G01 X-15.88055 Y16.44905
G01 X-15.83975 Y16.40585
G01 X-15.77015 Y16.36905
G01 X-15.62535 Y16.36905
G01 X-15.55015 Y16.40585
G01 X-15.51495 Y16.44905
G01 X-15.48055 Y16.52185
G01 X-15.48055 Y16.55865
G01 X-15.48055 Y16.52185
G01 X-15.51495 Y16.44905
G01 X-15.55015 Y16.40585
G01 X-15.62535 Y16.36905
G01 X-15.77015 Y16.36905
G01 X-15.83975 Y16.40585
G01 X-15.88055 Y16.44905
G01 X-15.91495 Y16.52185
G01 X-15.91495 Y16.60185
G01 X-15.88055 Y16.67465
G01 X-15.80535 Y16.79065
G01 X-15.44535 Y17.16905
G01 X-15.44535 Y17.32905
G01 X-16.09815 Y17.32905
G01 X-16.42535 Y17.32905
G01 X-16.42535 Y17.16905
G01 X-16.31495 Y17.13305
G01 X-16.28055 Y17.09625
G01 X-16.24535 Y17.01705
G01 X-16.28055 Y17.09625
G01 X-16.31495 Y17.13305
G01 X-16.42535 Y17.16905
G01 X-16.53575 Y17.16905
G01 X-16.63975 Y17.13305
G01 X-16.71495 Y17.05945
G01 X-16.75015 Y16.94345
G01 X-16.75015 Y16.86425
G01 X-16.71495 Y16.75385
G01 X-16.68055 Y16.71145
G01 X-16.60535 Y16.67465
G01 X-16.49495 Y16.67465
G01 X-16.71495 Y16.36905
G01 X-16.31495 Y16.36905
G01 X-16.71495 Y16.36905
G01 X-16.49495 Y16.67465
G01 X-16.60535 Y16.67465
G01 X-16.68055 Y16.71145
G01 X-16.71495 Y16.75385
G01 X-16.75015 Y16.86425
G01 X-16.75015 Y16.94345
G01 X-16.71495 Y17.05945
G01 X-16.63975 Y17.13305
G01 X-16.53575 Y17.16905
G01 X-16.42535 Y17.16905
G01 X-16.42535 Y17.32905
G01 X-16.89815 Y17.32905
G01 X-17.38775 Y17.32905
G01 X-17.38775 Y17.16905
G01 X-17.38775 Y16.36905
G01 X-17.27735 Y16.48585
G01 X-17.20775 Y16.52185
G01 X-17.27735 Y16.48585
G01 X-17.38775 Y16.36905
G01 X-17.38775 Y17.16905
G01 X-17.38775 Y17.32905
G01 X-17.69815 Y17.32905
G01 X-17.77335 Y17.32905
G01 X-17.77335 Y16.82745
G01 X-18.42215 Y16.82745
G01 X-17.77335 Y16.82745
G01 X-17.77335 Y17.32905
G01 X-18.49815 Y17.32905
G01 X-18.87735 Y17.32905
G01 X-18.87735 Y17.16905
G01 X-18.91255 Y17.16905
G01 X-19.02215 Y17.13305
G01 X-19.09815 Y17.05945
G01 X-19.13255 Y16.94345
G01 X-19.13255 Y16.90665
G01 X-19.09815 Y16.79065
G01 X-19.02215 Y16.71145
G01 X-18.91255 Y16.67465
G01 X-18.87735 Y16.67465
G01 X-18.76695 Y16.71145
G01 X-18.69815 Y16.79065
G01 X-18.66295 Y16.90665
G01 X-18.66295 Y16.71145
G01 X-18.69815 Y16.52185
G01 X-18.76695 Y16.40585
G01 X-18.87735 Y16.36905
G01 X-18.95255 Y16.36905
G01 X-19.05735 Y16.40585
G01 X-19.09815 Y16.48585
G01 X-19.05735 Y16.40585
G01 X-18.95255 Y16.36905
G01 X-18.87735 Y16.36905
G01 X-18.76695 Y16.40585
G01 X-18.69815 Y16.52185
G01 X-18.66295 Y16.71145
G01 X-18.66295 Y16.90665
G01 X-18.69815 Y17.05945
G01 X-18.76695 Y17.13305
G01 X-18.87735 Y17.16905
G01 X-18.87735 Y17.32905
G01 X-19.29815 Y17.32905
G260
M10
G00 X1.59149 Y26.18178
T21
G41
N5 M07
G261
G01 X1.59149 Y25.93178
G01 X1.59149 Y11.93178
G01 X-12.40851 Y11.93178
G01 X-12.40851 Y25.93178
G01 X1.30409 Y25.93178
M50
G01 X1.59149 Y25.93178
G01 X1.77149 Y25.93178
G260
M08
G40
M51
G00 X-21.20873 Y10.35517
G41
N6 M07
G261
G01 X-20.95873 Y10.35517
G01 X-10.95873 Y10.35517
G01 X-10.95873 Y0.35517
G01 X-20.95873 Y0.35517
G01 X-20.95873 Y10.06777
M50
G01 X-20.95873 Y10.35517
G01 X-20.95873 Y10.53517
G260
M08
G40
M51
G00 X-0.35691 Y0.53000
G41
N7 M07
G261
G01 X-0.60691 Y0.53000
G01 X-10.60691 Y0.53000
G01 X-10.60691 Y10.53000
G01 X-0.60691 Y10.53000
G01 X-0.60691 Y0.81740
M50
G01 X-0.60691 Y0.53000
G01 X-0.60691 Y0.35000
G260
M08
G40
M51
G00 X-12.77315 Y26.49405
G41
N8 M07
G261
G01 X-12.77315 Y26.24405
G01 X-12.77315 Y16.24405
G01 X-22.77315 Y16.24405
G01 X-22.77315 Y26.24405
G01 X-13.06055 Y26.24405
M50
G01 X-12.77315 Y26.24405
G01 X-12.59315 Y26.24405
G260
M08
G40
M51
G00 X-12.51919 Y11.06517
(PartName=775592-6)
G41
N9 M07
G261
G01 X-12.76919 Y11.06517
G01 X-16.76919 Y11.06517
G01 X-16.76919 Y15.06517
G01 X-12.76919 Y15.06517
G01 X-12.76919 Y11.35257
M50
G01 X-12.76919 Y11.06517
G01 X-12.76919 Y10.88517
G260
M08
G40
M51
G00 X-21.37308 Y14.89137
(PartName=775592-6)
G41
N10 M07
G261
G01 X-21.12308 Y14.89137
G01 X-17.12308 Y14.89137
G01 X-17.12308 Y10.89137
G01 X-21.12308 Y10.89137
G01 X-21.12308 Y14.60397
M50
G01 X-21.12308 Y14.89137
G01 X-21.12308 Y15.07137
G260
M08
G40
M51
G00 X-25.31840 Y0.35000
(PartName=775591-6)
G41
N11 M07
G261
G01 X-25.31840 Y0.60000
G01 X-25.31840 Y4.60000
G01 X-21.31840 Y4.60000
G01 X-21.31840 Y0.60000
G01 X-25.03100 Y0.60000
M50
G01 X-25.31840 Y0.60000
G01 X-25.49840 Y0.60000
G260
M08
G40
M51
G00 X-21.49219 Y9.20389
(PartName=775591-6)
G41
N12 M07
G261
G01 X-21.49219 Y8.95389
G01 X-21.49219 Y4.95389
G01 X-25.49219 Y4.95389
G01 X-25.49219 Y8.95389
G01 X-21.77960 Y8.95389
M50
G01 X-21.49219 Y8.95389
G01 X-21.31219 Y8.95389
G260
M08
G40
M51
(PlanFooterCommand)
T0
#CS OFF
M30
