(PP_NAME=PP_Din)
(PP_VERSION=	4.0)
(PP_INI_NAME=GC_US_PLASMA_4.7.ini)
(PP_INI_VERSION=2014-02-26)
(%%INFO MACHINE=HPRXD SS 260A H35)
(%%INFO Material=A240 GR.316L Thickness=0.375 PlateLength=48 PlateWidth=67.626)
(%%INFO PartName=775881-3_A IR 6.375=1pcs=39.8lbs)
(%%INFO PartName=775881-3_B IR 6.375=1pcs=43.87lbs)
(%%INFO TotalCutLength=251.665)
(%%INFO TotalPierceCount=9)
(%%INFO TotalProductionTime=00:06:23)
G70
#CONTOUR MODE[DEV PATH_DEV=0.008 RELEVANT_PATH=0.004]
G90
(PlanHeaderCommand)
G162
G141
G237
#CS ON [V.E.START_X, V.E.START_Y, 0, 0, 0, V.E.ROTATION]
M190
G00 X-2.19091 Y13.89160
T23
(PartName=775881-3_A IR 6.375)
N1 M09
G261
G01 X-1.76005 Y14.58761
G01 X-1.49490 Y13.99103
G260
M10
G00 X-1.76005 Y14.58761
N2 M09
G261
G01 X-1.76005 Y10.01385
G01 X-1.32919 Y10.47785
G260
M10
G00 X-1.76005 Y10.01385
N3 M09
G261
G01 X-2.32348 Y10.44471
G260
M10
G00 X-1.44588 Y20.85007
N4 M09
G261
G01 X-1.44588 Y20.55807
G01 X-1.28588 Y20.55807
G01 X-0.48588 Y20.19807
G01 X-0.48588 Y20.70287
G01 X-0.57788 Y20.70207
G01 X-0.48588 Y20.70287
G01 X-0.48588 Y20.19807
G01 X-1.28588 Y20.55807
G01 X-1.44588 Y20.55807
G01 X-1.44588 Y20.05007
G01 X-1.44588 Y19.75807
G01 X-1.28588 Y19.75807
G01 X-0.48588 Y19.39807
G01 X-0.48588 Y19.90287
G01 X-0.57788 Y19.90207
G01 X-0.48588 Y19.90287
G01 X-0.48588 Y19.39807
G01 X-1.28588 Y19.75807
G01 X-1.44588 Y19.75807
G01 X-1.44588 Y19.25007
G01 X-1.44588 Y18.92287
G01 X-1.28588 Y18.92287
G01 X-1.24988 Y19.03327
G01 X-1.21308 Y19.06767
G01 X-1.13388 Y19.10287
G01 X-1.21308 Y19.06767
G01 X-1.24988 Y19.03327
G01 X-1.28588 Y18.92287
G01 X-1.28588 Y18.81247
G01 X-1.24988 Y18.70847
G01 X-1.17628 Y18.63327
G01 X-1.06028 Y18.59807
G01 X-0.98108 Y18.59807
G01 X-0.87068 Y18.63327
G01 X-0.79148 Y18.70847
G01 X-0.75468 Y18.81247
G01 X-0.75468 Y18.92287
G01 X-0.79148 Y19.03327
G01 X-0.82828 Y19.06767
G01 X-0.48588 Y19.03327
G01 X-0.48588 Y18.66767
G01 X-0.48588 Y19.03327
G01 X-0.82828 Y19.06767
G01 X-0.79148 Y19.03327
G01 X-0.75468 Y18.92287
G01 X-0.75468 Y18.81247
G01 X-0.79148 Y18.70847
G01 X-0.87068 Y18.63327
G01 X-0.98108 Y18.59807
G01 X-1.06028 Y18.59807
G01 X-1.17628 Y18.63327
G01 X-1.24988 Y18.70847
G01 X-1.28588 Y18.81247
G01 X-1.28588 Y18.92287
G01 X-1.44588 Y18.92287
G01 X-1.44588 Y18.45007
G01 X-1.44588 Y18.12287
G01 X-1.28588 Y18.12287
G01 X-1.28588 Y17.97807
G01 X-1.24988 Y17.86767
G01 X-1.21308 Y17.83327
G01 X-1.13388 Y17.79807
G01 X-1.02348 Y17.79807
G01 X-0.94428 Y17.83327
G01 X-0.87068 Y17.90847
G01 X-0.82828 Y18.01247
G01 X-0.79148 Y18.15807
G01 X-0.75468 Y18.23327
G01 X-0.67548 Y18.26767
G01 X-0.60268 Y18.26767
G01 X-0.52268 Y18.23327
G01 X-0.48588 Y18.12287
G01 X-0.48588 Y17.97807
G01 X-0.52268 Y17.86767
G01 X-0.60268 Y17.83327
G01 X-0.67548 Y17.83327
G01 X-0.75468 Y17.86767
G01 X-0.79148 Y17.94287
G01 X-0.82828 Y18.08847
G01 X-0.87068 Y18.19807
G01 X-0.94428 Y18.26767
G01 X-1.02348 Y18.30287
G01 X-1.13388 Y18.30287
G01 X-1.21308 Y18.26767
G01 X-1.24988 Y18.23327
G01 X-1.28588 Y18.12287
G01 X-1.44588 Y18.12287
G01 X-1.44588 Y17.65007
G01 X-1.44588 Y17.32287
G01 X-1.28588 Y17.32287
G01 X-1.28588 Y17.17807
G01 X-1.24988 Y17.06767
G01 X-1.21308 Y17.03327
G01 X-1.13388 Y16.99807
G01 X-1.02348 Y16.99807
G01 X-0.94428 Y17.03327
G01 X-0.87068 Y17.10847
G01 X-0.82828 Y17.21247
G01 X-0.79148 Y17.35807
G01 X-0.75468 Y17.43327
G01 X-0.67548 Y17.46767
G01 X-0.60268 Y17.46767
G01 X-0.52268 Y17.43327
G01 X-0.48588 Y17.32287
G01 X-0.48588 Y17.17807
G01 X-0.52268 Y17.06767
G01 X-0.60268 Y17.03327
G01 X-0.67548 Y17.03327
G01 X-0.75468 Y17.06767
G01 X-0.79148 Y17.14287
G01 X-0.82828 Y17.28847
G01 X-0.87068 Y17.39807
G01 X-0.94428 Y17.46767
G01 X-1.02348 Y17.50287
G01 X-1.13388 Y17.50287
G01 X-1.21308 Y17.46767
G01 X-1.24988 Y17.43327
G01 X-1.28588 Y17.32287
G01 X-1.44588 Y17.32287
G01 X-1.44588 Y16.85007
G01 X-1.44588 Y16.36047
G01 X-1.28588 Y16.36047
G01 X-0.48588 Y16.36047
G01 X-0.60268 Y16.47087
G01 X-0.63868 Y16.54047
G01 X-0.60268 Y16.47087
G01 X-0.48588 Y16.36047
G01 X-1.28588 Y16.36047
G01 X-1.44588 Y16.36047
G01 X-1.44588 Y16.05007
G01 X-1.44588 Y15.97487
G01 X-0.94428 Y15.97487
G01 X-0.94428 Y15.32607
G01 X-0.94428 Y15.97487
G01 X-1.44588 Y15.97487
G01 X-1.44588 Y15.25007
G01 X-1.44588 Y14.92287
G01 X-1.28588 Y14.92287
G01 X-1.24988 Y15.03327
G01 X-1.21308 Y15.06767
G01 X-1.13388 Y15.10287
G01 X-1.21308 Y15.06767
G01 X-1.24988 Y15.03327
G01 X-1.28588 Y14.92287
G01 X-1.28588 Y14.81247
G01 X-1.24988 Y14.70847
G01 X-1.17628 Y14.63327
G01 X-1.06028 Y14.59807
G01 X-0.98108 Y14.59807
G01 X-0.87068 Y14.63327
G01 X-0.82828 Y14.66767
G01 X-0.79148 Y14.74287
G01 X-0.79148 Y14.85327
G01 X-0.48588 Y14.63327
G01 X-0.48588 Y15.03327
G01 X-0.48588 Y14.63327
G01 X-0.79148 Y14.85327
G01 X-0.79148 Y14.74287
G01 X-0.82828 Y14.66767
G01 X-0.87068 Y14.63327
G01 X-0.98108 Y14.59807
G01 X-1.06028 Y14.59807
G01 X-1.17628 Y14.63327
G01 X-1.24988 Y14.70847
G01 X-1.28588 Y14.81247
G01 X-1.28588 Y14.92287
G01 X-1.44588 Y14.92287
G01 X-1.44588 Y14.45007
G01 X-1.44588 Y14.37807
G01 X-1.28588 Y14.37807
G01 X-1.28588 Y13.72287
G01 X-1.28588 Y14.37807
G01 X-1.44588 Y14.37807
G01 X-1.44588 Y13.65007
G01 X-1.44588 Y13.54047
G01 X-1.28588 Y13.54047
G01 X-0.48588 Y13.25007
G01 X-1.28588 Y12.96047
G01 X-1.02348 Y13.05567
G01 X-1.02348 Y13.44527
G01 X-1.28588 Y13.54047
G01 X-1.44588 Y13.54047
G01 X-1.44588 Y12.85007
G01 X-1.44588 Y12.05007
G01 X-1.44588 Y11.77007
G01 X-1.28588 Y11.77007
G01 X-1.28588 Y11.53007
G01 X-1.28588 Y11.65007
G01 X-0.48588 Y11.65007
G01 X-0.48588 Y11.77007
G01 X-0.48588 Y11.53007
G01 X-0.48588 Y11.65007
G01 X-1.28588 Y11.65007
G01 X-1.28588 Y11.77007
G01 X-1.44588 Y11.77007
G01 X-1.44588 Y11.25007
G01 X-1.44588 Y11.10287
G01 X-1.28588 Y11.10287
G01 X-0.48588 Y11.10287
G01 X-0.48588 Y10.77807
G01 X-0.52268 Y10.66767
G01 X-0.56588 Y10.63327
G01 X-0.63868 Y10.59807
G01 X-0.71868 Y10.59807
G01 X-0.79148 Y10.63327
G01 X-0.82828 Y10.66767
G01 X-0.87068 Y10.77807
G01 X-0.87068 Y10.84767
G01 X-1.28588 Y10.59807
G01 X-0.87068 Y10.84767
G01 X-0.87068 Y11.10287
G01 X-1.28588 Y11.10287
G01 X-1.44588 Y11.10287
G01 X-1.44588 Y10.45007
G01 X-1.44588 Y9.65007
G01 X-1.44588 Y9.27087
G01 X-1.28588 Y9.27087
G01 X-1.28588 Y9.23567
G01 X-1.24988 Y9.12607
G01 X-1.17628 Y9.05007
G01 X-1.06028 Y9.01567
G01 X-1.02348 Y9.01567
G01 X-0.90748 Y9.05007
G01 X-0.82828 Y9.12607
G01 X-0.79148 Y9.23567
G01 X-0.79148 Y9.27087
G01 X-0.82828 Y9.38127
G01 X-0.90748 Y9.45007
G01 X-1.02348 Y9.48527
G01 X-0.82828 Y9.48527
G01 X-0.63868 Y9.45007
G01 X-0.52268 Y9.38127
G01 X-0.48588 Y9.27087
G01 X-0.48588 Y9.19567
G01 X-0.52268 Y9.09087
G01 X-0.60268 Y9.05007
G01 X-0.52268 Y9.09087
G01 X-0.48588 Y9.19567
G01 X-0.48588 Y9.27087
G01 X-0.52268 Y9.38127
G01 X-0.63868 Y9.45007
G01 X-0.82828 Y9.48527
G01 X-1.02348 Y9.48527
G01 X-1.17628 Y9.45007
G01 X-1.24988 Y9.38127
G01 X-1.28588 Y9.27087
G01 X-1.44588 Y9.27087
G01 X-1.44588 Y8.85007
G01 X-1.44588 Y8.45327
G01 X-1.28588 Y8.45327
G01 X-1.24988 Y8.48847
G01 X-1.21308 Y8.45327
G01 X-1.24988 Y8.41247
G01 X-1.28588 Y8.45327
G01 X-1.44588 Y8.45327
G01 X-1.44588 Y8.05007
G01 X-1.44588 Y7.72287
G01 X-1.28588 Y7.72287
G01 X-1.24988 Y7.83327
G01 X-1.21308 Y7.86767
G01 X-1.13388 Y7.90287
G01 X-1.21308 Y7.86767
G01 X-1.24988 Y7.83327
G01 X-1.28588 Y7.72287
G01 X-1.28588 Y7.61247
G01 X-1.24988 Y7.50847
G01 X-1.17628 Y7.43327
G01 X-1.06028 Y7.39807
G01 X-0.98108 Y7.39807
G01 X-0.87068 Y7.43327
G01 X-0.82828 Y7.46767
G01 X-0.79148 Y7.54287
G01 X-0.79148 Y7.65327
G01 X-0.48588 Y7.43327
G01 X-0.48588 Y7.83327
G01 X-0.48588 Y7.43327
G01 X-0.79148 Y7.65327
G01 X-0.79148 Y7.54287
G01 X-0.82828 Y7.46767
G01 X-0.87068 Y7.43327
G01 X-0.98108 Y7.39807
G01 X-1.06028 Y7.39807
G01 X-1.17628 Y7.43327
G01 X-1.24988 Y7.50847
G01 X-1.28588 Y7.61247
G01 X-1.28588 Y7.72287
G01 X-1.44588 Y7.72287
G01 X-1.44588 Y7.25007
G01 X-1.44588 Y6.95807
G01 X-1.28588 Y6.95807
G01 X-0.48588 Y6.59807
G01 X-0.48588 Y7.10287
G01 X-0.57788 Y7.10207
G01 X-0.48588 Y7.10287
G01 X-0.48588 Y6.59807
G01 X-1.28588 Y6.95807
G01 X-1.44588 Y6.95807
G01 X-1.44588 Y6.45007
G01 X-1.44588 Y6.12287
G01 X-1.28588 Y6.12287
G01 X-1.24988 Y6.23327
G01 X-1.21308 Y6.26767
G01 X-1.13388 Y6.30287
G01 X-1.21308 Y6.26767
G01 X-1.24988 Y6.23327
G01 X-1.28588 Y6.12287
G01 X-1.28588 Y6.01247
G01 X-1.24988 Y5.90847
G01 X-1.17628 Y5.83327
G01 X-1.06028 Y5.79807
G01 X-0.98108 Y5.79807
G01 X-0.87068 Y5.83327
G01 X-0.79148 Y5.90847
G01 X-0.75468 Y6.01247
G01 X-0.75468 Y6.12287
G01 X-0.79148 Y6.23327
G01 X-0.82828 Y6.26767
G01 X-0.48588 Y6.23327
G01 X-0.48588 Y5.86767
G01 X-0.48588 Y6.23327
G01 X-0.82828 Y6.26767
G01 X-0.79148 Y6.23327
G01 X-0.75468 Y6.12287
G01 X-0.75468 Y6.01247
G01 X-0.79148 Y5.90847
G01 X-0.87068 Y5.83327
G01 X-0.98108 Y5.79807
G01 X-1.06028 Y5.79807
G01 X-1.17628 Y5.83327
G01 X-1.24988 Y5.90847
G01 X-1.28588 Y6.01247
G01 X-1.28588 Y6.12287
G01 X-1.44588 Y6.12287
G01 X-1.44588 Y5.65007
G260
M10
G00 X-18.91997 Y28.59334
(PartName=775881-3_B IR 6.375)
N5 M09
G261
G01 X-19.35083 Y27.89733
G01 X-19.61597 Y28.49391
G260
M10
G00 X-19.35083 Y27.89733
N6 M09
G261
G01 X-19.35083 Y32.47109
G01 X-19.78169 Y32.00709
G260
M10
G00 X-19.35083 Y32.47109
N7 M09
G261
G01 X-18.78739 Y32.04023
G260
M10
G00 X-19.66500 Y21.63487
N8 M09
G261
G01 X-19.66500 Y21.92687
G01 X-19.82500 Y21.92687
G01 X-20.62500 Y22.28687
G01 X-20.62500 Y21.78207
G01 X-20.53300 Y21.78287
G01 X-20.62500 Y21.78207
G01 X-20.62500 Y22.28687
G01 X-19.82500 Y21.92687
G01 X-19.66500 Y21.92687
G01 X-19.66500 Y22.43487
G01 X-19.66500 Y22.72687
G01 X-19.82500 Y22.72687
G01 X-20.62500 Y23.08687
G01 X-20.62500 Y22.58207
G01 X-20.53300 Y22.58287
G01 X-20.62500 Y22.58207
G01 X-20.62500 Y23.08687
G01 X-19.82500 Y22.72687
G01 X-19.66500 Y22.72687
G01 X-19.66500 Y23.23487
G01 X-19.66500 Y23.56207
G01 X-19.82500 Y23.56207
G01 X-19.86100 Y23.45167
G01 X-19.89780 Y23.41727
G01 X-19.97700 Y23.38207
G01 X-19.89780 Y23.41727
G01 X-19.86100 Y23.45167
G01 X-19.82500 Y23.56207
G01 X-19.82500 Y23.67247
G01 X-19.86100 Y23.77647
G01 X-19.93460 Y23.85167
G01 X-20.05060 Y23.88687
G01 X-20.12980 Y23.88687
G01 X-20.24020 Y23.85167
G01 X-20.31940 Y23.77647
G01 X-20.35620 Y23.67247
G01 X-20.35620 Y23.56207
G01 X-20.31940 Y23.45167
G01 X-20.28260 Y23.41727
G01 X-20.62500 Y23.45167
G01 X-20.62500 Y23.81727
G01 X-20.62500 Y23.45167
G01 X-20.28260 Y23.41727
G01 X-20.31940 Y23.45167
G01 X-20.35620 Y23.56207
G01 X-20.35620 Y23.67247
G01 X-20.31940 Y23.77647
G01 X-20.24020 Y23.85167
G01 X-20.12980 Y23.88687
G01 X-20.05060 Y23.88687
G01 X-19.93460 Y23.85167
G01 X-19.86100 Y23.77647
G01 X-19.82500 Y23.67247
G01 X-19.82500 Y23.56207
G01 X-19.66500 Y23.56207
G01 X-19.66500 Y24.03487
G01 X-19.66500 Y24.36207
G01 X-19.82500 Y24.36207
G01 X-19.82500 Y24.50687
G01 X-19.86100 Y24.61727
G01 X-19.89780 Y24.65167
G01 X-19.97700 Y24.68687
G01 X-20.08740 Y24.68687
G01 X-20.16660 Y24.65167
G01 X-20.24020 Y24.57647
G01 X-20.28260 Y24.47247
G01 X-20.31940 Y24.32687
G01 X-20.35620 Y24.25167
G01 X-20.43540 Y24.21727
G01 X-20.50820 Y24.21727
G01 X-20.58820 Y24.25167
G01 X-20.62500 Y24.36207
G01 X-20.62500 Y24.50687
G01 X-20.58820 Y24.61727
G01 X-20.50820 Y24.65167
G01 X-20.43540 Y24.65167
G01 X-20.35620 Y24.61727
G01 X-20.31940 Y24.54207
G01 X-20.28260 Y24.39647
G01 X-20.24020 Y24.28687
G01 X-20.16660 Y24.21727
G01 X-20.08740 Y24.18207
G01 X-19.97700 Y24.18207
G01 X-19.89780 Y24.21727
G01 X-19.86100 Y24.25167
G01 X-19.82500 Y24.36207
G01 X-19.66500 Y24.36207
G01 X-19.66500 Y24.83487
G01 X-19.66500 Y25.16207
G01 X-19.82500 Y25.16207
G01 X-19.82500 Y25.30687
G01 X-19.86100 Y25.41727
G01 X-19.89780 Y25.45167
G01 X-19.97700 Y25.48687
G01 X-20.08740 Y25.48687
G01 X-20.16660 Y25.45167
G01 X-20.24020 Y25.37647
G01 X-20.28260 Y25.27247
G01 X-20.31940 Y25.12687
G01 X-20.35620 Y25.05167
G01 X-20.43540 Y25.01727
G01 X-20.50820 Y25.01727
G01 X-20.58820 Y25.05167
G01 X-20.62500 Y25.16207
G01 X-20.62500 Y25.30687
G01 X-20.58820 Y25.41727
G01 X-20.50820 Y25.45167
G01 X-20.43540 Y25.45167
G01 X-20.35620 Y25.41727
G01 X-20.31940 Y25.34207
G01 X-20.28260 Y25.19647
G01 X-20.24020 Y25.08687
G01 X-20.16660 Y25.01727
G01 X-20.08740 Y24.98207
G01 X-19.97700 Y24.98207
G01 X-19.89780 Y25.01727
G01 X-19.86100 Y25.05167
G01 X-19.82500 Y25.16207
G01 X-19.66500 Y25.16207
G01 X-19.66500 Y25.63487
G01 X-19.66500 Y26.12447
G01 X-19.82500 Y26.12447
G01 X-20.62500 Y26.12447
G01 X-20.50820 Y26.01407
G01 X-20.47220 Y25.94447
G01 X-20.50820 Y26.01407
G01 X-20.62500 Y26.12447
G01 X-19.82500 Y26.12447
G01 X-19.66500 Y26.12447
G01 X-19.66500 Y26.43487
G01 X-19.66500 Y26.51007
G01 X-20.16660 Y26.51007
G01 X-20.16660 Y27.15887
G01 X-20.16660 Y26.51007
G01 X-19.66500 Y26.51007
G01 X-19.66500 Y27.23487
G01 X-19.66500 Y27.56207
G01 X-19.82500 Y27.56207
G01 X-19.86100 Y27.45167
G01 X-19.89780 Y27.41727
G01 X-19.97700 Y27.38207
G01 X-19.89780 Y27.41727
G01 X-19.86100 Y27.45167
G01 X-19.82500 Y27.56207
G01 X-19.82500 Y27.67247
G01 X-19.86100 Y27.77647
G01 X-19.93460 Y27.85167
G01 X-20.05060 Y27.88687
G01 X-20.12980 Y27.88687
G01 X-20.24020 Y27.85167
G01 X-20.28260 Y27.81727
G01 X-20.31940 Y27.74207
G01 X-20.31940 Y27.63167
G01 X-20.62500 Y27.85167
G01 X-20.62500 Y27.45167
G01 X-20.62500 Y27.85167
G01 X-20.31940 Y27.63167
G01 X-20.31940 Y27.74207
G01 X-20.28260 Y27.81727
G01 X-20.24020 Y27.85167
G01 X-20.12980 Y27.88687
G01 X-20.05060 Y27.88687
G01 X-19.93460 Y27.85167
G01 X-19.86100 Y27.77647
G01 X-19.82500 Y27.67247
G01 X-19.82500 Y27.56207
G01 X-19.66500 Y27.56207
G01 X-19.66500 Y28.03487
G01 X-19.66500 Y28.10687
G01 X-19.82500 Y28.10687
G01 X-19.82500 Y28.76207
G01 X-19.82500 Y28.10687
G01 X-19.66500 Y28.10687
G01 X-19.66500 Y28.83487
G01 X-19.66500 Y28.98207
G01 X-20.62500 Y28.98207
G01 X-20.62500 Y29.30687
G01 X-20.58820 Y29.41727
G01 X-20.47220 Y29.48687
G01 X-20.39220 Y29.48687
G01 X-20.31940 Y29.45167
G01 X-20.28260 Y29.41727
G01 X-20.24020 Y29.30687
G01 X-20.24020 Y28.98207
G01 X-20.24020 Y29.30687
G01 X-20.20340 Y29.41727
G01 X-20.16660 Y29.45167
G01 X-20.08740 Y29.48687
G01 X-19.89780 Y29.45167
G01 X-19.86100 Y29.41727
G01 X-19.82500 Y29.30687
G01 X-19.82500 Y28.98207
G01 X-19.66500 Y28.98207
G01 X-19.66500 Y29.63487
G01 X-19.66500 Y30.43487
G01 X-19.66500 Y30.71487
G01 X-19.82500 Y30.71487
G01 X-19.82500 Y30.95487
G01 X-19.82500 Y30.83487
G01 X-20.62500 Y30.83487
G01 X-20.62500 Y30.71487
G01 X-20.62500 Y30.95487
G01 X-20.62500 Y30.83487
G01 X-19.82500 Y30.83487
G01 X-19.82500 Y30.71487
G01 X-19.66500 Y30.71487
G01 X-19.66500 Y31.23487
G01 X-19.66500 Y31.38207
G01 X-19.82500 Y31.38207
G01 X-20.62500 Y31.38207
G01 X-20.62500 Y31.70687
G01 X-20.58820 Y31.81727
G01 X-20.54500 Y31.85167
G01 X-20.47220 Y31.88687
G01 X-20.39220 Y31.88687
G01 X-20.31940 Y31.85167
G01 X-20.28260 Y31.81727
G01 X-20.24020 Y31.70687
G01 X-20.24020 Y31.63727
G01 X-19.82500 Y31.88687
G01 X-20.24020 Y31.63727
G01 X-20.24020 Y31.38207
G01 X-19.82500 Y31.38207
G01 X-19.66500 Y31.38207
G01 X-19.66500 Y32.03487
G01 X-19.66500 Y32.83487
G01 X-19.66500 Y33.21407
G01 X-19.82500 Y33.21407
G01 X-19.82500 Y33.24927
G01 X-19.86100 Y33.35887
G01 X-19.93460 Y33.43487
G01 X-20.05060 Y33.46927
G01 X-20.08740 Y33.46927
G01 X-20.20340 Y33.43487
G01 X-20.28260 Y33.35887
G01 X-20.31940 Y33.24927
G01 X-20.31940 Y33.21407
G01 X-20.28260 Y33.10367
G01 X-20.20340 Y33.03487
G01 X-20.08740 Y32.99967
G01 X-20.28260 Y32.99967
G01 X-20.47220 Y33.03487
G01 X-20.58820 Y33.10367
G01 X-20.62500 Y33.21407
G01 X-20.62500 Y33.28927
G01 X-20.58820 Y33.39407
G01 X-20.50820 Y33.43487
G01 X-20.58820 Y33.39407
G01 X-20.62500 Y33.28927
G01 X-20.62500 Y33.21407
G01 X-20.58820 Y33.10367
G01 X-20.47220 Y33.03487
G01 X-20.28260 Y32.99967
G01 X-20.08740 Y32.99967
G01 X-19.93460 Y33.03487
G01 X-19.86100 Y33.10367
G01 X-19.82500 Y33.21407
G01 X-19.66500 Y33.21407
G01 X-19.66500 Y33.63487
G01 X-19.66500 Y34.03167
G01 X-19.82500 Y34.03167
G01 X-19.86100 Y33.99647
G01 X-19.89780 Y34.03167
G01 X-19.86100 Y34.07247
G01 X-19.82500 Y34.03167
G01 X-19.66500 Y34.03167
G01 X-19.66500 Y34.43487
G01 X-19.66500 Y34.76207
G01 X-19.82500 Y34.76207
G01 X-19.86100 Y34.65167
G01 X-19.89780 Y34.61727
G01 X-19.97700 Y34.58207
G01 X-19.89780 Y34.61727
G01 X-19.86100 Y34.65167
G01 X-19.82500 Y34.76207
G01 X-19.82500 Y34.87247
G01 X-19.86100 Y34.97647
G01 X-19.93460 Y35.05167
G01 X-20.05060 Y35.08687
G01 X-20.12980 Y35.08687
G01 X-20.24020 Y35.05167
G01 X-20.28260 Y35.01727
G01 X-20.31940 Y34.94207
G01 X-20.31940 Y34.83167
G01 X-20.62500 Y35.05167
G01 X-20.62500 Y34.65167
G01 X-20.62500 Y35.05167
G01 X-20.31940 Y34.83167
G01 X-20.31940 Y34.94207
G01 X-20.28260 Y35.01727
G01 X-20.24020 Y35.05167
G01 X-20.12980 Y35.08687
G01 X-20.05060 Y35.08687
G01 X-19.93460 Y35.05167
G01 X-19.86100 Y34.97647
G01 X-19.82500 Y34.87247
G01 X-19.82500 Y34.76207
G01 X-19.66500 Y34.76207
G01 X-19.66500 Y35.23487
G01 X-19.66500 Y35.52687
G01 X-19.82500 Y35.52687
G01 X-20.62500 Y35.88687
G01 X-20.62500 Y35.38207
G01 X-20.53300 Y35.38287
G01 X-20.62500 Y35.38207
G01 X-20.62500 Y35.88687
G01 X-19.82500 Y35.52687
G01 X-19.66500 Y35.52687
G01 X-19.66500 Y36.03487
G01 X-19.66500 Y36.36207
G01 X-19.82500 Y36.36207
G01 X-19.86100 Y36.25167
G01 X-19.89780 Y36.21727
G01 X-19.97700 Y36.18207
G01 X-19.89780 Y36.21727
G01 X-19.86100 Y36.25167
G01 X-19.82500 Y36.36207
G01 X-19.82500 Y36.47247
G01 X-19.86100 Y36.57647
G01 X-19.93460 Y36.65167
G01 X-20.05060 Y36.68687
G01 X-20.12980 Y36.68687
G01 X-20.24020 Y36.65167
G01 X-20.31940 Y36.57647
G01 X-20.35620 Y36.47247
G01 X-20.35620 Y36.36207
G01 X-20.31940 Y36.25167
G01 X-20.28260 Y36.21727
G01 X-20.62500 Y36.25167
G01 X-20.62500 Y36.61727
G01 X-20.62500 Y36.25167
G01 X-20.28260 Y36.21727
G01 X-20.31940 Y36.25167
G01 X-20.35620 Y36.36207
G01 X-20.35620 Y36.47247
G01 X-20.31940 Y36.57647
G01 X-20.24020 Y36.65167
G01 X-20.12980 Y36.68687
G01 X-20.05060 Y36.68687
G01 X-19.93460 Y36.65167
G01 X-19.86100 Y36.57647
G01 X-19.82500 Y36.47247
G01 X-19.82500 Y36.36207
G01 X-19.66500 Y36.36207
G01 X-19.66500 Y36.83487
G260
M10
G00 X-10.71819 Y13.90286
T22
G41
N9 M07
G261
G01 X-10.77431 Y14.29284
G01 X-10.79540 Y14.28980
G01 X-10.86731 Y14.27757
G01 X-10.93899 Y14.26348
G01 X-11.01040 Y14.24755
G01 X-11.08151 Y14.22981
G01 X-11.15228 Y14.21026
G01 X-11.22269 Y14.18892
G01 X-11.29270 Y14.16582
G01 X-11.36228 Y14.14098
G01 X-11.43140 Y14.11441
G01 X-11.50002 Y14.08615
G01 X-11.56811 Y14.05621
G01 X-11.63564 Y14.02463
G01 X-11.70258 Y13.99143
G01 X-11.76890 Y13.95664
G01 X-11.83457 Y13.92028
G01 X-11.89956 Y13.88240
G01 X-11.96384 Y13.84301
G01 X-12.02737 Y13.80215
G01 X-12.09013 Y13.75986
G01 X-12.15209 Y13.71615
G01 X-12.21322 Y13.67107
G01 X-12.27349 Y13.62465
G01 X-12.33288 Y13.57692
G01 X-12.39136 Y13.52792
G01 X-12.44889 Y13.47767
G01 X-12.50546 Y13.42621
G01 X-12.56103 Y13.37358
G01 X-12.61559 Y13.31980
G01 X-12.66910 Y13.26491
G01 X-12.72155 Y13.20895
G01 X-12.77290 Y13.15194
G01 X-12.82313 Y13.09393
G01 X-12.87223 Y13.03493
G01 X-12.92016 Y12.97500
G01 X-12.96690 Y12.91414
G01 X-13.01244 Y12.85241
G01 X-13.05676 Y12.78983
G01 X-13.09982 Y12.72643
G01 X-13.14162 Y12.66224
M50
G01 X-13.18212 Y12.59730
M06
G01 X-12.84382 Y12.39534
G260
M08
G40
M51
G00 X-13.01351 Y12.08330
G41
N10 M07
G261
G01 X-13.36999 Y12.25112
G01 X-13.39713 Y12.19346
G01 X-13.42813 Y12.12406
G01 X-13.45772 Y12.05414
G01 X-13.48587 Y11.98373
G01 X-13.51258 Y11.91286
G01 X-13.53782 Y11.84154
G01 X-13.56160 Y11.76982
G01 X-13.58389 Y11.69771
G01 X-13.60469 Y11.62525
G01 X-13.62399 Y11.55246
G01 X-13.64177 Y11.47936
G01 X-13.65804 Y11.40599
G01 X-13.67278 Y11.33236
G01 X-13.68599 Y11.25850
G01 X-13.69766 Y11.18445
G01 X-13.70779 Y11.11022
G01 X-13.71636 Y11.03584
G01 X-13.72338 Y10.96134
G01 X-13.72885 Y10.88673
G01 X-13.73275 Y10.81205
G01 X-13.73509 Y10.73732
G01 X-13.73588 Y10.66257
G01 X-13.73509 Y10.58781
G01 X-13.73275 Y10.51309
G01 X-13.72885 Y10.43841
G01 X-13.72338 Y10.36380
G01 X-13.71636 Y10.28930
G01 X-13.70779 Y10.21492
G01 X-13.69766 Y10.14069
G01 X-13.68599 Y10.06663
G01 X-13.67278 Y9.99278
G01 X-13.65804 Y9.91915
G01 X-13.64177 Y9.84578
G01 X-13.62399 Y9.77268
G01 X-13.60469 Y9.69989
G01 X-13.58389 Y9.62742
G01 X-13.56160 Y9.55532
G01 X-13.53782 Y9.48359
G01 X-13.51258 Y9.41228
G01 X-13.48587 Y9.34141
G01 X-13.45772 Y9.27099
G01 X-13.42813 Y9.20108
G01 X-13.39713 Y9.13168
G01 X-13.36472 Y9.06283
G01 X-13.33092 Y8.99456
G01 X-13.29574 Y8.92690
G01 X-13.25920 Y8.85987
G01 X-13.22133 Y8.79351
M50
G01 X-13.18212 Y8.72784
M06
G01 X-12.84783 Y8.93636
G260
M08
G40
M51
G00 X-12.64783 Y8.64240
G41
N11 M07
G261
G01 X-12.96028 Y8.40238
G01 X-12.92016 Y8.35014
G01 X-12.87223 Y8.29020
G01 X-12.82313 Y8.23121
G01 X-12.77290 Y8.17319
G01 X-12.72155 Y8.11619
G01 X-12.66910 Y8.06022
G01 X-12.61559 Y8.00534
G01 X-12.56103 Y7.95156
G01 X-12.50546 Y7.89893
G01 X-12.44889 Y7.84747
G01 X-12.39136 Y7.79722
G01 X-12.33288 Y7.74821
G01 X-12.27349 Y7.70048
G01 X-12.21322 Y7.65406
G01 X-12.15209 Y7.60898
G01 X-12.09013 Y7.56528
G01 X-12.02737 Y7.52298
G01 X-11.96384 Y7.48213
G01 X-11.89956 Y7.44274
G01 X-11.83457 Y7.40485
G01 X-11.76890 Y7.36850
G01 X-11.70258 Y7.33371
G01 X-11.63564 Y7.30051
G01 X-11.56811 Y7.26893
G01 X-11.50002 Y7.23899
G01 X-11.43140 Y7.21073
G01 X-11.36228 Y7.18416
G01 X-11.29270 Y7.15932
G01 X-11.22269 Y7.13621
G01 X-11.15228 Y7.11488
G01 X-11.08151 Y7.09533
G01 X-11.01040 Y7.07758
G01 X-10.93899 Y7.06166
G01 X-10.86731 Y7.04757
G01 X-10.79540 Y7.03533
G01 X-10.72329 Y7.02496
G01 X-10.65101 Y7.01645
G01 X-10.57859 Y7.00983
G01 X-10.50608 Y7.00510
G01 X-10.43349 Y7.00225
M50
G01 X-10.41265 Y7.00198
M06
G01 X-10.40751 Y7.39595
G260
M08
G40
M51
G00 X-10.06548 Y7.41379
G41
N12 M07
G261
G01 X-10.01944 Y7.02249
G01 X-9.99846 Y7.02496
G01 X-9.92635 Y7.03533
G01 X-9.85444 Y7.04757
G01 X-9.78276 Y7.06166
G01 X-9.71135 Y7.07758
G01 X-9.64024 Y7.09533
G01 X-9.56947 Y7.11488
G01 X-9.49906 Y7.13621
G01 X-9.42905 Y7.15931
G01 X-9.35947 Y7.18416
G01 X-9.29035 Y7.21073
G01 X-9.22174 Y7.23899
G01 X-9.15364 Y7.26893
G01 X-9.08611 Y7.30051
G01 X-9.01917 Y7.33371
G01 X-8.95285 Y7.36850
G01 X-8.88718 Y7.40485
G01 X-8.82219 Y7.44274
G01 X-8.75792 Y7.48213
G01 X-8.69438 Y7.52298
G01 X-8.63162 Y7.56528
G01 X-8.56966 Y7.60898
G01 X-8.50853 Y7.65406
G01 X-8.44826 Y7.70048
G01 X-8.38887 Y7.74821
G01 X-8.33039 Y7.79722
G01 X-8.27286 Y7.84747
G01 X-8.21629 Y7.89893
G01 X-8.16072 Y7.95156
G01 X-8.10616 Y8.00534
G01 X-8.05265 Y8.06022
G01 X-8.00020 Y8.11619
G01 X-7.94885 Y8.17319
G01 X-7.89862 Y8.23121
G01 X-7.84952 Y8.29020
G01 X-7.80159 Y8.35014
G01 X-7.75485 Y8.41099
G01 X-7.70931 Y8.47273
G01 X-7.66499 Y8.53531
G01 X-7.62193 Y8.59871
G01 X-7.58014 Y8.66290
G01 X-7.53963 Y8.72784
G01 X-7.50042 Y8.79351
G01 X-7.46255 Y8.85987
G01 X-7.42601 Y8.92690
G01 X-7.39083 Y8.99456
G01 X-7.35703 Y9.06283
G01 X-7.32462 Y9.13168
M50
G01 X-7.29362 Y9.20108
M06
G01 X-7.65647 Y9.35462
G260
M08
G40
M51
G00 X-7.53206 Y9.68630
G41
N13 M07
G261
G01 X-7.15564 Y9.56993
G01 X-7.13786 Y9.62742
G01 X-7.11706 Y9.69989
G01 X-7.09776 Y9.77268
G01 X-7.07998 Y9.84578
G01 X-7.06371 Y9.91915
G01 X-7.04897 Y9.99278
G01 X-7.03576 Y10.06663
G01 X-7.02409 Y10.14069
G01 X-7.01396 Y10.21491
G01 X-7.00539 Y10.28929
G01 X-6.99837 Y10.36380
G01 X-6.99290 Y10.43841
G01 X-6.98900 Y10.51308
G01 X-6.98666 Y10.58781
G01 X-6.98588 Y10.66257
G01 X-6.98666 Y10.73732
G01 X-6.98900 Y10.81205
G01 X-6.99290 Y10.88673
G01 X-6.99837 Y10.96134
G01 X-7.00539 Y11.03584
G01 X-7.01396 Y11.11022
G01 X-7.02409 Y11.18445
G01 X-7.03576 Y11.25851
G01 X-7.04897 Y11.33236
G01 X-7.06371 Y11.40599
G01 X-7.07998 Y11.47936
G01 X-7.09776 Y11.55246
G01 X-7.11706 Y11.62525
G01 X-7.13786 Y11.69771
G01 X-7.16015 Y11.76982
G01 X-7.18393 Y11.84154
G01 X-7.20917 Y11.91286
G01 X-7.23588 Y11.98373
G01 X-7.26403 Y12.05414
G01 X-7.29362 Y12.12406
G01 X-7.32462 Y12.19346
G01 X-7.35703 Y12.26231
M50
G01 X-7.39083 Y12.33058
M06
G01 X-7.74041 Y12.14884
G260
M08
G40
M51
G00 X-7.91686 Y12.45731
G41
N14 M07
G261
G01 X-7.58669 Y12.67230
G01 X-7.62193 Y12.72643
G01 X-7.66499 Y12.78983
G01 X-7.70931 Y12.85241
G01 X-7.75485 Y12.91414
G01 X-7.80159 Y12.97500
G01 X-7.84952 Y13.03493
G01 X-7.89862 Y13.09393
G01 X-7.94885 Y13.15194
G01 X-8.00020 Y13.20895
G01 X-8.05265 Y13.26491
G01 X-8.10616 Y13.31980
G01 X-8.16072 Y13.37358
G01 X-8.21629 Y13.42621
G01 X-8.27286 Y13.47767
G01 X-8.33039 Y13.52792
G01 X-8.38887 Y13.57692
G01 X-8.44826 Y13.62465
G01 X-8.50853 Y13.67107
G01 X-8.56966 Y13.71615
G01 X-8.63162 Y13.75986
G01 X-8.69438 Y13.80215
G01 X-8.75792 Y13.84301
G01 X-8.82219 Y13.88240
G01 X-8.88718 Y13.92028
G01 X-8.95285 Y13.95664
G01 X-9.01917 Y13.99143
G01 X-9.08611 Y14.02463
G01 X-9.15364 Y14.05621
G01 X-9.22174 Y14.08615
G01 X-9.29035 Y14.11441
G01 X-9.35947 Y14.14098
G01 X-9.42905 Y14.16582
G01 X-9.49906 Y14.18892
G01 X-9.56947 Y14.21026
G01 X-9.64024 Y14.22981
G01 X-9.71135 Y14.24755
G01 X-9.78276 Y14.26348
G01 X-9.85444 Y14.27757
G01 X-9.92635 Y14.28980
G01 X-9.99846 Y14.30018
G01 X-10.07074 Y14.30868
G01 X-10.14316 Y14.31531
G01 X-10.21568 Y14.32004
G01 X-10.28826 Y14.32289
G01 X-10.36088 Y14.32383
M50
G01 X-10.38176 Y14.32356
M06
G01 X-10.37662 Y13.92959
G260
M08
G40
M51
G00 X-20.76088 Y20.97507
T21
G41
N15 M07
G261
G01 X-20.36088 Y20.97507
G01 X-0.36088 Y20.97507
G01 X-0.36088 Y0.35007
G01 X-20.36088 Y0.35007
G01 X-20.36088 Y20.60007
M50
G01 X-20.36088 Y20.97507
G01 X-20.36088 Y21.15507
G260
M08
G40
M51
G00 X-0.35000 Y21.50987
G41
N16 M07
G261
G01 X-0.75000 Y21.50987
G01 X-20.75000 Y21.50987
G01 X-20.75000 Y42.13487
G01 X-0.75000 Y42.13487
G01 X-0.75000 Y21.88487
M50
G01 X-0.75000 Y21.50987
G01 X-0.75000 Y21.32987
G260
M08
G40
M51
G00 X-0.36641 Y42.13487
(PartName=Remnant)
T21
G40
M07
G00 X-0.02000 Y42.33487
G01 X-0.42000 Y42.33487
G01 X-20.96088 Y42.33487
G01 X-20.96088 Y0.40000
M50
G01 X-20.96088 Y0.00000
M08
M51
(PlanFooterCommand)
T0
#CS OFF
M30
