(PP_NAME=PP_Din)
(PP_VERSION=	4.0)
(PP_INI_NAME=GC_US_PLASMA_4.7.ini)
(PP_INI_VERSION=2014-02-26)
(%%INFO MACHINE=HPRXD SS 130A MIX)
(%%INFO Material=A240 304L Thickness=0.25 PlateLength=48 PlateWidth=96)
(%%INFO PartName=770769-6=1pcs=13.9lbs)
(%%INFO PartName=762268-6=2pcs=7.09lbs)
(%%INFO PartName=762231-6=1pcs=7.09lbs)
(%%INFO PartName=762230-6=2pcs=7.09lbs)
(%%INFO TotalCutLength=342.96)
(%%INFO TotalPierceCount=7)
(%%INFO TotalProductionTime=00:08:13)
G70
#CONTOUR MODE[DEV PATH_DEV=0.008 RELEVANT_PATH=0.004]
G90
(PlanHeaderCommand)
G162
G141
G237
#CS ON [V.E.START_X, V.E.START_Y, 0, 0, 0, V.E.ROTATION]
M190
G00 X-14.24333 Y13.51500
T23
(PartName=770769-6)
N1 M09
G261
G01 X-13.95133 Y13.51500
G01 X-13.95133 Y13.67500
G01 X-13.59133 Y14.47500
G01 X-14.09613 Y14.47500
G01 X-14.09533 Y14.38300
G01 X-14.09613 Y14.47500
G01 X-13.59133 Y14.47500
G01 X-13.95133 Y13.67500
G01 X-13.95133 Y13.51500
G01 X-13.44333 Y13.51500
G01 X-13.15133 Y13.51500
G01 X-13.15133 Y13.67500
G01 X-12.79133 Y14.47500
G01 X-13.29613 Y14.47500
G01 X-13.29533 Y14.38300
G01 X-13.29613 Y14.47500
G01 X-12.79133 Y14.47500
G01 X-13.15133 Y13.67500
G01 X-13.15133 Y13.51500
G01 X-12.64333 Y13.51500
G01 X-12.28173 Y13.51500
G01 X-12.28173 Y13.67500
G01 X-12.38573 Y13.71100
G01 X-12.46093 Y13.82700
G01 X-12.49613 Y14.01660
G01 X-12.49613 Y14.13260
G01 X-12.46093 Y14.32220
G01 X-12.38573 Y14.43820
G01 X-12.28173 Y14.47500
G01 X-12.20573 Y14.47500
G01 X-12.09613 Y14.43820
G01 X-12.02653 Y14.32220
G01 X-11.99133 Y14.13260
G01 X-11.99133 Y14.01660
G01 X-12.02653 Y13.82700
G01 X-12.09613 Y13.71100
G01 X-12.20573 Y13.67500
G01 X-12.28173 Y13.67500
G01 X-12.28173 Y13.51500
G01 X-11.84333 Y13.51500
G01 X-11.55133 Y13.51500
G01 X-11.55133 Y13.67500
G01 X-11.19133 Y14.47500
G01 X-11.69613 Y14.47500
G01 X-11.69533 Y14.38300
G01 X-11.69613 Y14.47500
G01 X-11.19133 Y14.47500
G01 X-11.55133 Y13.67500
G01 X-11.55133 Y13.51500
G01 X-11.04333 Y13.51500
G01 X-10.66413 Y13.51500
G01 X-10.66413 Y13.67500
G01 X-10.62893 Y13.67500
G01 X-10.51933 Y13.71100
G01 X-10.44333 Y13.78460
G01 X-10.40893 Y13.90060
G01 X-10.40893 Y13.93740
G01 X-10.44333 Y14.05340
G01 X-10.51933 Y14.13260
G01 X-10.62893 Y14.16940
G01 X-10.66413 Y14.16940
G01 X-10.77453 Y14.13260
G01 X-10.84333 Y14.05340
G01 X-10.87853 Y13.93740
G01 X-10.87853 Y14.13260
G01 X-10.84333 Y14.32220
G01 X-10.77453 Y14.43820
G01 X-10.66413 Y14.47500
G01 X-10.58893 Y14.47500
G01 X-10.48413 Y14.43820
G01 X-10.44333 Y14.35820
G01 X-10.48413 Y14.43820
G01 X-10.58893 Y14.47500
G01 X-10.66413 Y14.47500
G01 X-10.77453 Y14.43820
G01 X-10.84333 Y14.32220
G01 X-10.87853 Y14.13260
G01 X-10.87853 Y13.93740
G01 X-10.84333 Y13.78460
G01 X-10.77453 Y13.71100
G01 X-10.66413 Y13.67500
G01 X-10.66413 Y13.51500
G01 X-10.24333 Y13.51500
G01 X-9.89853 Y13.51500
G01 X-9.89853 Y13.67500
G01 X-10.00893 Y13.71100
G01 X-10.04333 Y13.78460
G01 X-10.00893 Y13.71100
G01 X-9.89853 Y13.67500
G01 X-9.82893 Y13.67500
G01 X-9.71933 Y13.71100
G01 X-9.64333 Y13.82700
G01 X-9.60893 Y14.01660
G01 X-9.60893 Y14.20620
G01 X-9.64333 Y14.35820
G01 X-9.71933 Y14.43820
G01 X-9.82893 Y14.47500
G01 X-9.86413 Y14.47500
G01 X-9.97453 Y14.43820
G01 X-10.04333 Y14.35820
G01 X-10.07853 Y14.24220
G01 X-10.07853 Y14.20620
G01 X-10.04333 Y14.09020
G01 X-9.97453 Y14.01660
G01 X-9.86413 Y13.97980
G01 X-9.82893 Y13.97980
G01 X-9.71933 Y14.01660
G01 X-9.64333 Y14.09020
G01 X-9.60893 Y14.20620
G01 X-9.60893 Y14.01660
G01 X-9.64333 Y13.82700
G01 X-9.71933 Y13.71100
G01 X-9.82893 Y13.67500
G01 X-9.89853 Y13.67500
G01 X-9.89853 Y13.51500
G01 X-9.44333 Y13.51500
G01 X-9.36813 Y13.51500
G01 X-9.36813 Y14.01660
G01 X-8.71933 Y14.01660
G01 X-9.36813 Y14.01660
G01 X-9.36813 Y13.51500
G01 X-8.64333 Y13.51500
G01 X-8.26413 Y13.51500
G01 X-8.26413 Y13.67500
G01 X-8.22893 Y13.67500
G01 X-8.11933 Y13.71100
G01 X-8.04333 Y13.78460
G01 X-8.00893 Y13.90060
G01 X-8.00893 Y13.93740
G01 X-8.04333 Y14.05340
G01 X-8.11933 Y14.13260
G01 X-8.22893 Y14.16940
G01 X-8.26413 Y14.16940
G01 X-8.37453 Y14.13260
G01 X-8.44333 Y14.05340
G01 X-8.47853 Y13.93740
G01 X-8.47853 Y14.13260
G01 X-8.44333 Y14.32220
G01 X-8.37453 Y14.43820
G01 X-8.26413 Y14.47500
G01 X-8.18893 Y14.47500
G01 X-8.08413 Y14.43820
G01 X-8.04333 Y14.35820
G01 X-8.08413 Y14.43820
G01 X-8.18893 Y14.47500
G01 X-8.26413 Y14.47500
G01 X-8.37453 Y14.43820
G01 X-8.44333 Y14.32220
G01 X-8.47853 Y14.13260
G01 X-8.47853 Y13.93740
G01 X-8.44333 Y13.78460
G01 X-8.37453 Y13.71100
G01 X-8.26413 Y13.67500
G01 X-8.26413 Y13.51500
G01 X-7.84333 Y13.51500
G260
M10
G00 X-10.22677 Y24.13338
(PartName=762230-6)
N2 M09
G261
G01 X-9.93477 Y24.13338
G01 X-9.93477 Y24.29338
G01 X-9.57477 Y25.09338
G01 X-10.07957 Y25.09338
G01 X-10.07877 Y25.00138
G01 X-10.07957 Y25.09338
G01 X-9.57477 Y25.09338
G01 X-9.93477 Y24.29338
G01 X-9.93477 Y24.13338
G01 X-9.42677 Y24.13338
G01 X-9.04757 Y24.13338
G01 X-9.04757 Y24.29338
G01 X-9.01237 Y24.29338
G01 X-8.90277 Y24.32938
G01 X-8.82677 Y24.40298
G01 X-8.79237 Y24.51898
G01 X-8.79237 Y24.55578
G01 X-8.82677 Y24.67178
G01 X-8.90277 Y24.75098
G01 X-9.01237 Y24.78778
G01 X-9.04757 Y24.78778
G01 X-9.15797 Y24.75098
G01 X-9.22677 Y24.67178
G01 X-9.26197 Y24.55578
G01 X-9.26197 Y24.75098
G01 X-9.22677 Y24.94058
G01 X-9.15797 Y25.05658
G01 X-9.04757 Y25.09338
G01 X-8.97237 Y25.09338
G01 X-8.86757 Y25.05658
G01 X-8.82677 Y24.97658
G01 X-8.86757 Y25.05658
G01 X-8.97237 Y25.09338
G01 X-9.04757 Y25.09338
G01 X-9.15797 Y25.05658
G01 X-9.22677 Y24.94058
G01 X-9.26197 Y24.75098
G01 X-9.26197 Y24.55578
G01 X-9.22677 Y24.40298
G01 X-9.15797 Y24.32938
G01 X-9.04757 Y24.29338
G01 X-9.04757 Y24.13338
G01 X-8.62677 Y24.13338
G01 X-8.47957 Y24.13338
G01 X-8.47957 Y24.29338
G01 X-7.97477 Y24.29338
G01 X-8.47957 Y24.29338
G01 X-8.11957 Y24.67178
G01 X-8.04437 Y24.78778
G01 X-8.00997 Y24.86058
G01 X-8.00997 Y24.94058
G01 X-8.04437 Y25.01338
G01 X-8.08517 Y25.05658
G01 X-8.15477 Y25.09338
G01 X-8.29957 Y25.09338
G01 X-8.37477 Y25.05658
G01 X-8.40997 Y25.01338
G01 X-8.44437 Y24.94058
G01 X-8.44437 Y24.90378
G01 X-8.44437 Y24.94058
G01 X-8.40997 Y25.01338
G01 X-8.37477 Y25.05658
G01 X-8.29957 Y25.09338
G01 X-8.15477 Y25.09338
G01 X-8.08517 Y25.05658
G01 X-8.04437 Y25.01338
G01 X-8.00997 Y24.94058
G01 X-8.00997 Y24.86058
G01 X-8.04437 Y24.78778
G01 X-8.11957 Y24.67178
G01 X-8.47957 Y24.29338
G01 X-8.47957 Y24.13338
G01 X-7.82677 Y24.13338
G01 X-7.67957 Y24.13338
G01 X-7.67957 Y24.29338
G01 X-7.17477 Y24.29338
G01 X-7.67957 Y24.29338
G01 X-7.31957 Y24.67178
G01 X-7.24437 Y24.78778
G01 X-7.20997 Y24.86058
G01 X-7.20997 Y24.94058
G01 X-7.24437 Y25.01338
G01 X-7.28517 Y25.05658
G01 X-7.35477 Y25.09338
G01 X-7.49957 Y25.09338
G01 X-7.57477 Y25.05658
G01 X-7.60997 Y25.01338
G01 X-7.64437 Y24.94058
G01 X-7.64437 Y24.90378
G01 X-7.64437 Y24.94058
G01 X-7.60997 Y25.01338
G01 X-7.57477 Y25.05658
G01 X-7.49957 Y25.09338
G01 X-7.35477 Y25.09338
G01 X-7.28517 Y25.05658
G01 X-7.24437 Y25.01338
G01 X-7.20997 Y24.94058
G01 X-7.20997 Y24.86058
G01 X-7.24437 Y24.78778
G01 X-7.31957 Y24.67178
G01 X-7.67957 Y24.29338
G01 X-7.67957 Y24.13338
G01 X-7.02677 Y24.13338
G01 X-6.69957 Y24.13338
G01 X-6.69957 Y24.29338
G01 X-6.80997 Y24.32938
G01 X-6.84437 Y24.36618
G01 X-6.87957 Y24.44538
G01 X-6.84437 Y24.36618
G01 X-6.80997 Y24.32938
G01 X-6.69957 Y24.29338
G01 X-6.58917 Y24.29338
G01 X-6.48517 Y24.32938
G01 X-6.40997 Y24.40298
G01 X-6.37477 Y24.51898
G01 X-6.37477 Y24.59818
G01 X-6.40997 Y24.70858
G01 X-6.44437 Y24.75098
G01 X-6.51957 Y24.78778
G01 X-6.62997 Y24.78778
G01 X-6.40997 Y25.09338
G01 X-6.80997 Y25.09338
G01 X-6.40997 Y25.09338
G01 X-6.62997 Y24.78778
G01 X-6.51957 Y24.78778
G01 X-6.44437 Y24.75098
G01 X-6.40997 Y24.70858
G01 X-6.37477 Y24.59818
G01 X-6.37477 Y24.51898
G01 X-6.40997 Y24.40298
G01 X-6.48517 Y24.32938
G01 X-6.58917 Y24.29338
G01 X-6.69957 Y24.29338
G01 X-6.69957 Y24.13338
G01 X-6.22677 Y24.13338
G01 X-5.86517 Y24.13338
G01 X-5.86517 Y24.29338
G01 X-5.96917 Y24.32938
G01 X-6.04437 Y24.44538
G01 X-6.07957 Y24.63498
G01 X-6.07957 Y24.75098
G01 X-6.04437 Y24.94058
G01 X-5.96917 Y25.05658
G01 X-5.86517 Y25.09338
G01 X-5.78917 Y25.09338
G01 X-5.67957 Y25.05658
G01 X-5.60997 Y24.94058
G01 X-5.57477 Y24.75098
G01 X-5.57477 Y24.63498
G01 X-5.60997 Y24.44538
G01 X-5.67957 Y24.32938
G01 X-5.78917 Y24.29338
G01 X-5.86517 Y24.29338
G01 X-5.86517 Y24.13338
G01 X-5.42677 Y24.13338
G01 X-5.35157 Y24.13338
G01 X-5.35157 Y24.63498
G01 X-4.70277 Y24.63498
G01 X-5.35157 Y24.63498
G01 X-5.35157 Y24.13338
G01 X-4.62677 Y24.13338
G01 X-4.24757 Y24.13338
G01 X-4.24757 Y24.29338
G01 X-4.21237 Y24.29338
G01 X-4.10277 Y24.32938
G01 X-4.02677 Y24.40298
G01 X-3.99237 Y24.51898
G01 X-3.99237 Y24.55578
G01 X-4.02677 Y24.67178
G01 X-4.10277 Y24.75098
G01 X-4.21237 Y24.78778
G01 X-4.24757 Y24.78778
G01 X-4.35797 Y24.75098
G01 X-4.42677 Y24.67178
G01 X-4.46197 Y24.55578
G01 X-4.46197 Y24.75098
G01 X-4.42677 Y24.94058
G01 X-4.35797 Y25.05658
G01 X-4.24757 Y25.09338
G01 X-4.17237 Y25.09338
G01 X-4.06757 Y25.05658
G01 X-4.02677 Y24.97658
G01 X-4.06757 Y25.05658
G01 X-4.17237 Y25.09338
G01 X-4.24757 Y25.09338
G01 X-4.35797 Y25.05658
G01 X-4.42677 Y24.94058
G01 X-4.46197 Y24.75098
G01 X-4.46197 Y24.55578
G01 X-4.42677 Y24.40298
G01 X-4.35797 Y24.32938
G01 X-4.24757 Y24.29338
G01 X-4.24757 Y24.13338
G01 X-3.82677 Y24.13338
G260
M10
G00 X-0.65500 Y26.65705
(PartName=762230-6)
N3 M09
G261
G01 X-0.94700 Y26.65705
G01 X-0.94700 Y26.49705
G01 X-1.30700 Y25.69705
G01 X-0.80220 Y25.69705
G01 X-0.80300 Y25.78905
G01 X-0.80220 Y25.69705
G01 X-1.30700 Y25.69705
G01 X-0.94700 Y26.49705
G01 X-0.94700 Y26.65705
G01 X-1.45500 Y26.65705
G01 X-1.83420 Y26.65705
G01 X-1.83420 Y26.49705
G01 X-1.86940 Y26.49705
G01 X-1.97900 Y26.46105
G01 X-2.05500 Y26.38745
G01 X-2.08940 Y26.27145
G01 X-2.08940 Y26.23465
G01 X-2.05500 Y26.11865
G01 X-1.97900 Y26.03945
G01 X-1.86940 Y26.00265
G01 X-1.83420 Y26.00265
G01 X-1.72380 Y26.03945
G01 X-1.65500 Y26.11865
G01 X-1.61980 Y26.23465
G01 X-1.61980 Y26.03945
G01 X-1.65500 Y25.84985
G01 X-1.72380 Y25.73385
G01 X-1.83420 Y25.69705
G01 X-1.90940 Y25.69705
G01 X-2.01420 Y25.73385
G01 X-2.05500 Y25.81385
G01 X-2.01420 Y25.73385
G01 X-1.90940 Y25.69705
G01 X-1.83420 Y25.69705
G01 X-1.72380 Y25.73385
G01 X-1.65500 Y25.84985
G01 X-1.61980 Y26.03945
G01 X-1.61980 Y26.23465
G01 X-1.65500 Y26.38745
G01 X-1.72380 Y26.46105
G01 X-1.83420 Y26.49705
G01 X-1.83420 Y26.65705
G01 X-2.25500 Y26.65705
G01 X-2.40220 Y26.65705
G01 X-2.40220 Y26.49705
G01 X-2.90700 Y26.49705
G01 X-2.40220 Y26.49705
G01 X-2.76220 Y26.11865
G01 X-2.83740 Y26.00265
G01 X-2.87180 Y25.92985
G01 X-2.87180 Y25.84985
G01 X-2.83740 Y25.77705
G01 X-2.79660 Y25.73385
G01 X-2.72700 Y25.69705
G01 X-2.58220 Y25.69705
G01 X-2.50700 Y25.73385
G01 X-2.47180 Y25.77705
G01 X-2.43740 Y25.84985
G01 X-2.43740 Y25.88665
G01 X-2.43740 Y25.84985
G01 X-2.47180 Y25.77705
G01 X-2.50700 Y25.73385
G01 X-2.58220 Y25.69705
G01 X-2.72700 Y25.69705
G01 X-2.79660 Y25.73385
G01 X-2.83740 Y25.77705
G01 X-2.87180 Y25.84985
G01 X-2.87180 Y25.92985
G01 X-2.83740 Y26.00265
G01 X-2.76220 Y26.11865
G01 X-2.40220 Y26.49705
G01 X-2.40220 Y26.65705
G01 X-3.05500 Y26.65705
G01 X-3.20220 Y26.65705
G01 X-3.20220 Y26.49705
G01 X-3.70700 Y26.49705
G01 X-3.20220 Y26.49705
G01 X-3.56220 Y26.11865
G01 X-3.63740 Y26.00265
G01 X-3.67180 Y25.92985
G01 X-3.67180 Y25.84985
G01 X-3.63740 Y25.77705
G01 X-3.59660 Y25.73385
G01 X-3.52700 Y25.69705
G01 X-3.38220 Y25.69705
G01 X-3.30700 Y25.73385
G01 X-3.27180 Y25.77705
G01 X-3.23740 Y25.84985
G01 X-3.23740 Y25.88665
G01 X-3.23740 Y25.84985
G01 X-3.27180 Y25.77705
G01 X-3.30700 Y25.73385
G01 X-3.38220 Y25.69705
G01 X-3.52700 Y25.69705
G01 X-3.59660 Y25.73385
G01 X-3.63740 Y25.77705
G01 X-3.67180 Y25.84985
G01 X-3.67180 Y25.92985
G01 X-3.63740 Y26.00265
G01 X-3.56220 Y26.11865
G01 X-3.20220 Y26.49705
G01 X-3.20220 Y26.65705
G01 X-3.85500 Y26.65705
G01 X-4.18220 Y26.65705
G01 X-4.18220 Y26.49705
G01 X-4.07180 Y26.46105
G01 X-4.03740 Y26.42425
G01 X-4.00220 Y26.34505
G01 X-4.03740 Y26.42425
G01 X-4.07180 Y26.46105
G01 X-4.18220 Y26.49705
G01 X-4.29260 Y26.49705
G01 X-4.39660 Y26.46105
G01 X-4.47180 Y26.38745
G01 X-4.50700 Y26.27145
G01 X-4.50700 Y26.19225
G01 X-4.47180 Y26.08185
G01 X-4.43740 Y26.03945
G01 X-4.36220 Y26.00265
G01 X-4.25180 Y26.00265
G01 X-4.47180 Y25.69705
G01 X-4.07180 Y25.69705
G01 X-4.47180 Y25.69705
G01 X-4.25180 Y26.00265
G01 X-4.36220 Y26.00265
G01 X-4.43740 Y26.03945
G01 X-4.47180 Y26.08185
G01 X-4.50700 Y26.19225
G01 X-4.50700 Y26.27145
G01 X-4.47180 Y26.38745
G01 X-4.39660 Y26.46105
G01 X-4.29260 Y26.49705
G01 X-4.18220 Y26.49705
G01 X-4.18220 Y26.65705
G01 X-4.65500 Y26.65705
G01 X-5.01660 Y26.65705
G01 X-5.01660 Y26.49705
G01 X-4.91260 Y26.46105
G01 X-4.83740 Y26.34505
G01 X-4.80220 Y26.15545
G01 X-4.80220 Y26.03945
G01 X-4.83740 Y25.84985
G01 X-4.91260 Y25.73385
G01 X-5.01660 Y25.69705
G01 X-5.09260 Y25.69705
G01 X-5.20220 Y25.73385
G01 X-5.27180 Y25.84985
G01 X-5.30700 Y26.03945
G01 X-5.30700 Y26.15545
G01 X-5.27180 Y26.34505
G01 X-5.20220 Y26.46105
G01 X-5.09260 Y26.49705
G01 X-5.01660 Y26.49705
G01 X-5.01660 Y26.65705
G01 X-5.45500 Y26.65705
G01 X-5.53020 Y26.65705
G01 X-5.53020 Y26.15545
G01 X-6.17900 Y26.15545
G01 X-5.53020 Y26.15545
G01 X-5.53020 Y26.65705
G01 X-6.25500 Y26.65705
G01 X-6.63420 Y26.65705
G01 X-6.63420 Y26.49705
G01 X-6.66940 Y26.49705
G01 X-6.77900 Y26.46105
G01 X-6.85500 Y26.38745
G01 X-6.88940 Y26.27145
G01 X-6.88940 Y26.23465
G01 X-6.85500 Y26.11865
G01 X-6.77900 Y26.03945
G01 X-6.66940 Y26.00265
G01 X-6.63420 Y26.00265
G01 X-6.52380 Y26.03945
G01 X-6.45500 Y26.11865
G01 X-6.41980 Y26.23465
G01 X-6.41980 Y26.03945
G01 X-6.45500 Y25.84985
G01 X-6.52380 Y25.73385
G01 X-6.63420 Y25.69705
G01 X-6.70940 Y25.69705
G01 X-6.81420 Y25.73385
G01 X-6.85500 Y25.81385
G01 X-6.81420 Y25.73385
G01 X-6.70940 Y25.69705
G01 X-6.63420 Y25.69705
G01 X-6.52380 Y25.73385
G01 X-6.45500 Y25.84985
G01 X-6.41980 Y26.03945
G01 X-6.41980 Y26.23465
G01 X-6.45500 Y26.38745
G01 X-6.52380 Y26.46105
G01 X-6.63420 Y26.49705
G01 X-6.63420 Y26.65705
G01 X-7.05500 Y26.65705
G260
M10
G00 X-10.22677 Y45.10353
(PartName=762268-6)
N4 M09
G261
G01 X-9.93477 Y45.10353
G01 X-9.93477 Y45.26353
G01 X-9.57477 Y46.06353
G01 X-10.07957 Y46.06353
G01 X-10.07877 Y45.97153
G01 X-10.07957 Y46.06353
G01 X-9.57477 Y46.06353
G01 X-9.93477 Y45.26353
G01 X-9.93477 Y45.10353
G01 X-9.42677 Y45.10353
G01 X-9.04757 Y45.10353
G01 X-9.04757 Y45.26353
G01 X-9.01237 Y45.26353
G01 X-8.90277 Y45.29953
G01 X-8.82677 Y45.37313
G01 X-8.79237 Y45.48913
G01 X-8.79237 Y45.52593
G01 X-8.82677 Y45.64193
G01 X-8.90277 Y45.72113
G01 X-9.01237 Y45.75793
G01 X-9.04757 Y45.75793
G01 X-9.15797 Y45.72113
G01 X-9.22677 Y45.64193
G01 X-9.26197 Y45.52593
G01 X-9.26197 Y45.72113
G01 X-9.22677 Y45.91073
G01 X-9.15797 Y46.02673
G01 X-9.04757 Y46.06353
G01 X-8.97237 Y46.06353
G01 X-8.86757 Y46.02673
G01 X-8.82677 Y45.94673
G01 X-8.86757 Y46.02673
G01 X-8.97237 Y46.06353
G01 X-9.04757 Y46.06353
G01 X-9.15797 Y46.02673
G01 X-9.22677 Y45.91073
G01 X-9.26197 Y45.72113
G01 X-9.26197 Y45.52593
G01 X-9.22677 Y45.37313
G01 X-9.15797 Y45.29953
G01 X-9.04757 Y45.26353
G01 X-9.04757 Y45.10353
G01 X-8.62677 Y45.10353
G01 X-8.47957 Y45.10353
G01 X-8.47957 Y45.26353
G01 X-7.97477 Y45.26353
G01 X-8.47957 Y45.26353
G01 X-8.11957 Y45.64193
G01 X-8.04437 Y45.75793
G01 X-8.00997 Y45.83073
G01 X-8.00997 Y45.91073
G01 X-8.04437 Y45.98353
G01 X-8.08517 Y46.02673
G01 X-8.15477 Y46.06353
G01 X-8.29957 Y46.06353
G01 X-8.37477 Y46.02673
G01 X-8.40997 Y45.98353
G01 X-8.44437 Y45.91073
G01 X-8.44437 Y45.87393
G01 X-8.44437 Y45.91073
G01 X-8.40997 Y45.98353
G01 X-8.37477 Y46.02673
G01 X-8.29957 Y46.06353
G01 X-8.15477 Y46.06353
G01 X-8.08517 Y46.02673
G01 X-8.04437 Y45.98353
G01 X-8.00997 Y45.91073
G01 X-8.00997 Y45.83073
G01 X-8.04437 Y45.75793
G01 X-8.11957 Y45.64193
G01 X-8.47957 Y45.26353
G01 X-8.47957 Y45.10353
G01 X-7.82677 Y45.10353
G01 X-7.67957 Y45.10353
G01 X-7.67957 Y45.26353
G01 X-7.17477 Y45.26353
G01 X-7.67957 Y45.26353
G01 X-7.31957 Y45.64193
G01 X-7.24437 Y45.75793
G01 X-7.20997 Y45.83073
G01 X-7.20997 Y45.91073
G01 X-7.24437 Y45.98353
G01 X-7.28517 Y46.02673
G01 X-7.35477 Y46.06353
G01 X-7.49957 Y46.06353
G01 X-7.57477 Y46.02673
G01 X-7.60997 Y45.98353
G01 X-7.64437 Y45.91073
G01 X-7.64437 Y45.87393
G01 X-7.64437 Y45.91073
G01 X-7.60997 Y45.98353
G01 X-7.57477 Y46.02673
G01 X-7.49957 Y46.06353
G01 X-7.35477 Y46.06353
G01 X-7.28517 Y46.02673
G01 X-7.24437 Y45.98353
G01 X-7.20997 Y45.91073
G01 X-7.20997 Y45.83073
G01 X-7.24437 Y45.75793
G01 X-7.31957 Y45.64193
G01 X-7.67957 Y45.26353
G01 X-7.67957 Y45.10353
G01 X-7.02677 Y45.10353
G01 X-6.64757 Y45.10353
G01 X-6.64757 Y45.26353
G01 X-6.61237 Y45.26353
G01 X-6.50277 Y45.29953
G01 X-6.42677 Y45.37313
G01 X-6.39237 Y45.48913
G01 X-6.39237 Y45.52593
G01 X-6.42677 Y45.64193
G01 X-6.50277 Y45.72113
G01 X-6.61237 Y45.75793
G01 X-6.64757 Y45.75793
G01 X-6.75797 Y45.72113
G01 X-6.82677 Y45.64193
G01 X-6.86197 Y45.52593
G01 X-6.86197 Y45.72113
G01 X-6.82677 Y45.91073
G01 X-6.75797 Y46.02673
G01 X-6.64757 Y46.06353
G01 X-6.57237 Y46.06353
G01 X-6.46757 Y46.02673
G01 X-6.42677 Y45.94673
G01 X-6.46757 Y46.02673
G01 X-6.57237 Y46.06353
G01 X-6.64757 Y46.06353
G01 X-6.75797 Y46.02673
G01 X-6.82677 Y45.91073
G01 X-6.86197 Y45.72113
G01 X-6.86197 Y45.52593
G01 X-6.82677 Y45.37313
G01 X-6.75797 Y45.29953
G01 X-6.64757 Y45.26353
G01 X-6.64757 Y45.10353
G01 X-6.22677 Y45.10353
G01 X-5.89957 Y45.10353
G01 X-5.89957 Y45.26353
G01 X-5.75477 Y45.26353
G01 X-5.64437 Y45.29953
G01 X-5.60997 Y45.33633
G01 X-5.57477 Y45.41553
G01 X-5.57477 Y45.52593
G01 X-5.60997 Y45.60513
G01 X-5.68517 Y45.67873
G01 X-5.78917 Y45.72113
G01 X-5.93477 Y45.75793
G01 X-6.00997 Y45.79473
G01 X-6.04437 Y45.87393
G01 X-6.04437 Y45.94673
G01 X-6.00997 Y46.02673
G01 X-5.89957 Y46.06353
G01 X-5.75477 Y46.06353
G01 X-5.64437 Y46.02673
G01 X-5.60997 Y45.94673
G01 X-5.60997 Y45.87393
G01 X-5.64437 Y45.79473
G01 X-5.71957 Y45.75793
G01 X-5.86517 Y45.72113
G01 X-5.97477 Y45.67873
G01 X-6.04437 Y45.60513
G01 X-6.07957 Y45.52593
G01 X-6.07957 Y45.41553
G01 X-6.04437 Y45.33633
G01 X-6.00997 Y45.29953
G01 X-5.89957 Y45.26353
G01 X-5.89957 Y45.10353
G01 X-5.42677 Y45.10353
G01 X-5.35157 Y45.10353
G01 X-5.35157 Y45.60513
G01 X-4.70277 Y45.60513
G01 X-5.35157 Y45.60513
G01 X-5.35157 Y45.10353
G01 X-4.62677 Y45.10353
G01 X-4.24757 Y45.10353
G01 X-4.24757 Y45.26353
G01 X-4.21237 Y45.26353
G01 X-4.10277 Y45.29953
G01 X-4.02677 Y45.37313
G01 X-3.99237 Y45.48913
G01 X-3.99237 Y45.52593
G01 X-4.02677 Y45.64193
G01 X-4.10277 Y45.72113
G01 X-4.21237 Y45.75793
G01 X-4.24757 Y45.75793
G01 X-4.35797 Y45.72113
G01 X-4.42677 Y45.64193
G01 X-4.46197 Y45.52593
G01 X-4.46197 Y45.72113
G01 X-4.42677 Y45.91073
G01 X-4.35797 Y46.02673
G01 X-4.24757 Y46.06353
G01 X-4.17237 Y46.06353
G01 X-4.06757 Y46.02673
G01 X-4.02677 Y45.94673
G01 X-4.06757 Y46.02673
G01 X-4.17237 Y46.06353
G01 X-4.24757 Y46.06353
G01 X-4.35797 Y46.02673
G01 X-4.42677 Y45.91073
G01 X-4.46197 Y45.72113
G01 X-4.46197 Y45.52593
G01 X-4.42677 Y45.37313
G01 X-4.35797 Y45.29953
G01 X-4.24757 Y45.26353
G01 X-4.24757 Y45.10353
G01 X-3.82677 Y45.10353
G260
M10
G00 X-0.65500 Y47.62719
(PartName=762268-6)
N5 M09
G261
G01 X-0.94700 Y47.62719
G01 X-0.94700 Y47.46719
G01 X-1.30700 Y46.66719
G01 X-0.80220 Y46.66719
G01 X-0.80300 Y46.75919
G01 X-0.80220 Y46.66719
G01 X-1.30700 Y46.66719
G01 X-0.94700 Y47.46719
G01 X-0.94700 Y47.62719
G01 X-1.45500 Y47.62719
G01 X-1.83420 Y47.62719
G01 X-1.83420 Y47.46719
G01 X-1.86940 Y47.46719
G01 X-1.97900 Y47.43119
G01 X-2.05500 Y47.35759
G01 X-2.08940 Y47.24159
G01 X-2.08940 Y47.20479
G01 X-2.05500 Y47.08879
G01 X-1.97900 Y47.00959
G01 X-1.86940 Y46.97279
G01 X-1.83420 Y46.97279
G01 X-1.72380 Y47.00959
G01 X-1.65500 Y47.08879
G01 X-1.61980 Y47.20479
G01 X-1.61980 Y47.00959
G01 X-1.65500 Y46.81999
G01 X-1.72380 Y46.70399
G01 X-1.83420 Y46.66719
G01 X-1.90940 Y46.66719
G01 X-2.01420 Y46.70399
G01 X-2.05500 Y46.78399
G01 X-2.01420 Y46.70399
G01 X-1.90940 Y46.66719
G01 X-1.83420 Y46.66719
G01 X-1.72380 Y46.70399
G01 X-1.65500 Y46.81999
G01 X-1.61980 Y47.00959
G01 X-1.61980 Y47.20479
G01 X-1.65500 Y47.35759
G01 X-1.72380 Y47.43119
G01 X-1.83420 Y47.46719
G01 X-1.83420 Y47.62719
G01 X-2.25500 Y47.62719
G01 X-2.40220 Y47.62719
G01 X-2.40220 Y47.46719
G01 X-2.90700 Y47.46719
G01 X-2.40220 Y47.46719
G01 X-2.76220 Y47.08879
G01 X-2.83740 Y46.97279
G01 X-2.87180 Y46.89999
G01 X-2.87180 Y46.81999
G01 X-2.83740 Y46.74719
G01 X-2.79660 Y46.70399
G01 X-2.72700 Y46.66719
G01 X-2.58220 Y46.66719
G01 X-2.50700 Y46.70399
G01 X-2.47180 Y46.74719
G01 X-2.43740 Y46.81999
G01 X-2.43740 Y46.85679
G01 X-2.43740 Y46.81999
G01 X-2.47180 Y46.74719
G01 X-2.50700 Y46.70399
G01 X-2.58220 Y46.66719
G01 X-2.72700 Y46.66719
G01 X-2.79660 Y46.70399
G01 X-2.83740 Y46.74719
G01 X-2.87180 Y46.81999
G01 X-2.87180 Y46.89999
G01 X-2.83740 Y46.97279
G01 X-2.76220 Y47.08879
G01 X-2.40220 Y47.46719
G01 X-2.40220 Y47.62719
G01 X-3.05500 Y47.62719
G01 X-3.20220 Y47.62719
G01 X-3.20220 Y47.46719
G01 X-3.70700 Y47.46719
G01 X-3.20220 Y47.46719
G01 X-3.56220 Y47.08879
G01 X-3.63740 Y46.97279
G01 X-3.67180 Y46.89999
G01 X-3.67180 Y46.81999
G01 X-3.63740 Y46.74719
G01 X-3.59660 Y46.70399
G01 X-3.52700 Y46.66719
G01 X-3.38220 Y46.66719
G01 X-3.30700 Y46.70399
G01 X-3.27180 Y46.74719
G01 X-3.23740 Y46.81999
G01 X-3.23740 Y46.85679
G01 X-3.23740 Y46.81999
G01 X-3.27180 Y46.74719
G01 X-3.30700 Y46.70399
G01 X-3.38220 Y46.66719
G01 X-3.52700 Y46.66719
G01 X-3.59660 Y46.70399
G01 X-3.63740 Y46.74719
G01 X-3.67180 Y46.81999
G01 X-3.67180 Y46.89999
G01 X-3.63740 Y46.97279
G01 X-3.56220 Y47.08879
G01 X-3.20220 Y47.46719
G01 X-3.20220 Y47.62719
G01 X-3.85500 Y47.62719
G01 X-4.23420 Y47.62719
G01 X-4.23420 Y47.46719
G01 X-4.26940 Y47.46719
G01 X-4.37900 Y47.43119
G01 X-4.45500 Y47.35759
G01 X-4.48940 Y47.24159
G01 X-4.48940 Y47.20479
G01 X-4.45500 Y47.08879
G01 X-4.37900 Y47.00959
G01 X-4.26940 Y46.97279
G01 X-4.23420 Y46.97279
G01 X-4.12380 Y47.00959
G01 X-4.05500 Y47.08879
G01 X-4.01980 Y47.20479
G01 X-4.01980 Y47.00959
G01 X-4.05500 Y46.81999
G01 X-4.12380 Y46.70399
G01 X-4.23420 Y46.66719
G01 X-4.30940 Y46.66719
G01 X-4.41420 Y46.70399
G01 X-4.45500 Y46.78399
G01 X-4.41420 Y46.70399
G01 X-4.30940 Y46.66719
G01 X-4.23420 Y46.66719
G01 X-4.12380 Y46.70399
G01 X-4.05500 Y46.81999
G01 X-4.01980 Y47.00959
G01 X-4.01980 Y47.20479
G01 X-4.05500 Y47.35759
G01 X-4.12380 Y47.43119
G01 X-4.23420 Y47.46719
G01 X-4.23420 Y47.62719
G01 X-4.65500 Y47.62719
G01 X-4.98220 Y47.62719
G01 X-4.98220 Y47.46719
G01 X-5.12700 Y47.46719
G01 X-5.23740 Y47.43119
G01 X-5.27180 Y47.39439
G01 X-5.30700 Y47.31519
G01 X-5.30700 Y47.20479
G01 X-5.27180 Y47.12559
G01 X-5.19660 Y47.05199
G01 X-5.09260 Y47.00959
G01 X-4.94700 Y46.97279
G01 X-4.87180 Y46.93599
G01 X-4.83740 Y46.85679
G01 X-4.83740 Y46.78399
G01 X-4.87180 Y46.70399
G01 X-4.98220 Y46.66719
G01 X-5.12700 Y46.66719
G01 X-5.23740 Y46.70399
G01 X-5.27180 Y46.78399
G01 X-5.27180 Y46.85679
G01 X-5.23740 Y46.93599
G01 X-5.16220 Y46.97279
G01 X-5.01660 Y47.00959
G01 X-4.90700 Y47.05199
G01 X-4.83740 Y47.12559
G01 X-4.80220 Y47.20479
G01 X-4.80220 Y47.31519
G01 X-4.83740 Y47.39439
G01 X-4.87180 Y47.43119
G01 X-4.98220 Y47.46719
G01 X-4.98220 Y47.62719
G01 X-5.45500 Y47.62719
G01 X-5.53020 Y47.62719
G01 X-5.53020 Y47.12559
G01 X-6.17900 Y47.12559
G01 X-5.53020 Y47.12559
G01 X-5.53020 Y47.62719
G01 X-6.25500 Y47.62719
G01 X-6.63420 Y47.62719
G01 X-6.63420 Y47.46719
G01 X-6.66940 Y47.46719
G01 X-6.77900 Y47.43119
G01 X-6.85500 Y47.35759
G01 X-6.88940 Y47.24159
G01 X-6.88940 Y47.20479
G01 X-6.85500 Y47.08879
G01 X-6.77900 Y47.00959
G01 X-6.66940 Y46.97279
G01 X-6.63420 Y46.97279
G01 X-6.52380 Y47.00959
G01 X-6.45500 Y47.08879
G01 X-6.41980 Y47.20479
G01 X-6.41980 Y47.00959
G01 X-6.45500 Y46.81999
G01 X-6.52380 Y46.70399
G01 X-6.63420 Y46.66719
G01 X-6.70940 Y46.66719
G01 X-6.81420 Y46.70399
G01 X-6.85500 Y46.78399
G01 X-6.81420 Y46.70399
G01 X-6.70940 Y46.66719
G01 X-6.63420 Y46.66719
G01 X-6.52380 Y46.70399
G01 X-6.45500 Y46.81999
G01 X-6.41980 Y47.00959
G01 X-6.41980 Y47.20479
G01 X-6.45500 Y47.35759
G01 X-6.52380 Y47.43119
G01 X-6.63420 Y47.46719
G01 X-6.63420 Y47.62719
G01 X-7.05500 Y47.62719
G260
M10
G00 X-10.22677 Y66.07367
(PartName=762231-6)
N6 M09
G261
G01 X-9.93477 Y66.07367
G01 X-9.93477 Y66.23367
G01 X-9.57477 Y67.03367
G01 X-10.07957 Y67.03367
G01 X-10.07877 Y66.94167
G01 X-10.07957 Y67.03367
G01 X-9.57477 Y67.03367
G01 X-9.93477 Y66.23367
G01 X-9.93477 Y66.07367
G01 X-9.42677 Y66.07367
G01 X-9.04757 Y66.07367
G01 X-9.04757 Y66.23367
G01 X-9.01237 Y66.23367
G01 X-8.90277 Y66.26967
G01 X-8.82677 Y66.34327
G01 X-8.79237 Y66.45927
G01 X-8.79237 Y66.49607
G01 X-8.82677 Y66.61207
G01 X-8.90277 Y66.69127
G01 X-9.01237 Y66.72807
G01 X-9.04757 Y66.72807
G01 X-9.15797 Y66.69127
G01 X-9.22677 Y66.61207
G01 X-9.26197 Y66.49607
G01 X-9.26197 Y66.69127
G01 X-9.22677 Y66.88087
G01 X-9.15797 Y66.99687
G01 X-9.04757 Y67.03367
G01 X-8.97237 Y67.03367
G01 X-8.86757 Y66.99687
G01 X-8.82677 Y66.91687
G01 X-8.86757 Y66.99687
G01 X-8.97237 Y67.03367
G01 X-9.04757 Y67.03367
G01 X-9.15797 Y66.99687
G01 X-9.22677 Y66.88087
G01 X-9.26197 Y66.69127
G01 X-9.26197 Y66.49607
G01 X-9.22677 Y66.34327
G01 X-9.15797 Y66.26967
G01 X-9.04757 Y66.23367
G01 X-9.04757 Y66.07367
G01 X-8.62677 Y66.07367
G01 X-8.47957 Y66.07367
G01 X-8.47957 Y66.23367
G01 X-7.97477 Y66.23367
G01 X-8.47957 Y66.23367
G01 X-8.11957 Y66.61207
G01 X-8.04437 Y66.72807
G01 X-8.00997 Y66.80087
G01 X-8.00997 Y66.88087
G01 X-8.04437 Y66.95367
G01 X-8.08517 Y66.99687
G01 X-8.15477 Y67.03367
G01 X-8.29957 Y67.03367
G01 X-8.37477 Y66.99687
G01 X-8.40997 Y66.95367
G01 X-8.44437 Y66.88087
G01 X-8.44437 Y66.84407
G01 X-8.44437 Y66.88087
G01 X-8.40997 Y66.95367
G01 X-8.37477 Y66.99687
G01 X-8.29957 Y67.03367
G01 X-8.15477 Y67.03367
G01 X-8.08517 Y66.99687
G01 X-8.04437 Y66.95367
G01 X-8.00997 Y66.88087
G01 X-8.00997 Y66.80087
G01 X-8.04437 Y66.72807
G01 X-8.11957 Y66.61207
G01 X-8.47957 Y66.23367
G01 X-8.47957 Y66.07367
G01 X-7.82677 Y66.07367
G01 X-7.67957 Y66.07367
G01 X-7.67957 Y66.23367
G01 X-7.17477 Y66.23367
G01 X-7.67957 Y66.23367
G01 X-7.31957 Y66.61207
G01 X-7.24437 Y66.72807
G01 X-7.20997 Y66.80087
G01 X-7.20997 Y66.88087
G01 X-7.24437 Y66.95367
G01 X-7.28517 Y66.99687
G01 X-7.35477 Y67.03367
G01 X-7.49957 Y67.03367
G01 X-7.57477 Y66.99687
G01 X-7.60997 Y66.95367
G01 X-7.64437 Y66.88087
G01 X-7.64437 Y66.84407
G01 X-7.64437 Y66.88087
G01 X-7.60997 Y66.95367
G01 X-7.57477 Y66.99687
G01 X-7.49957 Y67.03367
G01 X-7.35477 Y67.03367
G01 X-7.28517 Y66.99687
G01 X-7.24437 Y66.95367
G01 X-7.20997 Y66.88087
G01 X-7.20997 Y66.80087
G01 X-7.24437 Y66.72807
G01 X-7.31957 Y66.61207
G01 X-7.67957 Y66.23367
G01 X-7.67957 Y66.07367
G01 X-7.02677 Y66.07367
G01 X-6.69957 Y66.07367
G01 X-6.69957 Y66.23367
G01 X-6.80997 Y66.26967
G01 X-6.84437 Y66.30647
G01 X-6.87957 Y66.38567
G01 X-6.84437 Y66.30647
G01 X-6.80997 Y66.26967
G01 X-6.69957 Y66.23367
G01 X-6.58917 Y66.23367
G01 X-6.48517 Y66.26967
G01 X-6.40997 Y66.34327
G01 X-6.37477 Y66.45927
G01 X-6.37477 Y66.53847
G01 X-6.40997 Y66.64887
G01 X-6.44437 Y66.69127
G01 X-6.51957 Y66.72807
G01 X-6.62997 Y66.72807
G01 X-6.40997 Y67.03367
G01 X-6.80997 Y67.03367
G01 X-6.40997 Y67.03367
G01 X-6.62997 Y66.72807
G01 X-6.51957 Y66.72807
G01 X-6.44437 Y66.69127
G01 X-6.40997 Y66.64887
G01 X-6.37477 Y66.53847
G01 X-6.37477 Y66.45927
G01 X-6.40997 Y66.34327
G01 X-6.48517 Y66.26967
G01 X-6.58917 Y66.23367
G01 X-6.69957 Y66.23367
G01 X-6.69957 Y66.07367
G01 X-6.22677 Y66.07367
G01 X-5.73717 Y66.07367
G01 X-5.73717 Y66.23367
G01 X-5.73717 Y67.03367
G01 X-5.84757 Y66.91687
G01 X-5.91717 Y66.88087
G01 X-5.84757 Y66.91687
G01 X-5.73717 Y67.03367
G01 X-5.73717 Y66.23367
G01 X-5.73717 Y66.07367
G01 X-5.42677 Y66.07367
G01 X-5.35157 Y66.07367
G01 X-5.35157 Y66.57527
G01 X-4.70277 Y66.57527
G01 X-5.35157 Y66.57527
G01 X-5.35157 Y66.07367
G01 X-4.62677 Y66.07367
G01 X-4.24757 Y66.07367
G01 X-4.24757 Y66.23367
G01 X-4.21237 Y66.23367
G01 X-4.10277 Y66.26967
G01 X-4.02677 Y66.34327
G01 X-3.99237 Y66.45927
G01 X-3.99237 Y66.49607
G01 X-4.02677 Y66.61207
G01 X-4.10277 Y66.69127
G01 X-4.21237 Y66.72807
G01 X-4.24757 Y66.72807
G01 X-4.35797 Y66.69127
G01 X-4.42677 Y66.61207
G01 X-4.46197 Y66.49607
G01 X-4.46197 Y66.69127
G01 X-4.42677 Y66.88087
G01 X-4.35797 Y66.99687
G01 X-4.24757 Y67.03367
G01 X-4.17237 Y67.03367
G01 X-4.06757 Y66.99687
G01 X-4.02677 Y66.91687
G01 X-4.06757 Y66.99687
G01 X-4.17237 Y67.03367
G01 X-4.24757 Y67.03367
G01 X-4.35797 Y66.99687
G01 X-4.42677 Y66.88087
G01 X-4.46197 Y66.69127
G01 X-4.46197 Y66.49607
G01 X-4.42677 Y66.34327
G01 X-4.35797 Y66.26967
G01 X-4.24757 Y66.23367
G01 X-4.24757 Y66.07367
G01 X-3.82677 Y66.07367
G260
M10
G00 X-14.36833 Y0.35000
T21
G41
N7 M07
G261
G01 X-14.36833 Y0.60000
G01 X-14.36833 Y14.60000
G01 X-0.36833 Y14.60000
G01 X-0.36833 Y0.60000
G01 X-14.08093 Y0.60000
M50
G01 X-14.36833 Y0.60000
G01 X-14.54833 Y0.60000
G260
M08
G40
M51
G00 X-10.35177 Y14.96838
G41
N8 M07
G261
G01 X-10.35177 Y15.21838
G01 X-10.35177 Y25.21838
G01 X-0.35177 Y25.21838
G01 X-0.35177 Y15.21838
G01 X-10.06437 Y15.21838
M50
G01 X-10.35177 Y15.21838
G01 X-10.53177 Y15.21838
G260
M08
G40
M51
G00 X-0.53000 Y35.82205
G41
N9 M07
G261
G01 X-0.53000 Y35.57205
G01 X-0.53000 Y25.57205
G01 X-10.53000 Y25.57205
G01 X-10.53000 Y35.57205
G01 X-0.81740 Y35.57205
M50
G01 X-0.53000 Y35.57205
G01 X-0.35000 Y35.57205
G260
M08
G40
M51
G00 X-10.35177 Y35.93853
G41
N10 M07
G261
G01 X-10.35177 Y36.18853
G01 X-10.35177 Y46.18853
G01 X-0.35177 Y46.18853
G01 X-0.35177 Y36.18853
G01 X-10.06437 Y36.18853
M50
G01 X-10.35177 Y36.18853
G01 X-10.53177 Y36.18853
G260
M08
G40
M51
G00 X-0.53000 Y56.79219
G41
N11 M07
G261
G01 X-0.53000 Y56.54219
G01 X-0.53000 Y46.54219
G01 X-10.53000 Y46.54219
G01 X-10.53000 Y56.54219
G01 X-0.81740 Y56.54219
M50
G01 X-0.53000 Y56.54219
G01 X-0.35000 Y56.54219
G260
M08
G40
M51
G00 X-10.35177 Y56.90867
G41
N12 M07
G261
G01 X-10.35177 Y57.15867
G01 X-10.35177 Y67.15867
G01 X-0.35177 Y67.15867
G01 X-0.35177 Y57.15867
G01 X-10.06437 Y57.15867
M50
G01 X-10.35177 Y57.15867
G01 X-10.53177 Y57.15867
G260
M08
G40
M51
G00 X-0.36641 Y67.80000
(PartName=Remnant)
T21
G40
M07
G00 X-0.02000 Y68.00000
G01 X-0.42000 Y68.00000
G01 X-12.00000 Y68.00000
G01 X-12.00000 Y16.00000
G01 X-16.00000 Y16.00000
G01 X-16.00000 Y0.40000
M50
G01 X-16.00000 Y0.00000
M08
M51
(PlanFooterCommand)
T0
#CS OFF
M30
