(PP_NAME=PP_Din)
(PP_VERSION=	4.0)
(PP_INI_NAME=GC_US_PLASMA_4.7.ini)
(PP_INI_VERSION=2014-02-26)
(%%INFO MACHINE=HPRXD SS 260A H35)
(%%INFO Material=A240 GR.316L Thickness=0.625 PlateLength=60 PlateWidth=120)
(%%INFO PartName=768133-1=1pcs=5.05lbs)
(%%INFO TotalCutLength=43.278)
(%%INFO TotalPierceCount=3)
(%%INFO TotalProductionTime=00:01:05)
G70
#CONTOUR MODE[DEV PATH_DEV=0.008 RELEVANT_PATH=0.004]
G90
(PlanHeaderCommand)
G162
G141
G237
#CS ON [V.E.START_X, V.E.START_Y, 0, 0, 0, V.E.ROTATION]
M190
G00 X-2.46703 Y6.79556
T22
(PartName=768133-1)
G41
N1 M07
G261
G03 X-2.04653 Y6.37506 I0.42050 J0.00000
G03 X-1.62603 Y6.79556 I0.00000 J0.42050
G03 X-2.37603 Y7.54556 I-0.75000 J0.00000
G03 X-3.12603 Y6.79556 I0.00000 J-0.75000
G03 X-2.37603 Y6.04556 I0.75000 J0.00000
G03 X-2.19960 Y6.06660 I0.00000 J0.75000
M50
G03 X-1.62603 Y6.79556 I-0.17643 J0.72895
M06
G03 X-1.66731 Y7.04095 I-0.75000 J0.00000
G260
M08
G40
M51
G00 X-4.37603 Y0.39556
T21
G41
N2 M07
G261
G01 X-4.37603 Y0.79556
G01 X-4.37603 Y6.79556
G02 X-2.37603 Y8.79556 I2.00000 J0.00000
G02 X-0.37603 Y6.79556 I-0.00000 J-2.00000
G01 X-0.37603 Y0.79556
G01 X-3.37603 Y0.79556
M50
G01 X-4.37603 Y0.79556
G01 X-4.55603 Y0.79556
G260
M08
G40
M51
G00 X-0.36641 Y8.79556
(PartName=Remnant)
T21
G40
M07
G00 X-0.02000 Y8.99556
G01 X-0.42000 Y8.99556
G01 X-4.75603 Y8.99556
G01 X-4.75603 Y0.40000
M50
G01 X-4.75603 Y-0.00000
M08
M51
(PlanFooterCommand)
T0
#CS OFF
M30
