(PP_NAME=PP_Din)
(PP_VERSION=	4.0)
(PP_INI_NAME=GC_US_PLASMA_4.7.ini)
(PP_INI_VERSION=2014-02-26)
(%%INFO MACHINE=HPRXD AL 130A MIX)
(%%INFO Material=A240 GR.316L Thickness=0.125 PlateLength=48 PlateWidth=96)
(%%INFO PartName=753654-3 ir1.75=2pcs=1.1lbs)
(%%INFO PartName=776043-3_B IR1.1875=2pcs=0.85lbs)
(%%INFO PartName=754537-3 ir1.75=2pcs=1.1lbs)
(%%INFO PartName=776043-3_A IR1.1875=2pcs=0.66lbs)
(%%INFO PartName=753653-3 ir1.75=2pcs=1.1lbs)
(%%INFO TotalCutLength=380.769)
(%%INFO TotalPierceCount=43)
(%%INFO TotalProductionTime=00:04:50)
G70
#CONTOUR MODE[DEV PATH_DEV=0.008 RELEVANT_PATH=0.004]
G90
(PlanHeaderCommand)
G162
G141
G237
#CS ON [V.E.START_X, V.E.START_Y, 0, 0, 0, V.E.ROTATION]
M190
G00 X-4.78675 Y9.92086
T23
(PartName=754537-3 ir1.75)
N1 M09
G261
G01 X-5.09163 Y9.61599
G01 X-5.09163 Y11.18851
G01 X-4.80280 Y11.02003
G260
M10
G00 X-5.09163 Y11.18851
N2 M09
G261
G01 X-5.44465 Y11.04410
G260
M10
G00 X-5.39651 Y9.97703
N3 M09
G261
G01 X-5.09163 Y9.61599
G260
M10
G00 X-1.87136 Y42.68592
(PartName=776043-3_A IR1.1875)
N4 M09
G261
G01 X-1.56648 Y42.38104
G01 X-3.13901 Y42.38104
G01 X-2.97052 Y42.66987
G260
M10
G00 X-3.13901 Y42.38104
N5 M09
G261
G01 X-2.99459 Y42.02803
G260
M10
G00 X-1.92752 Y42.07616
N6 M09
G261
G01 X-1.56648 Y42.38104
G260
M10
G00 X-1.87136 Y49.03768
(PartName=776043-3_B IR1.1875)
N7 M09
G261
G01 X-1.56648 Y48.73280
G01 X-3.13901 Y48.73280
G01 X-2.97052 Y49.02163
G260
M10
G00 X-3.13901 Y48.73280
N8 M09
G261
G01 X-2.99459 Y48.37978
G260
M10
G00 X-1.92752 Y48.42792
N9 M09
G261
G01 X-1.56648 Y48.73280
G260
M10
G00 X-4.78675 Y37.34551
(PartName=753653-3 ir1.75)
N10 M09
G261
G01 X-5.09163 Y37.04063
G01 X-5.09163 Y38.61316
G01 X-4.80280 Y38.44468
G260
M10
G00 X-5.09163 Y38.61316
N11 M09
G261
G01 X-5.44465 Y38.46875
G260
M10
G00 X-5.39651 Y37.40167
N12 M09
G261
G01 X-5.09163 Y37.04063
G260
M10
G00 X-4.78675 Y23.63319
(PartName=753654-3 ir1.75)
N13 M09
G261
G01 X-5.09163 Y23.32831
G01 X-5.09163 Y24.90084
G01 X-4.80280 Y24.73235
G260
M10
G00 X-5.09163 Y24.90084
N14 M09
G261
G01 X-5.44465 Y24.75642
G260
M10
G00 X-5.39651 Y23.68935
N15 M09
G261
G01 X-5.09163 Y23.32831
G260
M10
G00 X-4.78675 Y30.48935
(PartName=753653-3 ir1.75)
N16 M09
G261
G01 X-5.09163 Y30.18447
G01 X-5.09163 Y31.75700
G01 X-4.80280 Y31.58852
G260
M10
G00 X-5.09163 Y31.75700
N17 M09
G261
G01 X-5.44465 Y31.61259
G260
M10
G00 X-5.39651 Y30.54551
N18 M09
G261
G01 X-5.09163 Y30.18447
G260
M10
G00 X-4.78675 Y16.77703
(PartName=753654-3 ir1.75)
N19 M09
G261
G01 X-5.09163 Y16.47215
G01 X-5.09163 Y18.04468
G01 X-4.80280 Y17.87619
G260
M10
G00 X-5.09163 Y18.04468
N20 M09
G261
G01 X-5.44465 Y17.90026
G260
M10
G00 X-5.39651 Y16.83319
N21 M09
G261
G01 X-5.09163 Y16.47215
G260
M10
G00 X-4.78675 Y3.06470
(PartName=754537-3 ir1.75)
N22 M09
G261
G01 X-5.09163 Y2.75982
G01 X-5.09163 Y4.33235
G01 X-4.80280 Y4.16387
G260
M10
G00 X-5.09163 Y4.33235
N23 M09
G261
G01 X-5.44465 Y4.18794
G260
M10
G00 X-5.39651 Y3.12086
N24 M09
G261
G01 X-5.09163 Y2.75982
G260
M10
G00 X-1.87136 Y61.74119
(PartName=776043-3_B IR1.1875)
N25 M09
G261
G01 X-1.56648 Y61.43632
G01 X-3.13901 Y61.43632
G01 X-2.97052 Y61.72515
G260
M10
G00 X-3.13901 Y61.43632
N26 M09
G261
G01 X-2.99459 Y61.08330
G260
M10
G00 X-1.92752 Y61.13144
N27 M09
G261
G01 X-1.56648 Y61.43632
G260
M10
G00 X-1.87136 Y55.38944
(PartName=776043-3_A IR1.1875)
N28 M09
G261
G01 X-1.56648 Y55.08456
G01 X-3.13901 Y55.08456
G01 X-2.97052 Y55.37339
G260
M10
G00 X-3.13901 Y55.08456
N29 M09
G261
G01 X-2.99459 Y54.73154
G260
M10
G00 X-1.92752 Y54.77968
N30 M09
G261
G01 X-1.56648 Y55.08456
G260
M10
G00 X-3.26002 Y11.49348
T22
G41
N31 M07
G261
G01 X-3.33755 Y11.87978
G01 X-3.35179 Y11.87692
G01 X-3.39341 Y11.86636
G01 X-3.43477 Y11.85426
G01 X-3.47582 Y11.83975
G01 X-3.51651 Y11.82391
G01 X-3.55679 Y11.80591
G01 X-3.59663 Y11.78644
G01 X-3.63597 Y11.76509
G01 X-3.67478 Y11.74212
G01 X-3.71299 Y11.71769
G01 X-3.75058 Y11.69187
G01 X-3.78750 Y11.66473
G01 X-3.82370 Y11.63634
G01 X-3.85916 Y11.60679
G01 X-3.89381 Y11.57592
G01 X-3.92763 Y11.54388
G01 X-3.96058 Y11.51086
G01 X-3.99262 Y11.47694
G01 X-4.02371 Y11.44217
G01 X-4.05382 Y11.40661
G01 X-4.08291 Y11.37034
G01 X-4.11095 Y11.33321
G01 X-4.13791 Y11.29523
G01 X-4.16375 Y11.25667
G01 X-4.18845 Y11.21757
G01 X-4.21199 Y11.17799
G01 X-4.23432 Y11.13798
G01 X-4.25543 Y11.09759
G01 X-4.27530 Y11.05671
G01 X-4.29389 Y11.01511
G01 X-4.31120 Y10.97319
G01 X-4.32719 Y10.93101
G01 X-4.34185 Y10.88863
G01 X-4.35517 Y10.84610
G01 X-4.36713 Y10.80351
G01 X-4.37772 Y10.76080
G01 X-4.38691 Y10.71741
G01 X-4.39471 Y10.67313
G01 X-4.40111 Y10.63063
G01 X-4.40609 Y10.58478
G01 X-4.40965 Y10.54270
G01 X-4.41179 Y10.49377
G01 X-4.41250 Y10.45616
G01 X-4.41179 Y10.41414
G01 X-4.40965 Y10.37214
G01 X-4.40609 Y10.32538
G01 X-4.40111 Y10.28328
G01 X-4.39471 Y10.23836
M50
M06
G01 X-4.00701 Y10.30853
G260
M08
G40
M51
G00 X-3.91883 Y10.02363
G41
N32 M07
G261
G01 X-4.27854 Y9.86287
G01 X-4.27530 Y9.85561
G01 X-4.25543 Y9.81473
G01 X-4.23432 Y9.77435
G01 X-4.21199 Y9.73434
G01 X-4.18845 Y9.69475
G01 X-4.16375 Y9.65566
G01 X-4.13791 Y9.61709
G01 X-4.11095 Y9.57912
G01 X-4.08291 Y9.54199
G01 X-4.05382 Y9.50571
G01 X-4.02371 Y9.47016
G01 X-3.99262 Y9.43539
G01 X-3.96058 Y9.40146
G01 X-3.92763 Y9.36845
G01 X-3.89381 Y9.33641
G01 X-3.85916 Y9.30554
G01 X-3.82370 Y9.27598
G01 X-3.78750 Y9.24760
G01 X-3.75058 Y9.22046
G01 X-3.71299 Y9.19464
G01 X-3.67478 Y9.17021
G01 X-3.63597 Y9.14724
G01 X-3.59663 Y9.12588
G01 X-3.55679 Y9.10630
G01 X-3.51651 Y9.08862
G01 X-3.47582 Y9.07227
G01 X-3.43477 Y9.05834
G01 X-3.39341 Y9.04578
G01 X-3.35179 Y9.03550
G01 X-3.30995 Y9.02702
G01 X-3.26794 Y9.02079
G01 X-3.22581 Y9.01680
M50
M06
G01 X-3.20382 Y9.41018
G260
M08
G40
M51
G00 X-2.98182 Y9.44375
G41
N33 M07
G261
G01 X-2.83890 Y9.07658
G01 X-2.80849 Y9.08842
G01 X-2.76821 Y9.10641
G01 X-2.72837 Y9.12588
G01 X-2.68903 Y9.14724
G01 X-2.65022 Y9.17021
G01 X-2.61201 Y9.19464
G01 X-2.57442 Y9.22046
G01 X-2.53750 Y9.24760
G01 X-2.50129 Y9.27598
G01 X-2.46584 Y9.30554
G01 X-2.43119 Y9.33641
G01 X-2.39737 Y9.36845
G01 X-2.36442 Y9.40146
G01 X-2.33238 Y9.43539
G01 X-2.30129 Y9.47016
G01 X-2.27118 Y9.50571
G01 X-2.24209 Y9.54199
G01 X-2.21405 Y9.57912
G01 X-2.18709 Y9.61709
G01 X-2.16125 Y9.65566
G01 X-2.13655 Y9.69475
G01 X-2.11301 Y9.73433
G01 X-2.09068 Y9.77435
G01 X-2.06957 Y9.81473
G01 X-2.04970 Y9.85561
G01 X-2.03111 Y9.89722
G01 X-2.01380 Y9.93913
G01 X-1.99781 Y9.98131
G01 X-1.98314 Y10.02369
G01 X-1.96983 Y10.06622
G01 X-1.95787 Y10.10881
G01 X-1.94728 Y10.15152
G01 X-1.93809 Y10.19527
G01 X-1.93029 Y10.23836
G01 X-1.92389 Y10.28328
G01 X-1.91891 Y10.32538
G01 X-1.91535 Y10.36962
M50
M06
G01 X-2.30898 Y10.38683
G260
M08
G40
M51
G00 X-2.32972 Y10.66604
G41
N34 M07
G261
G01 X-1.94728 Y10.76081
G01 X-1.95787 Y10.80351
G01 X-1.96983 Y10.84610
G01 X-1.98314 Y10.88863
G01 X-1.99781 Y10.93101
G01 X-2.01380 Y10.97319
G01 X-2.03111 Y11.01511
G01 X-2.04970 Y11.05672
G01 X-2.06957 Y11.09759
G01 X-2.09068 Y11.13798
G01 X-2.11301 Y11.17799
G01 X-2.13655 Y11.21757
G01 X-2.16125 Y11.25667
G01 X-2.18709 Y11.29523
G01 X-2.21405 Y11.33321
G01 X-2.24209 Y11.37034
G01 X-2.27118 Y11.40661
G01 X-2.30129 Y11.44217
G01 X-2.33238 Y11.47694
G01 X-2.36442 Y11.51086
G01 X-2.39737 Y11.54388
G01 X-2.43119 Y11.57592
G01 X-2.46584 Y11.60679
G01 X-2.50129 Y11.63634
G01 X-2.53750 Y11.66473
G01 X-2.57442 Y11.69187
G01 X-2.61201 Y11.71769
G01 X-2.65022 Y11.74212
G01 X-2.68903 Y11.76509
G01 X-2.72837 Y11.78644
G01 X-2.76821 Y11.80603
G01 X-2.80849 Y11.82370
G01 X-2.84918 Y11.84005
G01 X-2.89023 Y11.85399
G01 X-2.93159 Y11.86655
G01 X-2.94634 Y11.87019
M50
M06
G01 X-3.04082 Y11.48769
G260
M08
G40
M51
G00 X-5.97500 Y13.81609
T21
G41
N35 M07
G261
G01 X-5.97500 Y13.70616
G01 X-0.35000 Y13.70616
G01 X-0.35000 Y7.20616
G01 X-5.97500 Y7.20616
G01 X-5.97500 Y13.70616
M50
G01 X-6.06456 Y13.70616
G260
M08
G40
M51
G00 X-3.38732 Y44.39121
T22
G41
N36 M07
G261
G01 X-3.77361 Y44.31368
G01 X-3.77076 Y44.29945
G01 X-3.76020 Y44.25782
G01 X-3.74810 Y44.21646
G01 X-3.73359 Y44.17541
G01 X-3.71775 Y44.13472
G01 X-3.69975 Y44.09444
G01 X-3.68028 Y44.05460
G01 X-3.65893 Y44.01526
G01 X-3.63596 Y43.97645
G01 X-3.61152 Y43.93824
G01 X-3.58570 Y43.90065
G01 X-3.55857 Y43.86373
G01 X-3.53018 Y43.82753
G01 X-3.50063 Y43.79207
G01 X-3.46976 Y43.75742
G01 X-3.43771 Y43.72360
G01 X-3.40470 Y43.69065
G01 X-3.37077 Y43.65861
G01 X-3.33600 Y43.62752
G01 X-3.30045 Y43.59741
G01 X-3.26417 Y43.56832
G01 X-3.22705 Y43.54028
G01 X-3.18907 Y43.51332
G01 X-3.15051 Y43.48748
G01 X-3.11141 Y43.46278
G01 X-3.07183 Y43.43924
G01 X-3.03182 Y43.41691
G01 X-2.99143 Y43.39580
G01 X-2.95055 Y43.37593
G01 X-2.90895 Y43.35734
G01 X-2.86703 Y43.34003
G01 X-2.82485 Y43.32404
G01 X-2.78247 Y43.30938
G01 X-2.73994 Y43.29606
G01 X-2.69735 Y43.28410
G01 X-2.65464 Y43.27351
G01 X-2.61125 Y43.26432
G01 X-2.58359 Y43.25945
M50
M06
G01 X-2.51525 Y43.64747
G260
M08
G40
M51
G00 X-2.23710 Y43.63978
G41
N37 M07
G261
G01 X-2.19082 Y43.24850
G01 X-2.17711 Y43.25012
G01 X-2.13220 Y43.25652
G01 X-2.08911 Y43.26432
G01 X-2.04536 Y43.27351
G01 X-2.00265 Y43.28410
G01 X-1.96006 Y43.29606
G01 X-1.91753 Y43.30938
G01 X-1.87515 Y43.32404
G01 X-1.83297 Y43.34003
G01 X-1.79106 Y43.35734
G01 X-1.74945 Y43.37593
G01 X-1.70857 Y43.39580
G01 X-1.66818 Y43.41691
G01 X-1.62817 Y43.43924
G01 X-1.58859 Y43.46278
G01 X-1.54949 Y43.48748
G01 X-1.51093 Y43.51332
G01 X-1.47295 Y43.54028
G01 X-1.43583 Y43.56832
G01 X-1.39955 Y43.59741
G01 X-1.36400 Y43.62752
G01 X-1.32923 Y43.65861
G01 X-1.29530 Y43.69065
G01 X-1.26229 Y43.72360
G01 X-1.23024 Y43.75742
G01 X-1.19937 Y43.79207
G01 X-1.16982 Y43.82753
G01 X-1.14143 Y43.86373
G01 X-1.11430 Y43.90065
G01 X-1.08848 Y43.93824
G01 X-1.06404 Y43.97645
G01 X-1.04107 Y44.01526
G01 X-1.01972 Y44.05460
G01 X-1.00014 Y44.09444
G01 X-0.98246 Y44.13472
G01 X-0.96611 Y44.17541
G01 X-0.95218 Y44.21646
G01 X-0.94749 Y44.23190
M50
M06
G01 X-1.32448 Y44.34641
G260
M08
G40
M51
G00 X-1.30871 Y44.56550
G41
N38 M07
G261
G01 X-0.91882 Y44.62225
G01 X-0.92084 Y44.63618
G01 X-0.92924 Y44.67802
G01 X-0.93980 Y44.71964
G01 X-0.95190 Y44.76100
G01 X-0.96642 Y44.80205
G01 X-0.98225 Y44.84274
G01 X-1.00025 Y44.88302
G01 X-1.01972 Y44.92286
G01 X-1.04107 Y44.96220
G01 X-1.06404 Y45.00101
G01 X-1.08848 Y45.03922
G01 X-1.11430 Y45.07681
G01 X-1.14143 Y45.11373
G01 X-1.16982 Y45.14994
G01 X-1.19937 Y45.18539
G01 X-1.23024 Y45.22004
G01 X-1.26229 Y45.25386
G01 X-1.29530 Y45.28681
G01 X-1.32923 Y45.31885
G01 X-1.36400 Y45.34994
G01 X-1.39955 Y45.38005
G01 X-1.43583 Y45.40914
G01 X-1.47295 Y45.43718
G01 X-1.51093 Y45.46414
G01 X-1.54949 Y45.48998
G01 X-1.58859 Y45.51468
G01 X-1.62817 Y45.53822
G01 X-1.66818 Y45.56055
G01 X-1.70857 Y45.58166
G01 X-1.74945 Y45.60153
G01 X-1.79106 Y45.62012
G01 X-1.83297 Y45.63743
G01 X-1.87515 Y45.65342
G01 X-1.91753 Y45.66809
G01 X-1.96006 Y45.68140
G01 X-2.00265 Y45.69336
G01 X-2.04536 Y45.70395
G01 X-2.08911 Y45.71314
G01 X-2.11640 Y45.71808
M50
M06
G01 X-2.18657 Y45.33038
G260
M08
G40
M51
G00 X-2.46289 Y45.33769
G41
N39 M07
G261
G01 X-2.50918 Y45.72896
G01 X-2.52289 Y45.72734
G01 X-2.56780 Y45.72094
G01 X-2.61089 Y45.71314
G01 X-2.65464 Y45.70395
G01 X-2.69735 Y45.69336
G01 X-2.73994 Y45.68140
G01 X-2.78247 Y45.66809
G01 X-2.82485 Y45.65342
G01 X-2.86703 Y45.63743
G01 X-2.90895 Y45.62012
G01 X-2.95055 Y45.60153
G01 X-2.99143 Y45.58166
G01 X-3.03182 Y45.56055
G01 X-3.07183 Y45.53822
G01 X-3.11141 Y45.51468
G01 X-3.15051 Y45.48998
G01 X-3.18907 Y45.46414
G01 X-3.22705 Y45.43718
G01 X-3.26417 Y45.40914
G01 X-3.30045 Y45.38005
G01 X-3.33600 Y45.34994
G01 X-3.37077 Y45.31885
G01 X-3.40470 Y45.28681
G01 X-3.43771 Y45.25386
G01 X-3.46976 Y45.22004
G01 X-3.50063 Y45.18539
G01 X-3.53018 Y45.14994
G01 X-3.55857 Y45.11373
G01 X-3.58570 Y45.07681
G01 X-3.61152 Y45.03922
G01 X-3.63596 Y45.00101
G01 X-3.65893 Y44.96220
G01 X-3.68028 Y44.92286
G01 X-3.69986 Y44.88302
G01 X-3.71754 Y44.84274
G01 X-3.73389 Y44.80205
G01 X-3.74782 Y44.76100
G01 X-3.76039 Y44.71964
G01 X-3.76403 Y44.70489
M50
M06
G01 X-3.38152 Y44.61041
G260
M08
G40
M51
G00 X-4.35000 Y47.62561
T21
G41
N40 M07
G261
G01 X-4.35000 Y47.48873
G01 X-0.35000 Y47.48873
G01 X-0.35000 Y41.48873
G01 X-4.35000 Y41.48873
G01 X-4.35000 Y47.48873
M50
G01 X-4.44957 Y47.48873
G260
M08
G40
M51
G00 X-4.35000 Y47.73710
G41
N41 M07
G261
G01 X-4.35000 Y47.84049
G01 X-4.35000 Y53.84049
G01 X-0.35000 Y53.84049
G01 X-0.35000 Y47.84049
G01 X-4.35000 Y47.84049
M50
G01 X-4.47304 Y47.84049
G260
M08
G40
M51
G00 X-3.26002 Y38.91813
T22
G41
N42 M07
G261
G01 X-3.33755 Y39.30442
G01 X-3.35179 Y39.30157
G01 X-3.39341 Y39.29101
G01 X-3.43477 Y39.27891
G01 X-3.47582 Y39.26440
G01 X-3.51651 Y39.24856
G01 X-3.55679 Y39.23056
G01 X-3.59663 Y39.21109
G01 X-3.63597 Y39.18974
G01 X-3.67478 Y39.16677
G01 X-3.71299 Y39.14233
G01 X-3.75058 Y39.11651
G01 X-3.78750 Y39.08938
G01 X-3.82370 Y39.06099
G01 X-3.85916 Y39.03144
G01 X-3.89381 Y39.00057
G01 X-3.92763 Y38.96852
G01 X-3.96058 Y38.93551
G01 X-3.99262 Y38.90159
G01 X-4.02371 Y38.86681
G01 X-4.05382 Y38.83126
G01 X-4.08291 Y38.79498
G01 X-4.11095 Y38.75786
G01 X-4.13791 Y38.71988
G01 X-4.16375 Y38.68132
G01 X-4.18845 Y38.64222
G01 X-4.21199 Y38.60264
G01 X-4.23432 Y38.56263
G01 X-4.25543 Y38.52224
G01 X-4.27530 Y38.48136
G01 X-4.29389 Y38.43976
G01 X-4.31120 Y38.39784
G01 X-4.32719 Y38.35566
G01 X-4.34185 Y38.31328
G01 X-4.35517 Y38.27075
G01 X-4.36713 Y38.22816
G01 X-4.37772 Y38.18545
G01 X-4.38691 Y38.14206
G01 X-4.39429 Y38.10017
M50
M06
G01 X-4.00626 Y38.03183
G260
M08
G40
M51
G00 X-4.01104 Y37.76346
G41
N43 M07
G261
G01 X-4.40111 Y37.70792
G01 X-4.39471 Y37.66301
G01 X-4.38691 Y37.61992
G01 X-4.37772 Y37.57617
G01 X-4.36713 Y37.53346
G01 X-4.35517 Y37.49087
G01 X-4.34185 Y37.44834
G01 X-4.32719 Y37.40596
G01 X-4.31120 Y37.36378
G01 X-4.29389 Y37.32187
G01 X-4.27530 Y37.28026
G01 X-4.25543 Y37.23938
G01 X-4.23432 Y37.19899
G01 X-4.21199 Y37.15898
G01 X-4.18845 Y37.11940
G01 X-4.16375 Y37.08030
G01 X-4.13791 Y37.04174
G01 X-4.11095 Y37.00376
G01 X-4.08291 Y36.96664
G01 X-4.05382 Y36.93036
G01 X-4.02371 Y36.89481
G01 X-3.99262 Y36.86004
G01 X-3.96058 Y36.82611
G01 X-3.92763 Y36.79310
G01 X-3.89381 Y36.76105
G01 X-3.85916 Y36.73018
G01 X-3.82370 Y36.70063
G01 X-3.78750 Y36.67225
G01 X-3.75058 Y36.64511
G01 X-3.71299 Y36.61929
G01 X-3.67478 Y36.59486
G01 X-3.63597 Y36.57188
G01 X-3.59663 Y36.55053
G01 X-3.55679 Y36.53095
G01 X-3.51651 Y36.51327
G01 X-3.47582 Y36.49692
G01 X-3.43477 Y36.48299
G01 X-3.41933 Y36.47830
M50
M06
G01 X-3.30482 Y36.85529
G260
M08
G40
M51
G00 X-3.08573 Y36.83952
G41
N44 M07
G261
G01 X-3.02898 Y36.44963
G01 X-3.01505 Y36.45166
G01 X-2.97321 Y36.46005
G01 X-2.93159 Y36.47061
G01 X-2.89023 Y36.48271
G01 X-2.84918 Y36.49723
G01 X-2.80849 Y36.51306
G01 X-2.76821 Y36.53106
G01 X-2.72837 Y36.55053
G01 X-2.68903 Y36.57188
G01 X-2.65022 Y36.59486
G01 X-2.61201 Y36.61929
G01 X-2.57442 Y36.64511
G01 X-2.53750 Y36.67225
G01 X-2.50129 Y36.70063
G01 X-2.46584 Y36.73018
G01 X-2.43119 Y36.76105
G01 X-2.39737 Y36.79310
G01 X-2.36442 Y36.82611
G01 X-2.33238 Y36.86004
G01 X-2.30129 Y36.89481
G01 X-2.27118 Y36.93036
G01 X-2.24209 Y36.96664
G01 X-2.21405 Y37.00376
G01 X-2.18709 Y37.04174
G01 X-2.16125 Y37.08030
G01 X-2.13655 Y37.11940
G01 X-2.11301 Y37.15898
G01 X-2.09068 Y37.19899
G01 X-2.06957 Y37.23938
G01 X-2.04970 Y37.28026
G01 X-2.03111 Y37.32187
G01 X-2.01380 Y37.36378
G01 X-1.99781 Y37.40596
G01 X-1.98314 Y37.44834
G01 X-1.96983 Y37.49087
G01 X-1.95787 Y37.53346
G01 X-1.94728 Y37.57617
G01 X-1.93809 Y37.61992
G01 X-1.93029 Y37.66301
G01 X-1.92389 Y37.70792
G01 X-1.91891 Y37.75003
G01 X-1.91535 Y37.79427
G01 X-1.91321 Y37.84319
M50
M06
G01 X-2.30714 Y37.85066
G260
M08
G40
M51
G00 X-2.33868 Y38.12694
G41
N45 M07
G261
G01 X-1.95935 Y38.23345
G01 X-1.96983 Y38.27075
G01 X-1.98314 Y38.31328
G01 X-1.99781 Y38.35566
G01 X-2.01380 Y38.39784
G01 X-2.03111 Y38.43976
G01 X-2.04970 Y38.48136
G01 X-2.06957 Y38.52224
G01 X-2.09068 Y38.56263
G01 X-2.11301 Y38.60264
G01 X-2.13655 Y38.64222
G01 X-2.16125 Y38.68132
G01 X-2.18709 Y38.71988
G01 X-2.21405 Y38.75786
G01 X-2.24209 Y38.79498
G01 X-2.27118 Y38.83126
G01 X-2.30129 Y38.86681
G01 X-2.33238 Y38.90159
G01 X-2.36442 Y38.93551
G01 X-2.39737 Y38.96852
G01 X-2.43119 Y39.00057
G01 X-2.46584 Y39.03144
G01 X-2.50129 Y39.06099
G01 X-2.53750 Y39.08938
G01 X-2.57442 Y39.11651
G01 X-2.61201 Y39.14233
G01 X-2.65022 Y39.16677
G01 X-2.68903 Y39.18974
G01 X-2.72837 Y39.21109
G01 X-2.76821 Y39.23067
G01 X-2.80849 Y39.24835
G01 X-2.84918 Y39.26470
G01 X-2.89023 Y39.27863
G01 X-2.93159 Y39.29120
G01 X-2.94634 Y39.29484
M50
M06
G01 X-3.04082 Y38.91233
G260
M08
G40
M51
G00 X-5.97500 Y41.30659
T21
G41
N46 M07
G261
G01 X-5.97500 Y41.13081
G01 X-0.35000 Y41.13081
G01 X-0.35000 Y34.63081
G01 X-5.97500 Y34.63081
G01 X-5.97500 Y41.13081
M50
G01 X-6.10998 Y41.13081
G260
M08
G40
M51
G00 X-3.26002 Y25.20580
T22
G41
N47 M07
G261
G01 X-3.33755 Y25.59210
G01 X-3.35179 Y25.58924
G01 X-3.39341 Y25.57869
G01 X-3.43477 Y25.56659
G01 X-3.47582 Y25.55207
G01 X-3.51651 Y25.53623
G01 X-3.55679 Y25.51824
G01 X-3.59663 Y25.49877
G01 X-3.63597 Y25.47741
G01 X-3.67478 Y25.45444
G01 X-3.71299 Y25.43001
G01 X-3.75058 Y25.40419
G01 X-3.78750 Y25.37705
G01 X-3.82370 Y25.34867
G01 X-3.85916 Y25.31911
G01 X-3.89381 Y25.28824
G01 X-3.92763 Y25.25620
G01 X-3.96058 Y25.22319
G01 X-3.99262 Y25.18926
G01 X-4.02371 Y25.15449
G01 X-4.05382 Y25.11894
G01 X-4.08291 Y25.08266
G01 X-4.11095 Y25.04553
G01 X-4.13791 Y25.00756
G01 X-4.16375 Y24.96899
G01 X-4.18845 Y24.92990
G01 X-4.21199 Y24.89031
G01 X-4.23432 Y24.85030
G01 X-4.25543 Y24.80992
G01 X-4.27530 Y24.76904
G01 X-4.29389 Y24.72743
G01 X-4.31120 Y24.68552
G01 X-4.32719 Y24.64334
G01 X-4.34185 Y24.60095
G01 X-4.35517 Y24.55843
G01 X-4.36713 Y24.51584
G01 X-4.37772 Y24.47313
G01 X-4.38691 Y24.42974
G01 X-4.39178 Y24.40208
M50
M06
G01 X-4.00376 Y24.33374
G260
M08
G40
M51
G00 X-4.01146 Y24.05559
G41
N48 M07
G261
G01 X-4.40273 Y24.00931
G01 X-4.40111 Y23.99560
G01 X-4.39471 Y23.95069
G01 X-4.38691 Y23.90759
G01 X-4.37772 Y23.86384
G01 X-4.36713 Y23.82114
G01 X-4.35517 Y23.77855
G01 X-4.34185 Y23.73602
G01 X-4.32719 Y23.69363
G01 X-4.31120 Y23.65146
G01 X-4.29389 Y23.60954
G01 X-4.27530 Y23.56793
G01 X-4.25543 Y23.52705
G01 X-4.23432 Y23.48667
G01 X-4.21199 Y23.44666
G01 X-4.18845 Y23.40708
G01 X-4.16375 Y23.36798
G01 X-4.13791 Y23.32942
G01 X-4.11095 Y23.29144
G01 X-4.08291 Y23.25431
G01 X-4.05382 Y23.21804
G01 X-4.02371 Y23.18248
G01 X-3.99262 Y23.14771
G01 X-3.96058 Y23.11379
G01 X-3.92763 Y23.08077
G01 X-3.89381 Y23.04873
G01 X-3.85916 Y23.01786
G01 X-3.82370 Y22.98830
G01 X-3.78750 Y22.95992
G01 X-3.75058 Y22.93278
G01 X-3.71299 Y22.90696
G01 X-3.67478 Y22.88253
G01 X-3.63597 Y22.85956
G01 X-3.59663 Y22.83821
G01 X-3.55679 Y22.81862
G01 X-3.51651 Y22.80095
G01 X-3.47582 Y22.78460
G01 X-3.43477 Y22.77066
G01 X-3.39341 Y22.75810
G01 X-3.37866 Y22.75446
M50
M06
G01 X-3.28418 Y23.13696
G260
M08
G40
M51
G00 X-3.06498 Y23.13117
G41
N49 M07
G261
G01 X-2.98745 Y22.74487
G01 X-2.97321 Y22.74773
G01 X-2.93159 Y22.75829
G01 X-2.89023 Y22.77038
G01 X-2.84918 Y22.78490
G01 X-2.80849 Y22.80074
G01 X-2.76821 Y22.81874
G01 X-2.72837 Y22.83821
G01 X-2.68903 Y22.85956
G01 X-2.65022 Y22.88253
G01 X-2.61201 Y22.90696
G01 X-2.57442 Y22.93278
G01 X-2.53750 Y22.95992
G01 X-2.50129 Y22.98830
G01 X-2.46584 Y23.01786
G01 X-2.43119 Y23.04873
G01 X-2.39737 Y23.08077
G01 X-2.36442 Y23.11379
G01 X-2.33238 Y23.14771
G01 X-2.30129 Y23.18248
G01 X-2.27118 Y23.21804
G01 X-2.24209 Y23.25431
G01 X-2.21405 Y23.29144
G01 X-2.18709 Y23.32942
G01 X-2.16125 Y23.36798
G01 X-2.13655 Y23.40708
G01 X-2.11301 Y23.44666
G01 X-2.09068 Y23.48667
G01 X-2.06957 Y23.52705
G01 X-2.04970 Y23.56793
G01 X-2.03111 Y23.60954
G01 X-2.01380 Y23.65146
G01 X-1.99781 Y23.69363
G01 X-1.98314 Y23.73602
G01 X-1.97593 Y23.75905
M50
M06
G01 X-2.35192 Y23.87680
G260
M08
G40
M51
G00 X-2.30684 Y24.15436
G41
N50 M07
G261
G01 X-1.91291 Y24.14689
G01 X-1.91250 Y24.16849
G01 X-1.91321 Y24.21051
G01 X-1.91535 Y24.25251
G01 X-1.91891 Y24.29927
G01 X-1.92389 Y24.34137
G01 X-1.93029 Y24.38629
G01 X-1.93809 Y24.42938
G01 X-1.94728 Y24.47313
G01 X-1.95787 Y24.51584
G01 X-1.96983 Y24.55843
G01 X-1.98314 Y24.60095
G01 X-1.99781 Y24.64334
G01 X-2.01380 Y24.68552
G01 X-2.03111 Y24.72743
G01 X-2.04970 Y24.76904
G01 X-2.06957 Y24.80992
G01 X-2.09068 Y24.85030
G01 X-2.11301 Y24.89031
G01 X-2.13655 Y24.92990
G01 X-2.16125 Y24.96899
G01 X-2.18709 Y25.00756
G01 X-2.21405 Y25.04553
G01 X-2.24209 Y25.08266
G01 X-2.27118 Y25.11894
G01 X-2.30129 Y25.15449
G01 X-2.33238 Y25.18926
G01 X-2.36442 Y25.22319
G01 X-2.39737 Y25.25620
G01 X-2.43119 Y25.28824
G01 X-2.46584 Y25.31911
G01 X-2.50129 Y25.34867
G01 X-2.53750 Y25.37705
G01 X-2.57442 Y25.40419
G01 X-2.61201 Y25.43001
G01 X-2.65022 Y25.45444
G01 X-2.68903 Y25.47741
G01 X-2.72837 Y25.49877
G01 X-2.76821 Y25.51835
G01 X-2.80849 Y25.53603
G01 X-2.84918 Y25.55237
G01 X-2.89023 Y25.56631
G01 X-2.93159 Y25.57887
G01 X-2.94634 Y25.58252
M50
M06
G01 X-3.04082 Y25.20001
G260
M08
G40
M51
G00 X-5.97500 Y27.57794
T21
G41
N51 M07
G261
G01 X-5.97500 Y27.41849
G01 X-0.35000 Y27.41849
G01 X-0.35000 Y20.91849
G01 X-5.97500 Y20.91849
G01 X-5.97500 Y27.41849
M50
G01 X-6.07310 Y27.41849
G260
M08
G40
M51
G00 X-3.26002 Y32.06197
T22
G41
N52 M07
G261
G01 X-3.33755 Y32.44826
G01 X-3.35179 Y32.44541
G01 X-3.39341 Y32.43485
G01 X-3.43477 Y32.42275
G01 X-3.47582 Y32.40823
G01 X-3.51651 Y32.39240
G01 X-3.55679 Y32.37440
G01 X-3.59663 Y32.35493
G01 X-3.63597 Y32.33357
G01 X-3.67478 Y32.31060
G01 X-3.71299 Y32.28617
G01 X-3.75058 Y32.26035
G01 X-3.78750 Y32.23321
G01 X-3.82370 Y32.20483
G01 X-3.85916 Y32.17528
G01 X-3.89381 Y32.14440
G01 X-3.92763 Y32.11236
G01 X-3.96058 Y32.07935
G01 X-3.99262 Y32.04542
G01 X-4.02371 Y32.01065
G01 X-4.05382 Y31.97510
G01 X-4.08291 Y31.93882
G01 X-4.11095 Y31.90169
G01 X-4.13791 Y31.86372
G01 X-4.16375 Y31.82516
G01 X-4.18845 Y31.78606
G01 X-4.21199 Y31.74648
G01 X-4.23432 Y31.70647
G01 X-4.25543 Y31.66608
G01 X-4.27530 Y31.62520
G01 X-4.29389 Y31.58359
G01 X-4.31120 Y31.54168
G01 X-4.32719 Y31.49950
G01 X-4.34185 Y31.45712
G01 X-4.35517 Y31.41459
G01 X-4.36713 Y31.37200
G01 X-4.37772 Y31.32929
G01 X-4.38691 Y31.28590
G01 X-4.39429 Y31.24400
M50
M06
G01 X-4.00626 Y31.17566
G260
M08
G40
M51
G00 X-4.01104 Y30.90729
G41
N53 M07
G261
G01 X-4.40111 Y30.85176
G01 X-4.39471 Y30.80685
G01 X-4.38691 Y30.76376
G01 X-4.37772 Y30.72001
G01 X-4.36713 Y30.67730
G01 X-4.35517 Y30.63471
G01 X-4.34185 Y30.59218
G01 X-4.32719 Y30.54980
G01 X-4.31120 Y30.50762
G01 X-4.29389 Y30.46570
G01 X-4.27530 Y30.42410
G01 X-4.25543 Y30.38322
G01 X-4.23432 Y30.34283
G01 X-4.21199 Y30.30282
G01 X-4.18845 Y30.26324
G01 X-4.16375 Y30.22414
G01 X-4.13791 Y30.18558
G01 X-4.11095 Y30.14760
G01 X-4.08291 Y30.11048
G01 X-4.05382 Y30.07420
G01 X-4.02371 Y30.03864
G01 X-3.99262 Y30.00387
G01 X-3.96058 Y29.96995
G01 X-3.92763 Y29.93693
G01 X-3.89381 Y29.90489
G01 X-3.85916 Y29.87402
G01 X-3.82370 Y29.84447
G01 X-3.78750 Y29.81608
G01 X-3.75058 Y29.78895
G01 X-3.71299 Y29.76313
G01 X-3.67478 Y29.73869
G01 X-3.63597 Y29.71572
G01 X-3.59663 Y29.69437
G01 X-3.55679 Y29.67479
G01 X-3.51651 Y29.65711
G01 X-3.47582 Y29.64076
G01 X-3.43477 Y29.62682
G01 X-3.41933 Y29.62214
M50
M06
G01 X-3.30482 Y29.99913
G260
M08
G40
M51
G00 X-3.08573 Y29.98336
G41
N54 M07
G261
G01 X-3.02898 Y29.59347
G01 X-3.01505 Y29.59549
G01 X-2.97321 Y29.60389
G01 X-2.93159 Y29.61445
G01 X-2.89023 Y29.62655
G01 X-2.84918 Y29.64106
G01 X-2.80849 Y29.65690
G01 X-2.76821 Y29.67490
G01 X-2.72837 Y29.69437
G01 X-2.68903 Y29.71572
G01 X-2.65022 Y29.73869
G01 X-2.61201 Y29.76313
G01 X-2.57442 Y29.78895
G01 X-2.53750 Y29.81608
G01 X-2.50129 Y29.84447
G01 X-2.46584 Y29.87402
G01 X-2.43119 Y29.90489
G01 X-2.39737 Y29.93693
G01 X-2.36442 Y29.96995
G01 X-2.33238 Y30.00387
G01 X-2.30129 Y30.03864
G01 X-2.27118 Y30.07420
G01 X-2.24209 Y30.11048
G01 X-2.21405 Y30.14760
G01 X-2.18709 Y30.18558
G01 X-2.16125 Y30.22414
G01 X-2.13655 Y30.26324
G01 X-2.11301 Y30.30282
G01 X-2.09068 Y30.34283
G01 X-2.06957 Y30.38322
G01 X-2.04970 Y30.42410
G01 X-2.03111 Y30.46570
G01 X-2.01380 Y30.50762
G01 X-1.99781 Y30.54980
G01 X-1.98314 Y30.59218
G01 X-1.96983 Y30.63471
G01 X-1.95787 Y30.67730
G01 X-1.94728 Y30.72001
G01 X-1.93809 Y30.76376
G01 X-1.93029 Y30.80685
G01 X-1.92389 Y30.85176
G01 X-1.91891 Y30.89387
G01 X-1.91535 Y30.93811
G01 X-1.91321 Y30.98703
M50
M06
G01 X-2.30714 Y30.99450
G260
M08
G40
M51
G00 X-2.33868 Y31.27078
G41
N55 M07
G261
G01 X-1.95935 Y31.37729
G01 X-1.96983 Y31.41459
G01 X-1.98314 Y31.45712
G01 X-1.99781 Y31.49950
G01 X-2.01380 Y31.54168
G01 X-2.03111 Y31.58359
G01 X-2.04970 Y31.62520
G01 X-2.06957 Y31.66608
G01 X-2.09068 Y31.70647
G01 X-2.11301 Y31.74648
G01 X-2.13655 Y31.78606
G01 X-2.16125 Y31.82516
G01 X-2.18709 Y31.86372
G01 X-2.21405 Y31.90169
G01 X-2.24209 Y31.93882
G01 X-2.27118 Y31.97510
G01 X-2.30129 Y32.01065
G01 X-2.33238 Y32.04542
G01 X-2.36442 Y32.07935
G01 X-2.39737 Y32.11236
G01 X-2.43119 Y32.14440
G01 X-2.46584 Y32.17528
G01 X-2.50129 Y32.20483
G01 X-2.53750 Y32.23321
G01 X-2.57442 Y32.26035
G01 X-2.61201 Y32.28617
G01 X-2.65022 Y32.31060
G01 X-2.68903 Y32.33357
G01 X-2.72837 Y32.35493
G01 X-2.76821 Y32.37451
G01 X-2.80849 Y32.39219
G01 X-2.84918 Y32.40854
G01 X-2.89023 Y32.42247
G01 X-2.93159 Y32.43504
G01 X-2.94634 Y32.43868
M50
M06
G01 X-3.04082 Y32.05617
G260
M08
G40
M51
G00 X-5.97500 Y34.45043
T21
G41
N56 M07
G261
G01 X-5.97500 Y34.27465
G01 X-0.35000 Y34.27465
G01 X-0.35000 Y27.77465
G01 X-5.97500 Y27.77465
G01 X-5.97500 Y34.27465
M50
G01 X-6.10998 Y34.27465
G260
M08
G40
M51
G00 X-3.26002 Y18.34964
T22
G41
N57 M07
G261
G01 X-3.33755 Y18.73594
G01 X-3.35179 Y18.73308
G01 X-3.39341 Y18.72253
G01 X-3.43477 Y18.71043
G01 X-3.47582 Y18.69591
G01 X-3.51651 Y18.68007
G01 X-3.55679 Y18.66207
G01 X-3.59663 Y18.64261
G01 X-3.63597 Y18.62125
G01 X-3.67478 Y18.59828
G01 X-3.71299 Y18.57385
G01 X-3.75058 Y18.54803
G01 X-3.78750 Y18.52089
G01 X-3.82370 Y18.49251
G01 X-3.85916 Y18.46295
G01 X-3.89381 Y18.43208
G01 X-3.92763 Y18.40004
G01 X-3.96058 Y18.36702
G01 X-3.99262 Y18.33310
G01 X-4.02371 Y18.29833
G01 X-4.05382 Y18.26277
G01 X-4.08291 Y18.22650
G01 X-4.11095 Y18.18937
G01 X-4.13791 Y18.15139
G01 X-4.16375 Y18.11283
G01 X-4.18845 Y18.07373
G01 X-4.21199 Y18.03415
G01 X-4.23432 Y17.99414
G01 X-4.25543 Y17.95376
G01 X-4.27530 Y17.91288
G01 X-4.29389 Y17.87127
G01 X-4.31120 Y17.82935
G01 X-4.32719 Y17.78718
G01 X-4.34185 Y17.74479
G01 X-4.35517 Y17.70226
G01 X-4.36713 Y17.65968
G01 X-4.37772 Y17.61697
G01 X-4.38691 Y17.57358
G01 X-4.39178 Y17.54592
M50
M06
G01 X-4.00376 Y17.47758
G260
M08
G40
M51
G00 X-4.01146 Y17.19943
G41
N58 M07
G261
G01 X-4.40273 Y17.15314
G01 X-4.40111 Y17.13944
G01 X-4.39471 Y17.09453
G01 X-4.38691 Y17.05143
G01 X-4.37772 Y17.00768
G01 X-4.36713 Y16.96497
G01 X-4.35517 Y16.92239
G01 X-4.34185 Y16.87986
G01 X-4.32719 Y16.83747
G01 X-4.31120 Y16.79530
G01 X-4.29389 Y16.75338
G01 X-4.27530 Y16.71177
G01 X-4.25543 Y16.67089
G01 X-4.23432 Y16.63051
G01 X-4.21199 Y16.59050
G01 X-4.18845 Y16.55092
G01 X-4.16375 Y16.51182
G01 X-4.13791 Y16.47325
G01 X-4.11095 Y16.43528
G01 X-4.08291 Y16.39815
G01 X-4.05382 Y16.36187
G01 X-4.02371 Y16.32632
G01 X-3.99262 Y16.29155
G01 X-3.96058 Y16.25763
G01 X-3.92763 Y16.22461
G01 X-3.89381 Y16.19257
G01 X-3.85916 Y16.16170
G01 X-3.82370 Y16.13214
G01 X-3.78750 Y16.10376
G01 X-3.75058 Y16.07662
G01 X-3.71299 Y16.05080
G01 X-3.67478 Y16.02637
G01 X-3.63597 Y16.00340
G01 X-3.59663 Y15.98204
G01 X-3.55679 Y15.96246
G01 X-3.51651 Y15.94478
G01 X-3.47582 Y15.92844
G01 X-3.43477 Y15.91450
G01 X-3.39341 Y15.90194
G01 X-3.37866 Y15.89829
M50
M06
G01 X-3.28418 Y16.28080
G260
M08
G40
M51
G00 X-3.06498 Y16.27501
G41
N59 M07
G261
G01 X-2.98745 Y15.88871
G01 X-2.97321 Y15.89157
G01 X-2.93159 Y15.90212
G01 X-2.89023 Y15.91422
G01 X-2.84918 Y15.92874
G01 X-2.80849 Y15.94458
G01 X-2.76821 Y15.96257
G01 X-2.72837 Y15.98204
G01 X-2.68903 Y16.00340
G01 X-2.65022 Y16.02637
G01 X-2.61201 Y16.05080
G01 X-2.57442 Y16.07662
G01 X-2.53750 Y16.10376
G01 X-2.50129 Y16.13214
G01 X-2.46584 Y16.16170
G01 X-2.43119 Y16.19257
G01 X-2.39737 Y16.22461
G01 X-2.36442 Y16.25763
G01 X-2.33238 Y16.29155
G01 X-2.30129 Y16.32632
G01 X-2.27118 Y16.36187
G01 X-2.24209 Y16.39815
G01 X-2.21405 Y16.43528
G01 X-2.18709 Y16.47325
G01 X-2.16125 Y16.51182
G01 X-2.13655 Y16.55092
G01 X-2.11301 Y16.59050
G01 X-2.09068 Y16.63051
G01 X-2.06957 Y16.67089
G01 X-2.04970 Y16.71177
G01 X-2.03111 Y16.75338
G01 X-2.01380 Y16.79530
G01 X-1.99781 Y16.83747
G01 X-1.98314 Y16.87986
G01 X-1.97593 Y16.90289
M50
M06
G01 X-2.35192 Y17.02064
G260
M08
G40
M51
G00 X-2.30684 Y17.29820
G41
N60 M07
G261
G01 X-1.91291 Y17.29073
G01 X-1.91250 Y17.31232
G01 X-1.91321 Y17.35435
G01 X-1.91535 Y17.39635
G01 X-1.91891 Y17.44310
G01 X-1.92389 Y17.48521
G01 X-1.93029 Y17.53012
G01 X-1.93809 Y17.57322
G01 X-1.94728 Y17.61697
G01 X-1.95787 Y17.65968
G01 X-1.96983 Y17.70226
G01 X-1.98314 Y17.74479
G01 X-1.99781 Y17.78718
G01 X-2.01380 Y17.82935
G01 X-2.03111 Y17.87127
G01 X-2.04970 Y17.91288
G01 X-2.06957 Y17.95376
G01 X-2.09068 Y17.99414
G01 X-2.11301 Y18.03415
G01 X-2.13655 Y18.07373
G01 X-2.16125 Y18.11283
G01 X-2.18709 Y18.15139
G01 X-2.21405 Y18.18937
G01 X-2.24209 Y18.22650
G01 X-2.27118 Y18.26277
G01 X-2.30129 Y18.29833
G01 X-2.33238 Y18.33310
G01 X-2.36442 Y18.36702
G01 X-2.39737 Y18.40004
G01 X-2.43119 Y18.43208
G01 X-2.46584 Y18.46295
G01 X-2.50129 Y18.49251
G01 X-2.53750 Y18.52089
G01 X-2.57442 Y18.54803
G01 X-2.61201 Y18.57385
G01 X-2.65022 Y18.59828
G01 X-2.68903 Y18.62125
G01 X-2.72837 Y18.64261
G01 X-2.76821 Y18.66219
G01 X-2.80849 Y18.67986
G01 X-2.84918 Y18.69621
G01 X-2.89023 Y18.71015
G01 X-2.93159 Y18.72271
G01 X-2.94634 Y18.72635
M50
M06
G01 X-3.04082 Y18.34385
G260
M08
G40
M51
G00 X-5.97500 Y20.72178
T21
G41
N61 M07
G261
G01 X-5.97500 Y20.56232
G01 X-0.35000 Y20.56232
G01 X-0.35000 Y14.06232
G01 X-5.97500 Y14.06232
G01 X-5.97500 Y20.56232
M50
G01 X-6.07310 Y20.56232
G260
M08
G40
M51
G00 X-3.26002 Y4.63732
T22
G41
N62 M07
G261
G01 X-3.33755 Y5.02361
G01 X-3.35179 Y5.02076
G01 X-3.39341 Y5.01020
G01 X-3.43477 Y4.99810
G01 X-3.47582 Y4.98359
G01 X-3.51651 Y4.96775
G01 X-3.55679 Y4.94975
G01 X-3.59663 Y4.93028
G01 X-3.63597 Y4.90893
G01 X-3.67478 Y4.88596
G01 X-3.71299 Y4.86152
G01 X-3.75058 Y4.83570
G01 X-3.78750 Y4.80856
G01 X-3.82370 Y4.78018
G01 X-3.85916 Y4.75063
G01 X-3.89381 Y4.71976
G01 X-3.92763 Y4.68771
G01 X-3.96058 Y4.65470
G01 X-3.99262 Y4.62078
G01 X-4.02371 Y4.58600
G01 X-4.05382 Y4.55045
G01 X-4.08291 Y4.51417
G01 X-4.11095 Y4.47705
G01 X-4.13791 Y4.43907
G01 X-4.16375 Y4.40051
G01 X-4.18845 Y4.36141
G01 X-4.21199 Y4.32183
G01 X-4.23432 Y4.28182
G01 X-4.25543 Y4.24143
G01 X-4.27530 Y4.20055
G01 X-4.29389 Y4.15895
G01 X-4.31120 Y4.11703
G01 X-4.32719 Y4.07485
G01 X-4.34185 Y4.03247
G01 X-4.35517 Y3.98994
G01 X-4.36713 Y3.94735
G01 X-4.37772 Y3.90464
G01 X-4.38691 Y3.86125
G01 X-4.39471 Y3.81697
G01 X-4.40111 Y3.77447
G01 X-4.40609 Y3.72862
G01 X-4.40965 Y3.68654
G01 X-4.41179 Y3.63761
G01 X-4.41250 Y3.60000
G01 X-4.41179 Y3.55798
G01 X-4.40965 Y3.51598
G01 X-4.40609 Y3.46922
G01 X-4.40111 Y3.42711
G01 X-4.39471 Y3.38220
M50
M06
G01 X-4.00701 Y3.45237
G260
M08
G40
M51
G00 X-3.91883 Y3.16747
G41
N63 M07
G261
G01 X-4.27854 Y3.00671
G01 X-4.27530 Y2.99945
G01 X-4.25543 Y2.95857
G01 X-4.23432 Y2.91818
G01 X-4.21199 Y2.87817
G01 X-4.18845 Y2.83859
G01 X-4.16375 Y2.79949
G01 X-4.13791 Y2.76093
G01 X-4.11095 Y2.72295
G01 X-4.08291 Y2.68583
G01 X-4.05382 Y2.64955
G01 X-4.02371 Y2.61400
G01 X-3.99262 Y2.57923
G01 X-3.96058 Y2.54530
G01 X-3.92763 Y2.51229
G01 X-3.89381 Y2.48024
G01 X-3.85916 Y2.44937
G01 X-3.82370 Y2.41982
G01 X-3.78750 Y2.39143
G01 X-3.75058 Y2.36430
G01 X-3.71299 Y2.33848
G01 X-3.67478 Y2.31405
G01 X-3.63597 Y2.29107
G01 X-3.59663 Y2.26972
G01 X-3.55679 Y2.25014
G01 X-3.51651 Y2.23246
G01 X-3.47582 Y2.21611
G01 X-3.43477 Y2.20218
G01 X-3.39341 Y2.18961
G01 X-3.35179 Y2.17933
G01 X-3.30995 Y2.17085
G01 X-3.26794 Y2.16463
G01 X-3.22581 Y2.16063
M50
M06
G01 X-3.20382 Y2.55402
G260
M08
G40
M51
G00 X-2.98182 Y2.58758
G41
N64 M07
G261
G01 X-2.83890 Y2.22042
G01 X-2.80849 Y2.23225
G01 X-2.76821 Y2.25025
G01 X-2.72837 Y2.26972
G01 X-2.68903 Y2.29107
G01 X-2.65022 Y2.31405
G01 X-2.61201 Y2.33848
G01 X-2.57442 Y2.36430
G01 X-2.53750 Y2.39143
G01 X-2.50129 Y2.41982
G01 X-2.46584 Y2.44937
G01 X-2.43119 Y2.48024
G01 X-2.39737 Y2.51229
G01 X-2.36442 Y2.54530
G01 X-2.33238 Y2.57923
G01 X-2.30129 Y2.61400
G01 X-2.27118 Y2.64955
G01 X-2.24209 Y2.68583
G01 X-2.21405 Y2.72295
G01 X-2.18709 Y2.76093
G01 X-2.16125 Y2.79949
G01 X-2.13655 Y2.83859
G01 X-2.11301 Y2.87817
G01 X-2.09068 Y2.91818
G01 X-2.06957 Y2.95857
G01 X-2.04970 Y2.99945
G01 X-2.03111 Y3.04105
G01 X-2.01380 Y3.08297
G01 X-1.99781 Y3.12515
G01 X-1.98314 Y3.16753
G01 X-1.96983 Y3.21006
G01 X-1.95787 Y3.25265
G01 X-1.94728 Y3.29536
G01 X-1.93809 Y3.33911
G01 X-1.93029 Y3.38220
G01 X-1.92389 Y3.42711
G01 X-1.91891 Y3.46922
G01 X-1.91535 Y3.51346
M50
M06
G01 X-2.30898 Y3.53067
G260
M08
G40
M51
G00 X-2.32972 Y3.80988
G41
N65 M07
G261
G01 X-1.94728 Y3.90464
G01 X-1.95787 Y3.94735
G01 X-1.96983 Y3.98994
G01 X-1.98314 Y4.03247
G01 X-1.99781 Y4.07485
G01 X-2.01380 Y4.11703
G01 X-2.03111 Y4.15895
G01 X-2.04970 Y4.20055
G01 X-2.06957 Y4.24143
G01 X-2.09068 Y4.28182
G01 X-2.11301 Y4.32183
G01 X-2.13655 Y4.36141
G01 X-2.16125 Y4.40051
G01 X-2.18709 Y4.43907
G01 X-2.21405 Y4.47705
G01 X-2.24209 Y4.51417
G01 X-2.27118 Y4.55045
G01 X-2.30129 Y4.58600
G01 X-2.33238 Y4.62078
G01 X-2.36442 Y4.65470
G01 X-2.39737 Y4.68771
G01 X-2.43119 Y4.71976
G01 X-2.46584 Y4.75063
G01 X-2.50129 Y4.78018
G01 X-2.53750 Y4.80856
G01 X-2.57442 Y4.83570
G01 X-2.61201 Y4.86152
G01 X-2.65022 Y4.88596
G01 X-2.68903 Y4.90893
G01 X-2.72837 Y4.93028
G01 X-2.76821 Y4.94986
G01 X-2.80849 Y4.96754
G01 X-2.84918 Y4.98389
G01 X-2.89023 Y4.99782
G01 X-2.93159 Y5.01039
G01 X-2.94634 Y5.01403
M50
M06
G01 X-3.04082 Y4.63152
G260
M08
G40
M51
G00 X-5.97500 Y6.95993
T21
G41
N66 M07
G261
G01 X-5.97500 Y6.85000
G01 X-0.35000 Y6.85000
G01 X-0.35000 Y0.35000
G01 X-5.97500 Y0.35000
G01 X-5.97500 Y6.85000
M50
G01 X-6.06456 Y6.85000
G260
M08
G40
M51
G00 X-3.38732 Y57.09472
T22
G41
N67 M07
G261
G01 X-3.77361 Y57.01719
G01 X-3.77076 Y57.00296
G01 X-3.76020 Y56.96134
G01 X-3.74810 Y56.91998
G01 X-3.73359 Y56.87893
G01 X-3.71775 Y56.83824
G01 X-3.69975 Y56.79795
G01 X-3.68028 Y56.75811
G01 X-3.65893 Y56.71877
G01 X-3.63596 Y56.67997
G01 X-3.61152 Y56.64175
G01 X-3.58570 Y56.60416
G01 X-3.55857 Y56.56725
G01 X-3.53018 Y56.53104
G01 X-3.50063 Y56.49559
G01 X-3.46976 Y56.46094
G01 X-3.43771 Y56.42711
G01 X-3.40470 Y56.39417
G01 X-3.37077 Y56.36213
G01 X-3.33600 Y56.33104
G01 X-3.30045 Y56.30093
G01 X-3.26417 Y56.27184
G01 X-3.22705 Y56.24380
G01 X-3.18907 Y56.21684
G01 X-3.15051 Y56.19100
G01 X-3.11141 Y56.16629
G01 X-3.07183 Y56.14276
G01 X-3.03182 Y56.12042
G01 X-2.99143 Y56.09931
G01 X-2.95055 Y56.07945
G01 X-2.90895 Y56.06085
G01 X-2.86703 Y56.04355
G01 X-2.82485 Y56.02756
G01 X-2.78247 Y56.01289
G01 X-2.73994 Y55.99957
G01 X-2.69735 Y55.98761
G01 X-2.65464 Y55.97703
G01 X-2.61125 Y55.96783
G01 X-2.58359 Y55.96296
M50
M06
G01 X-2.51525 Y56.35099
G260
M08
G40
M51
G00 X-2.23710 Y56.34329
G41
N68 M07
G261
G01 X-2.19082 Y55.95202
G01 X-2.17711 Y55.95364
G01 X-2.13220 Y55.96003
G01 X-2.08911 Y55.96783
G01 X-2.04536 Y55.97703
G01 X-2.00265 Y55.98761
G01 X-1.96006 Y55.99957
G01 X-1.91753 Y56.01289
G01 X-1.87515 Y56.02756
G01 X-1.83297 Y56.04355
G01 X-1.79106 Y56.06085
G01 X-1.74945 Y56.07945
G01 X-1.70857 Y56.09931
G01 X-1.66818 Y56.12042
G01 X-1.62817 Y56.14276
G01 X-1.58859 Y56.16629
G01 X-1.54949 Y56.19100
G01 X-1.51093 Y56.21684
G01 X-1.47295 Y56.24380
G01 X-1.43583 Y56.27184
G01 X-1.39955 Y56.30093
G01 X-1.36400 Y56.33104
G01 X-1.32923 Y56.36213
G01 X-1.29530 Y56.39417
G01 X-1.26229 Y56.42711
G01 X-1.23024 Y56.46094
G01 X-1.19937 Y56.49559
G01 X-1.16982 Y56.53104
G01 X-1.14143 Y56.56725
G01 X-1.11430 Y56.60416
G01 X-1.08848 Y56.64175
G01 X-1.06404 Y56.67997
G01 X-1.04107 Y56.71877
G01 X-1.01972 Y56.75811
G01 X-1.00014 Y56.79795
G01 X-0.98246 Y56.83824
G01 X-0.96611 Y56.87893
G01 X-0.95218 Y56.91998
G01 X-0.94749 Y56.93541
M50
M06
G01 X-1.32448 Y57.04993
G260
M08
G40
M51
G00 X-1.30871 Y57.26902
G41
N69 M07
G261
G01 X-0.91882 Y57.32576
G01 X-0.92084 Y57.33969
G01 X-0.92924 Y57.38153
G01 X-0.93980 Y57.42315
G01 X-0.95190 Y57.46451
G01 X-0.96642 Y57.50556
G01 X-0.98225 Y57.54625
G01 X-1.00025 Y57.58654
G01 X-1.01972 Y57.62638
G01 X-1.04107 Y57.66572
G01 X-1.06404 Y57.70452
G01 X-1.08848 Y57.74274
G01 X-1.11430 Y57.78033
G01 X-1.14143 Y57.81725
G01 X-1.16982 Y57.85345
G01 X-1.19937 Y57.88890
G01 X-1.23024 Y57.92356
G01 X-1.26229 Y57.95738
G01 X-1.29530 Y57.99033
G01 X-1.32923 Y58.02236
G01 X-1.36400 Y58.05346
G01 X-1.39955 Y58.08356
G01 X-1.43583 Y58.11265
G01 X-1.47295 Y58.14069
G01 X-1.51093 Y58.16765
G01 X-1.54949 Y58.19350
G01 X-1.58859 Y58.21820
G01 X-1.62817 Y58.24173
G01 X-1.66818 Y58.26407
G01 X-1.70857 Y58.28518
G01 X-1.74945 Y58.30504
G01 X-1.79106 Y58.32364
G01 X-1.83297 Y58.34094
G01 X-1.87515 Y58.35694
G01 X-1.91753 Y58.37160
G01 X-1.96006 Y58.38492
G01 X-2.00265 Y58.39688
G01 X-2.04536 Y58.40746
G01 X-2.08911 Y58.41666
G01 X-2.11640 Y58.42160
M50
M06
G01 X-2.18657 Y58.03390
G260
M08
G40
M51
G00 X-2.46289 Y58.04120
G41
N70 M07
G261
G01 X-2.50918 Y58.43247
G01 X-2.52289 Y58.43085
G01 X-2.56780 Y58.42446
G01 X-2.61089 Y58.41666
G01 X-2.65464 Y58.40746
G01 X-2.69735 Y58.39688
G01 X-2.73994 Y58.38492
G01 X-2.78247 Y58.37160
G01 X-2.82485 Y58.35694
G01 X-2.86703 Y58.34094
G01 X-2.90895 Y58.32364
G01 X-2.95055 Y58.30504
G01 X-2.99143 Y58.28518
G01 X-3.03182 Y58.26407
G01 X-3.07183 Y58.24173
G01 X-3.11141 Y58.21820
G01 X-3.15051 Y58.19350
G01 X-3.18907 Y58.16765
G01 X-3.22705 Y58.14069
G01 X-3.26417 Y58.11265
G01 X-3.30045 Y58.08356
G01 X-3.33600 Y58.05346
G01 X-3.37077 Y58.02236
G01 X-3.40470 Y57.99033
G01 X-3.43771 Y57.95738
G01 X-3.46976 Y57.92356
G01 X-3.50063 Y57.88890
G01 X-3.53018 Y57.85345
G01 X-3.55857 Y57.81725
G01 X-3.58570 Y57.78033
G01 X-3.61152 Y57.74274
G01 X-3.63596 Y57.70452
G01 X-3.65893 Y57.66572
G01 X-3.68028 Y57.62638
G01 X-3.69986 Y57.58654
G01 X-3.71754 Y57.54625
G01 X-3.73389 Y57.50556
G01 X-3.74782 Y57.46451
G01 X-3.76039 Y57.42315
G01 X-3.76403 Y57.40840
M50
M06
G01 X-3.38152 Y57.31393
G260
M08
G40
M51
G00 X-4.35000 Y60.32913
T21
G41
N71 M07
G261
G01 X-4.35000 Y60.19225
G01 X-0.35000 Y60.19225
G01 X-0.35000 Y54.19225
G01 X-4.35000 Y54.19225
G01 X-4.35000 Y60.19225
M50
G01 X-4.44957 Y60.19225
G260
M08
G40
M51
G00 X-4.35000 Y60.44061
G41
N72 M07
G261
G01 X-4.35000 Y60.54400
G01 X-4.35000 Y66.54400
G01 X-0.35000 Y66.54400
G01 X-0.35000 Y60.54400
G01 X-4.35000 Y60.54400
M50
G01 X-4.47304 Y60.54400
G260
M08
G40
M51
G00 X-0.36641 Y66.54400
(PartName=Remnant)
T21
G40
M07
G00 X-0.02000 Y66.74400
G01 X-0.42000 Y66.74400
G01 X-6.30998 Y66.74400
G01 X-6.30998 Y0.40000
M50
G01 X-6.30998 Y0.00000
M08
M51
(PlanFooterCommand)
T0
#CS OFF
M30
