(PP_NAME=PP_Din)
(PP_VERSION=	4.0)
(PP_INI_NAME=GC_US_PLASMA_4.7.ini)
(PP_INI_VERSION=2014-02-26)
(%%INFO MACHINE=HPRXD MS260)
(%%INFO Material=A516 GR.70 Thickness=0.5 PlateLength=47.356 PlateWidth=120)
(%%INFO PartName=775592-5=2pcs=3.54lbs)
(%%INFO PartName=775591-5=2pcs=3.54lbs)
(%%INFO PartName=762231-5=2pcs=9.07lbs)
(%%INFO PartName=770769-5=2pcs=14.16lbs)
(%%INFO PartName=762232-5=2pcs=9.07lbs)
(%%INFO PartName=762268-5=2pcs=9.07lbs)
(%%INFO PartName=762230-5=2pcs=9.07lbs)
(%%INFO TotalCutLength=553.18)
(%%INFO TotalPierceCount=15)
(%%INFO TotalProductionTime=00:09:02)
G70
#CONTOUR MODE[DEV PATH_DEV=0.008 RELEVANT_PATH=0.004]
G90
(PlanHeaderCommand)
G162
G141
G237
#CS ON [V.E.START_X, V.E.START_Y, 0, 0, 0, V.E.ROTATION]
M190
G00 X-10.23513 Y9.26500
T23
(PartName=770769-5)
N1 M09
G261
G01 X-9.94313 Y9.26500
G01 X-9.94313 Y9.42500
G01 X-9.58313 Y10.22500
G01 X-10.08793 Y10.22500
G01 X-10.08713 Y10.13300
G01 X-10.08793 Y10.22500
G01 X-9.58313 Y10.22500
G01 X-9.94313 Y9.42500
G01 X-9.94313 Y9.26500
G01 X-9.43513 Y9.26500
G01 X-9.14313 Y9.26500
G01 X-9.14313 Y9.42500
G01 X-8.78313 Y10.22500
G01 X-9.28793 Y10.22500
G01 X-9.28713 Y10.13300
G01 X-9.28793 Y10.22500
G01 X-8.78313 Y10.22500
G01 X-9.14313 Y9.42500
G01 X-9.14313 Y9.26500
G01 X-8.63513 Y9.26500
G01 X-8.27353 Y9.26500
G01 X-8.27353 Y9.42500
G01 X-8.37753 Y9.46100
G01 X-8.45273 Y9.57700
G01 X-8.48793 Y9.76660
G01 X-8.48793 Y9.88260
G01 X-8.45273 Y10.07220
G01 X-8.37753 Y10.18820
G01 X-8.27353 Y10.22500
G01 X-8.19753 Y10.22500
G01 X-8.08793 Y10.18820
G01 X-8.01833 Y10.07220
G01 X-7.98313 Y9.88260
G01 X-7.98313 Y9.76660
G01 X-8.01833 Y9.57700
G01 X-8.08793 Y9.46100
G01 X-8.19753 Y9.42500
G01 X-8.27353 Y9.42500
G01 X-8.27353 Y9.26500
G01 X-7.83513 Y9.26500
G01 X-7.54313 Y9.26500
G01 X-7.54313 Y9.42500
G01 X-7.18313 Y10.22500
G01 X-7.68793 Y10.22500
G01 X-7.68713 Y10.13300
G01 X-7.68793 Y10.22500
G01 X-7.18313 Y10.22500
G01 X-7.54313 Y9.42500
G01 X-7.54313 Y9.26500
G01 X-7.03513 Y9.26500
G01 X-6.65593 Y9.26500
G01 X-6.65593 Y9.42500
G01 X-6.62073 Y9.42500
G01 X-6.51113 Y9.46100
G01 X-6.43513 Y9.53460
G01 X-6.40073 Y9.65060
G01 X-6.40073 Y9.68740
G01 X-6.43513 Y9.80340
G01 X-6.51113 Y9.88260
G01 X-6.62073 Y9.91940
G01 X-6.65593 Y9.91940
G01 X-6.76633 Y9.88260
G01 X-6.83513 Y9.80340
G01 X-6.87033 Y9.68740
G01 X-6.87033 Y9.88260
G01 X-6.83513 Y10.07220
G01 X-6.76633 Y10.18820
G01 X-6.65593 Y10.22500
G01 X-6.58073 Y10.22500
G01 X-6.47593 Y10.18820
G01 X-6.43513 Y10.10820
G01 X-6.47593 Y10.18820
G01 X-6.58073 Y10.22500
G01 X-6.65593 Y10.22500
G01 X-6.76633 Y10.18820
G01 X-6.83513 Y10.07220
G01 X-6.87033 Y9.88260
G01 X-6.87033 Y9.68740
G01 X-6.83513 Y9.53460
G01 X-6.76633 Y9.46100
G01 X-6.65593 Y9.42500
G01 X-6.65593 Y9.26500
G01 X-6.23513 Y9.26500
G01 X-5.89033 Y9.26500
G01 X-5.89033 Y9.42500
G01 X-6.00073 Y9.46100
G01 X-6.03513 Y9.53460
G01 X-6.00073 Y9.46100
G01 X-5.89033 Y9.42500
G01 X-5.82073 Y9.42500
G01 X-5.71113 Y9.46100
G01 X-5.63513 Y9.57700
G01 X-5.60073 Y9.76660
G01 X-5.60073 Y9.95620
G01 X-5.63513 Y10.10820
G01 X-5.71113 Y10.18820
G01 X-5.82073 Y10.22500
G01 X-5.85593 Y10.22500
G01 X-5.96633 Y10.18820
G01 X-6.03513 Y10.10820
G01 X-6.07033 Y9.99220
G01 X-6.07033 Y9.95620
G01 X-6.03513 Y9.84020
G01 X-5.96633 Y9.76660
G01 X-5.85593 Y9.72980
G01 X-5.82073 Y9.72980
G01 X-5.71113 Y9.76660
G01 X-5.63513 Y9.84020
G01 X-5.60073 Y9.95620
G01 X-5.60073 Y9.76660
G01 X-5.63513 Y9.57700
G01 X-5.71113 Y9.46100
G01 X-5.82073 Y9.42500
G01 X-5.89033 Y9.42500
G01 X-5.89033 Y9.26500
G01 X-5.43513 Y9.26500
G01 X-5.35993 Y9.26500
G01 X-5.35993 Y9.76660
G01 X-4.71113 Y9.76660
G01 X-5.35993 Y9.76660
G01 X-5.35993 Y9.26500
G01 X-4.63513 Y9.26500
G01 X-4.30793 Y9.26500
G01 X-4.30793 Y9.42500
G01 X-4.41833 Y9.46100
G01 X-4.45273 Y9.49780
G01 X-4.48793 Y9.57700
G01 X-4.45273 Y9.49780
G01 X-4.41833 Y9.46100
G01 X-4.30793 Y9.42500
G01 X-4.19753 Y9.42500
G01 X-4.09353 Y9.46100
G01 X-4.01833 Y9.53460
G01 X-3.98313 Y9.65060
G01 X-3.98313 Y9.72980
G01 X-4.01833 Y9.84020
G01 X-4.09353 Y9.91940
G01 X-4.19753 Y9.95620
G01 X-4.30793 Y9.95620
G01 X-4.41833 Y9.91940
G01 X-4.45273 Y9.88260
G01 X-4.41833 Y10.22500
G01 X-4.05273 Y10.22500
G01 X-4.41833 Y10.22500
G01 X-4.45273 Y9.88260
G01 X-4.41833 Y9.91940
G01 X-4.30793 Y9.95620
G01 X-4.19753 Y9.95620
G01 X-4.09353 Y9.91940
G01 X-4.01833 Y9.84020
G01 X-3.98313 Y9.72980
G01 X-3.98313 Y9.65060
G01 X-4.01833 Y9.53460
G01 X-4.09353 Y9.46100
G01 X-4.19753 Y9.42500
G01 X-4.30793 Y9.42500
G01 X-4.30793 Y9.26500
G01 X-3.83513 Y9.26500
G260
M10
G00 X-1.07500 Y12.39766
(PartName=770769-5)
N2 M09
G261
G01 X-1.36700 Y12.39766
G01 X-1.36700 Y12.23766
G01 X-1.72700 Y11.43766
G01 X-1.22220 Y11.43766
G01 X-1.22300 Y11.52966
G01 X-1.22220 Y11.43766
G01 X-1.72700 Y11.43766
G01 X-1.36700 Y12.23766
G01 X-1.36700 Y12.39766
G01 X-1.87500 Y12.39766
G01 X-2.16700 Y12.39766
G01 X-2.16700 Y12.23766
G01 X-2.52700 Y11.43766
G01 X-2.02220 Y11.43766
G01 X-2.02300 Y11.52966
G01 X-2.02220 Y11.43766
G01 X-2.52700 Y11.43766
G01 X-2.16700 Y12.23766
G01 X-2.16700 Y12.39766
G01 X-2.67500 Y12.39766
G01 X-3.03660 Y12.39766
G01 X-3.03660 Y12.23766
G01 X-2.93260 Y12.20166
G01 X-2.85740 Y12.08566
G01 X-2.82220 Y11.89606
G01 X-2.82220 Y11.78006
G01 X-2.85740 Y11.59046
G01 X-2.93260 Y11.47446
G01 X-3.03660 Y11.43766
G01 X-3.11260 Y11.43766
G01 X-3.22220 Y11.47446
G01 X-3.29180 Y11.59046
G01 X-3.32700 Y11.78006
G01 X-3.32700 Y11.89606
G01 X-3.29180 Y12.08566
G01 X-3.22220 Y12.20166
G01 X-3.11260 Y12.23766
G01 X-3.03660 Y12.23766
G01 X-3.03660 Y12.39766
G01 X-3.47500 Y12.39766
G01 X-3.76700 Y12.39766
G01 X-3.76700 Y12.23766
G01 X-4.12700 Y11.43766
G01 X-3.62220 Y11.43766
G01 X-3.62300 Y11.52966
G01 X-3.62220 Y11.43766
G01 X-4.12700 Y11.43766
G01 X-3.76700 Y12.23766
G01 X-3.76700 Y12.39766
G01 X-4.27500 Y12.39766
G01 X-4.65420 Y12.39766
G01 X-4.65420 Y12.23766
G01 X-4.68940 Y12.23766
G01 X-4.79900 Y12.20166
G01 X-4.87500 Y12.12806
G01 X-4.90940 Y12.01206
G01 X-4.90940 Y11.97526
G01 X-4.87500 Y11.85926
G01 X-4.79900 Y11.78006
G01 X-4.68940 Y11.74326
G01 X-4.65420 Y11.74326
G01 X-4.54380 Y11.78006
G01 X-4.47500 Y11.85926
G01 X-4.43980 Y11.97526
G01 X-4.43980 Y11.78006
G01 X-4.47500 Y11.59046
G01 X-4.54380 Y11.47446
G01 X-4.65420 Y11.43766
G01 X-4.72940 Y11.43766
G01 X-4.83420 Y11.47446
G01 X-4.87500 Y11.55446
G01 X-4.83420 Y11.47446
G01 X-4.72940 Y11.43766
G01 X-4.65420 Y11.43766
G01 X-4.54380 Y11.47446
G01 X-4.47500 Y11.59046
G01 X-4.43980 Y11.78006
G01 X-4.43980 Y11.97526
G01 X-4.47500 Y12.12806
G01 X-4.54380 Y12.20166
G01 X-4.65420 Y12.23766
G01 X-4.65420 Y12.39766
G01 X-5.07500 Y12.39766
G01 X-5.41980 Y12.39766
G01 X-5.41980 Y12.23766
G01 X-5.30940 Y12.20166
G01 X-5.27500 Y12.12806
G01 X-5.30940 Y12.20166
G01 X-5.41980 Y12.23766
G01 X-5.48940 Y12.23766
G01 X-5.59900 Y12.20166
G01 X-5.67500 Y12.08566
G01 X-5.70940 Y11.89606
G01 X-5.70940 Y11.70646
G01 X-5.67500 Y11.55446
G01 X-5.59900 Y11.47446
G01 X-5.48940 Y11.43766
G01 X-5.45420 Y11.43766
G01 X-5.34380 Y11.47446
G01 X-5.27500 Y11.55446
G01 X-5.23980 Y11.67046
G01 X-5.23980 Y11.70646
G01 X-5.27500 Y11.82246
G01 X-5.34380 Y11.89606
G01 X-5.45420 Y11.93286
G01 X-5.48940 Y11.93286
G01 X-5.59900 Y11.89606
G01 X-5.67500 Y11.82246
G01 X-5.70940 Y11.70646
G01 X-5.70940 Y11.89606
G01 X-5.67500 Y12.08566
G01 X-5.59900 Y12.20166
G01 X-5.48940 Y12.23766
G01 X-5.41980 Y12.23766
G01 X-5.41980 Y12.39766
G01 X-5.87500 Y12.39766
G01 X-5.95020 Y12.39766
G01 X-5.95020 Y11.89606
G01 X-6.59900 Y11.89606
G01 X-5.95020 Y11.89606
G01 X-5.95020 Y12.39766
G01 X-6.67500 Y12.39766
G01 X-7.00220 Y12.39766
G01 X-7.00220 Y12.23766
G01 X-6.89180 Y12.20166
G01 X-6.85740 Y12.16486
G01 X-6.82220 Y12.08566
G01 X-6.85740 Y12.16486
G01 X-6.89180 Y12.20166
G01 X-7.00220 Y12.23766
G01 X-7.11260 Y12.23766
G01 X-7.21660 Y12.20166
G01 X-7.29180 Y12.12806
G01 X-7.32700 Y12.01206
G01 X-7.32700 Y11.93286
G01 X-7.29180 Y11.82246
G01 X-7.21660 Y11.74326
G01 X-7.11260 Y11.70646
G01 X-7.00220 Y11.70646
G01 X-6.89180 Y11.74326
G01 X-6.85740 Y11.78006
G01 X-6.89180 Y11.43766
G01 X-7.25740 Y11.43766
G01 X-6.89180 Y11.43766
G01 X-6.85740 Y11.78006
G01 X-6.89180 Y11.74326
G01 X-7.00220 Y11.70646
G01 X-7.11260 Y11.70646
G01 X-7.21660 Y11.74326
G01 X-7.29180 Y11.82246
G01 X-7.32700 Y11.93286
G01 X-7.32700 Y12.01206
G01 X-7.29180 Y12.12806
G01 X-7.21660 Y12.20166
G01 X-7.11260 Y12.23766
G01 X-7.00220 Y12.23766
G01 X-7.00220 Y12.39766
G01 X-7.47500 Y12.39766
G260
M10
G00 X-8.22538 Y28.57766
(PartName=762232-5)
N3 M09
G261
G01 X-7.93338 Y28.57766
G01 X-7.93338 Y28.73766
G01 X-7.57338 Y29.53766
G01 X-8.07818 Y29.53766
G01 X-8.07738 Y29.44566
G01 X-8.07818 Y29.53766
G01 X-7.57338 Y29.53766
G01 X-7.93338 Y28.73766
G01 X-7.93338 Y28.57766
G01 X-7.42538 Y28.57766
G01 X-7.04618 Y28.57766
G01 X-7.04618 Y28.73766
G01 X-7.01098 Y28.73766
G01 X-6.90138 Y28.77366
G01 X-6.82538 Y28.84726
G01 X-6.79098 Y28.96326
G01 X-6.79098 Y29.00006
G01 X-6.82538 Y29.11606
G01 X-6.90138 Y29.19526
G01 X-7.01098 Y29.23206
G01 X-7.04618 Y29.23206
G01 X-7.15658 Y29.19526
G01 X-7.22538 Y29.11606
G01 X-7.26058 Y29.00006
G01 X-7.26058 Y29.19526
G01 X-7.22538 Y29.38486
G01 X-7.15658 Y29.50086
G01 X-7.04618 Y29.53766
G01 X-6.97098 Y29.53766
G01 X-6.86618 Y29.50086
G01 X-6.82538 Y29.42086
G01 X-6.86618 Y29.50086
G01 X-6.97098 Y29.53766
G01 X-7.04618 Y29.53766
G01 X-7.15658 Y29.50086
G01 X-7.22538 Y29.38486
G01 X-7.26058 Y29.19526
G01 X-7.26058 Y29.00006
G01 X-7.22538 Y28.84726
G01 X-7.15658 Y28.77366
G01 X-7.04618 Y28.73766
G01 X-7.04618 Y28.57766
G01 X-6.62538 Y28.57766
G01 X-6.47818 Y28.57766
G01 X-6.47818 Y28.73766
G01 X-5.97338 Y28.73766
G01 X-6.47818 Y28.73766
G01 X-6.11818 Y29.11606
G01 X-6.04298 Y29.23206
G01 X-6.00858 Y29.30486
G01 X-6.00858 Y29.38486
G01 X-6.04298 Y29.45766
G01 X-6.08378 Y29.50086
G01 X-6.15338 Y29.53766
G01 X-6.29818 Y29.53766
G01 X-6.37338 Y29.50086
G01 X-6.40858 Y29.45766
G01 X-6.44298 Y29.38486
G01 X-6.44298 Y29.34806
G01 X-6.44298 Y29.38486
G01 X-6.40858 Y29.45766
G01 X-6.37338 Y29.50086
G01 X-6.29818 Y29.53766
G01 X-6.15338 Y29.53766
G01 X-6.08378 Y29.50086
G01 X-6.04298 Y29.45766
G01 X-6.00858 Y29.38486
G01 X-6.00858 Y29.30486
G01 X-6.04298 Y29.23206
G01 X-6.11818 Y29.11606
G01 X-6.47818 Y28.73766
G01 X-6.47818 Y28.57766
G01 X-5.82538 Y28.57766
G01 X-5.67818 Y28.57766
G01 X-5.67818 Y28.73766
G01 X-5.17338 Y28.73766
G01 X-5.67818 Y28.73766
G01 X-5.31818 Y29.11606
G01 X-5.24298 Y29.23206
G01 X-5.20858 Y29.30486
G01 X-5.20858 Y29.38486
G01 X-5.24298 Y29.45766
G01 X-5.28378 Y29.50086
G01 X-5.35338 Y29.53766
G01 X-5.49818 Y29.53766
G01 X-5.57338 Y29.50086
G01 X-5.60858 Y29.45766
G01 X-5.64298 Y29.38486
G01 X-5.64298 Y29.34806
G01 X-5.64298 Y29.38486
G01 X-5.60858 Y29.45766
G01 X-5.57338 Y29.50086
G01 X-5.49818 Y29.53766
G01 X-5.35338 Y29.53766
G01 X-5.28378 Y29.50086
G01 X-5.24298 Y29.45766
G01 X-5.20858 Y29.38486
G01 X-5.20858 Y29.30486
G01 X-5.24298 Y29.23206
G01 X-5.31818 Y29.11606
G01 X-5.67818 Y28.73766
G01 X-5.67818 Y28.57766
G01 X-5.02538 Y28.57766
G01 X-4.69818 Y28.57766
G01 X-4.69818 Y28.73766
G01 X-4.80858 Y28.77366
G01 X-4.84298 Y28.81046
G01 X-4.87818 Y28.88966
G01 X-4.84298 Y28.81046
G01 X-4.80858 Y28.77366
G01 X-4.69818 Y28.73766
G01 X-4.58778 Y28.73766
G01 X-4.48378 Y28.77366
G01 X-4.40858 Y28.84726
G01 X-4.37338 Y28.96326
G01 X-4.37338 Y29.04246
G01 X-4.40858 Y29.15286
G01 X-4.44298 Y29.19526
G01 X-4.51818 Y29.23206
G01 X-4.62858 Y29.23206
G01 X-4.40858 Y29.53766
G01 X-4.80858 Y29.53766
G01 X-4.40858 Y29.53766
G01 X-4.62858 Y29.23206
G01 X-4.51818 Y29.23206
G01 X-4.44298 Y29.19526
G01 X-4.40858 Y29.15286
G01 X-4.37338 Y29.04246
G01 X-4.37338 Y28.96326
G01 X-4.40858 Y28.84726
G01 X-4.48378 Y28.77366
G01 X-4.58778 Y28.73766
G01 X-4.69818 Y28.73766
G01 X-4.69818 Y28.57766
G01 X-4.22538 Y28.57766
G01 X-4.07818 Y28.57766
G01 X-4.07818 Y28.73766
G01 X-3.57338 Y28.73766
G01 X-4.07818 Y28.73766
G01 X-3.71818 Y29.11606
G01 X-3.64298 Y29.23206
G01 X-3.60858 Y29.30486
G01 X-3.60858 Y29.38486
G01 X-3.64298 Y29.45766
G01 X-3.68378 Y29.50086
G01 X-3.75338 Y29.53766
G01 X-3.89818 Y29.53766
G01 X-3.97338 Y29.50086
G01 X-4.00858 Y29.45766
G01 X-4.04298 Y29.38486
G01 X-4.04298 Y29.34806
G01 X-4.04298 Y29.38486
G01 X-4.00858 Y29.45766
G01 X-3.97338 Y29.50086
G01 X-3.89818 Y29.53766
G01 X-3.75338 Y29.53766
G01 X-3.68378 Y29.50086
G01 X-3.64298 Y29.45766
G01 X-3.60858 Y29.38486
G01 X-3.60858 Y29.30486
G01 X-3.64298 Y29.23206
G01 X-3.71818 Y29.11606
G01 X-4.07818 Y28.73766
G01 X-4.07818 Y28.57766
G01 X-3.42538 Y28.57766
G01 X-3.35018 Y28.57766
G01 X-3.35018 Y29.07926
G01 X-2.70138 Y29.07926
G01 X-3.35018 Y29.07926
G01 X-3.35018 Y28.57766
G01 X-2.62538 Y28.57766
G01 X-2.29818 Y28.57766
G01 X-2.29818 Y28.73766
G01 X-2.40858 Y28.77366
G01 X-2.44298 Y28.81046
G01 X-2.47818 Y28.88966
G01 X-2.44298 Y28.81046
G01 X-2.40858 Y28.77366
G01 X-2.29818 Y28.73766
G01 X-2.18778 Y28.73766
G01 X-2.08378 Y28.77366
G01 X-2.00858 Y28.84726
G01 X-1.97338 Y28.96326
G01 X-1.97338 Y29.04246
G01 X-2.00858 Y29.15286
G01 X-2.08378 Y29.23206
G01 X-2.18778 Y29.26886
G01 X-2.29818 Y29.26886
G01 X-2.40858 Y29.23206
G01 X-2.44298 Y29.19526
G01 X-2.40858 Y29.53766
G01 X-2.04298 Y29.53766
G01 X-2.40858 Y29.53766
G01 X-2.44298 Y29.19526
G01 X-2.40858 Y29.23206
G01 X-2.29818 Y29.26886
G01 X-2.18778 Y29.26886
G01 X-2.08378 Y29.23206
G01 X-2.00858 Y29.15286
G01 X-1.97338 Y29.04246
G01 X-1.97338 Y28.96326
G01 X-2.00858 Y28.84726
G01 X-2.08378 Y28.77366
G01 X-2.18778 Y28.73766
G01 X-2.29818 Y28.73766
G01 X-2.29818 Y28.57766
G01 X-1.82538 Y28.57766
G260
M10
G00 X-1.07500 Y31.71419
(PartName=762232-5)
N4 M09
G261
G01 X-1.36700 Y31.71419
G01 X-1.36700 Y31.55419
G01 X-1.72700 Y30.75419
G01 X-1.22220 Y30.75419
G01 X-1.22300 Y30.84619
G01 X-1.22220 Y30.75419
G01 X-1.72700 Y30.75419
G01 X-1.36700 Y31.55419
G01 X-1.36700 Y31.71419
G01 X-1.87500 Y31.71419
G01 X-2.25420 Y31.71419
G01 X-2.25420 Y31.55419
G01 X-2.28940 Y31.55419
G01 X-2.39900 Y31.51819
G01 X-2.47500 Y31.44459
G01 X-2.50940 Y31.32859
G01 X-2.50940 Y31.29179
G01 X-2.47500 Y31.17579
G01 X-2.39900 Y31.09659
G01 X-2.28940 Y31.05979
G01 X-2.25420 Y31.05979
G01 X-2.14380 Y31.09659
G01 X-2.07500 Y31.17579
G01 X-2.03980 Y31.29179
G01 X-2.03980 Y31.09659
G01 X-2.07500 Y30.90699
G01 X-2.14380 Y30.79099
G01 X-2.25420 Y30.75419
G01 X-2.32940 Y30.75419
G01 X-2.43420 Y30.79099
G01 X-2.47500 Y30.87099
G01 X-2.43420 Y30.79099
G01 X-2.32940 Y30.75419
G01 X-2.25420 Y30.75419
G01 X-2.14380 Y30.79099
G01 X-2.07500 Y30.90699
G01 X-2.03980 Y31.09659
G01 X-2.03980 Y31.29179
G01 X-2.07500 Y31.44459
G01 X-2.14380 Y31.51819
G01 X-2.25420 Y31.55419
G01 X-2.25420 Y31.71419
G01 X-2.67500 Y31.71419
G01 X-2.82220 Y31.71419
G01 X-2.82220 Y31.55419
G01 X-3.32700 Y31.55419
G01 X-2.82220 Y31.55419
G01 X-3.18220 Y31.17579
G01 X-3.25740 Y31.05979
G01 X-3.29180 Y30.98699
G01 X-3.29180 Y30.90699
G01 X-3.25740 Y30.83419
G01 X-3.21660 Y30.79099
G01 X-3.14700 Y30.75419
G01 X-3.00220 Y30.75419
G01 X-2.92700 Y30.79099
G01 X-2.89180 Y30.83419
G01 X-2.85740 Y30.90699
G01 X-2.85740 Y30.94379
G01 X-2.85740 Y30.90699
G01 X-2.89180 Y30.83419
G01 X-2.92700 Y30.79099
G01 X-3.00220 Y30.75419
G01 X-3.14700 Y30.75419
G01 X-3.21660 Y30.79099
G01 X-3.25740 Y30.83419
G01 X-3.29180 Y30.90699
G01 X-3.29180 Y30.98699
G01 X-3.25740 Y31.05979
G01 X-3.18220 Y31.17579
G01 X-2.82220 Y31.55419
G01 X-2.82220 Y31.71419
G01 X-3.47500 Y31.71419
G01 X-3.62220 Y31.71419
G01 X-3.62220 Y31.55419
G01 X-4.12700 Y31.55419
G01 X-3.62220 Y31.55419
G01 X-3.98220 Y31.17579
G01 X-4.05740 Y31.05979
G01 X-4.09180 Y30.98699
G01 X-4.09180 Y30.90699
G01 X-4.05740 Y30.83419
G01 X-4.01660 Y30.79099
G01 X-3.94700 Y30.75419
G01 X-3.80220 Y30.75419
G01 X-3.72700 Y30.79099
G01 X-3.69180 Y30.83419
G01 X-3.65740 Y30.90699
G01 X-3.65740 Y30.94379
G01 X-3.65740 Y30.90699
G01 X-3.69180 Y30.83419
G01 X-3.72700 Y30.79099
G01 X-3.80220 Y30.75419
G01 X-3.94700 Y30.75419
G01 X-4.01660 Y30.79099
G01 X-4.05740 Y30.83419
G01 X-4.09180 Y30.90699
G01 X-4.09180 Y30.98699
G01 X-4.05740 Y31.05979
G01 X-3.98220 Y31.17579
G01 X-3.62220 Y31.55419
G01 X-3.62220 Y31.71419
G01 X-4.27500 Y31.71419
G01 X-4.60220 Y31.71419
G01 X-4.60220 Y31.55419
G01 X-4.49180 Y31.51819
G01 X-4.45740 Y31.48139
G01 X-4.42220 Y31.40219
G01 X-4.45740 Y31.48139
G01 X-4.49180 Y31.51819
G01 X-4.60220 Y31.55419
G01 X-4.71260 Y31.55419
G01 X-4.81660 Y31.51819
G01 X-4.89180 Y31.44459
G01 X-4.92700 Y31.32859
G01 X-4.92700 Y31.24939
G01 X-4.89180 Y31.13899
G01 X-4.85740 Y31.09659
G01 X-4.78220 Y31.05979
G01 X-4.67180 Y31.05979
G01 X-4.89180 Y30.75419
G01 X-4.49180 Y30.75419
G01 X-4.89180 Y30.75419
G01 X-4.67180 Y31.05979
G01 X-4.78220 Y31.05979
G01 X-4.85740 Y31.09659
G01 X-4.89180 Y31.13899
G01 X-4.92700 Y31.24939
G01 X-4.92700 Y31.32859
G01 X-4.89180 Y31.44459
G01 X-4.81660 Y31.51819
G01 X-4.71260 Y31.55419
G01 X-4.60220 Y31.55419
G01 X-4.60220 Y31.71419
G01 X-5.07500 Y31.71419
G01 X-5.22220 Y31.71419
G01 X-5.22220 Y31.55419
G01 X-5.72700 Y31.55419
G01 X-5.22220 Y31.55419
G01 X-5.58220 Y31.17579
G01 X-5.65740 Y31.05979
G01 X-5.69180 Y30.98699
G01 X-5.69180 Y30.90699
G01 X-5.65740 Y30.83419
G01 X-5.61660 Y30.79099
G01 X-5.54700 Y30.75419
G01 X-5.40220 Y30.75419
G01 X-5.32700 Y30.79099
G01 X-5.29180 Y30.83419
G01 X-5.25740 Y30.90699
G01 X-5.25740 Y30.94379
G01 X-5.25740 Y30.90699
G01 X-5.29180 Y30.83419
G01 X-5.32700 Y30.79099
G01 X-5.40220 Y30.75419
G01 X-5.54700 Y30.75419
G01 X-5.61660 Y30.79099
G01 X-5.65740 Y30.83419
G01 X-5.69180 Y30.90699
G01 X-5.69180 Y30.98699
G01 X-5.65740 Y31.05979
G01 X-5.58220 Y31.17579
G01 X-5.22220 Y31.55419
G01 X-5.22220 Y31.71419
G01 X-5.87500 Y31.71419
G01 X-5.95020 Y31.71419
G01 X-5.95020 Y31.21259
G01 X-6.59900 Y31.21259
G01 X-5.95020 Y31.21259
G01 X-5.95020 Y31.71419
G01 X-6.67500 Y31.71419
G01 X-7.00220 Y31.71419
G01 X-7.00220 Y31.55419
G01 X-6.89180 Y31.51819
G01 X-6.85740 Y31.48139
G01 X-6.82220 Y31.40219
G01 X-6.85740 Y31.48139
G01 X-6.89180 Y31.51819
G01 X-7.00220 Y31.55419
G01 X-7.11260 Y31.55419
G01 X-7.21660 Y31.51819
G01 X-7.29180 Y31.44459
G01 X-7.32700 Y31.32859
G01 X-7.32700 Y31.24939
G01 X-7.29180 Y31.13899
G01 X-7.21660 Y31.05979
G01 X-7.11260 Y31.02299
G01 X-7.00220 Y31.02299
G01 X-6.89180 Y31.05979
G01 X-6.85740 Y31.09659
G01 X-6.89180 Y30.75419
G01 X-7.25740 Y30.75419
G01 X-6.89180 Y30.75419
G01 X-6.85740 Y31.09659
G01 X-6.89180 Y31.05979
G01 X-7.00220 Y31.02299
G01 X-7.11260 Y31.02299
G01 X-7.21660 Y31.05979
G01 X-7.29180 Y31.13899
G01 X-7.32700 Y31.24939
G01 X-7.32700 Y31.32859
G01 X-7.29180 Y31.44459
G01 X-7.21660 Y31.51819
G01 X-7.11260 Y31.55419
G01 X-7.00220 Y31.55419
G01 X-7.00220 Y31.71419
G01 X-7.47500 Y31.71419
G260
M10
G00 X-8.22538 Y45.89419
(PartName=762231-5)
N5 M09
G261
G01 X-7.93338 Y45.89419
G01 X-7.93338 Y46.05419
G01 X-7.57338 Y46.85419
G01 X-8.07818 Y46.85419
G01 X-8.07738 Y46.76219
G01 X-8.07818 Y46.85419
G01 X-7.57338 Y46.85419
G01 X-7.93338 Y46.05419
G01 X-7.93338 Y45.89419
G01 X-7.42538 Y45.89419
G01 X-7.04618 Y45.89419
G01 X-7.04618 Y46.05419
G01 X-7.01098 Y46.05419
G01 X-6.90138 Y46.09019
G01 X-6.82538 Y46.16379
G01 X-6.79098 Y46.27979
G01 X-6.79098 Y46.31659
G01 X-6.82538 Y46.43259
G01 X-6.90138 Y46.51179
G01 X-7.01098 Y46.54859
G01 X-7.04618 Y46.54859
G01 X-7.15658 Y46.51179
G01 X-7.22538 Y46.43259
G01 X-7.26058 Y46.31659
G01 X-7.26058 Y46.51179
G01 X-7.22538 Y46.70139
G01 X-7.15658 Y46.81739
G01 X-7.04618 Y46.85419
G01 X-6.97098 Y46.85419
G01 X-6.86618 Y46.81739
G01 X-6.82538 Y46.73739
G01 X-6.86618 Y46.81739
G01 X-6.97098 Y46.85419
G01 X-7.04618 Y46.85419
G01 X-7.15658 Y46.81739
G01 X-7.22538 Y46.70139
G01 X-7.26058 Y46.51179
G01 X-7.26058 Y46.31659
G01 X-7.22538 Y46.16379
G01 X-7.15658 Y46.09019
G01 X-7.04618 Y46.05419
G01 X-7.04618 Y45.89419
G01 X-6.62538 Y45.89419
G01 X-6.47818 Y45.89419
G01 X-6.47818 Y46.05419
G01 X-5.97338 Y46.05419
G01 X-6.47818 Y46.05419
G01 X-6.11818 Y46.43259
G01 X-6.04298 Y46.54859
G01 X-6.00858 Y46.62139
G01 X-6.00858 Y46.70139
G01 X-6.04298 Y46.77419
G01 X-6.08378 Y46.81739
G01 X-6.15338 Y46.85419
G01 X-6.29818 Y46.85419
G01 X-6.37338 Y46.81739
G01 X-6.40858 Y46.77419
G01 X-6.44298 Y46.70139
G01 X-6.44298 Y46.66459
G01 X-6.44298 Y46.70139
G01 X-6.40858 Y46.77419
G01 X-6.37338 Y46.81739
G01 X-6.29818 Y46.85419
G01 X-6.15338 Y46.85419
G01 X-6.08378 Y46.81739
G01 X-6.04298 Y46.77419
G01 X-6.00858 Y46.70139
G01 X-6.00858 Y46.62139
G01 X-6.04298 Y46.54859
G01 X-6.11818 Y46.43259
G01 X-6.47818 Y46.05419
G01 X-6.47818 Y45.89419
G01 X-5.82538 Y45.89419
G01 X-5.67818 Y45.89419
G01 X-5.67818 Y46.05419
G01 X-5.17338 Y46.05419
G01 X-5.67818 Y46.05419
G01 X-5.31818 Y46.43259
G01 X-5.24298 Y46.54859
G01 X-5.20858 Y46.62139
G01 X-5.20858 Y46.70139
G01 X-5.24298 Y46.77419
G01 X-5.28378 Y46.81739
G01 X-5.35338 Y46.85419
G01 X-5.49818 Y46.85419
G01 X-5.57338 Y46.81739
G01 X-5.60858 Y46.77419
G01 X-5.64298 Y46.70139
G01 X-5.64298 Y46.66459
G01 X-5.64298 Y46.70139
G01 X-5.60858 Y46.77419
G01 X-5.57338 Y46.81739
G01 X-5.49818 Y46.85419
G01 X-5.35338 Y46.85419
G01 X-5.28378 Y46.81739
G01 X-5.24298 Y46.77419
G01 X-5.20858 Y46.70139
G01 X-5.20858 Y46.62139
G01 X-5.24298 Y46.54859
G01 X-5.31818 Y46.43259
G01 X-5.67818 Y46.05419
G01 X-5.67818 Y45.89419
G01 X-5.02538 Y45.89419
G01 X-4.69818 Y45.89419
G01 X-4.69818 Y46.05419
G01 X-4.80858 Y46.09019
G01 X-4.84298 Y46.12699
G01 X-4.87818 Y46.20619
G01 X-4.84298 Y46.12699
G01 X-4.80858 Y46.09019
G01 X-4.69818 Y46.05419
G01 X-4.58778 Y46.05419
G01 X-4.48378 Y46.09019
G01 X-4.40858 Y46.16379
G01 X-4.37338 Y46.27979
G01 X-4.37338 Y46.35899
G01 X-4.40858 Y46.46939
G01 X-4.44298 Y46.51179
G01 X-4.51818 Y46.54859
G01 X-4.62858 Y46.54859
G01 X-4.40858 Y46.85419
G01 X-4.80858 Y46.85419
G01 X-4.40858 Y46.85419
G01 X-4.62858 Y46.54859
G01 X-4.51818 Y46.54859
G01 X-4.44298 Y46.51179
G01 X-4.40858 Y46.46939
G01 X-4.37338 Y46.35899
G01 X-4.37338 Y46.27979
G01 X-4.40858 Y46.16379
G01 X-4.48378 Y46.09019
G01 X-4.58778 Y46.05419
G01 X-4.69818 Y46.05419
G01 X-4.69818 Y45.89419
G01 X-4.22538 Y45.89419
G01 X-3.73578 Y45.89419
G01 X-3.73578 Y46.05419
G01 X-3.73578 Y46.85419
G01 X-3.84618 Y46.73739
G01 X-3.91578 Y46.70139
G01 X-3.84618 Y46.73739
G01 X-3.73578 Y46.85419
G01 X-3.73578 Y46.05419
G01 X-3.73578 Y45.89419
G01 X-3.42538 Y45.89419
G01 X-3.35018 Y45.89419
G01 X-3.35018 Y46.39579
G01 X-2.70138 Y46.39579
G01 X-3.35018 Y46.39579
G01 X-3.35018 Y45.89419
G01 X-2.62538 Y45.89419
G01 X-2.29818 Y45.89419
G01 X-2.29818 Y46.05419
G01 X-2.40858 Y46.09019
G01 X-2.44298 Y46.12699
G01 X-2.47818 Y46.20619
G01 X-2.44298 Y46.12699
G01 X-2.40858 Y46.09019
G01 X-2.29818 Y46.05419
G01 X-2.18778 Y46.05419
G01 X-2.08378 Y46.09019
G01 X-2.00858 Y46.16379
G01 X-1.97338 Y46.27979
G01 X-1.97338 Y46.35899
G01 X-2.00858 Y46.46939
G01 X-2.08378 Y46.54859
G01 X-2.18778 Y46.58539
G01 X-2.29818 Y46.58539
G01 X-2.40858 Y46.54859
G01 X-2.44298 Y46.51179
G01 X-2.40858 Y46.85419
G01 X-2.04298 Y46.85419
G01 X-2.40858 Y46.85419
G01 X-2.44298 Y46.51179
G01 X-2.40858 Y46.54859
G01 X-2.29818 Y46.58539
G01 X-2.18778 Y46.58539
G01 X-2.08378 Y46.54859
G01 X-2.00858 Y46.46939
G01 X-1.97338 Y46.35899
G01 X-1.97338 Y46.27979
G01 X-2.00858 Y46.16379
G01 X-2.08378 Y46.09019
G01 X-2.18778 Y46.05419
G01 X-2.29818 Y46.05419
G01 X-2.29818 Y45.89419
G01 X-1.82538 Y45.89419
G260
M10
G00 X-1.07500 Y49.03072
(PartName=762231-5)
N6 M09
G261
G01 X-1.36700 Y49.03072
G01 X-1.36700 Y48.87072
G01 X-1.72700 Y48.07072
G01 X-1.22220 Y48.07072
G01 X-1.22300 Y48.16272
G01 X-1.22220 Y48.07072
G01 X-1.72700 Y48.07072
G01 X-1.36700 Y48.87072
G01 X-1.36700 Y49.03072
G01 X-1.87500 Y49.03072
G01 X-2.25420 Y49.03072
G01 X-2.25420 Y48.87072
G01 X-2.28940 Y48.87072
G01 X-2.39900 Y48.83472
G01 X-2.47500 Y48.76112
G01 X-2.50940 Y48.64512
G01 X-2.50940 Y48.60832
G01 X-2.47500 Y48.49232
G01 X-2.39900 Y48.41312
G01 X-2.28940 Y48.37632
G01 X-2.25420 Y48.37632
G01 X-2.14380 Y48.41312
G01 X-2.07500 Y48.49232
G01 X-2.03980 Y48.60832
G01 X-2.03980 Y48.41312
G01 X-2.07500 Y48.22352
G01 X-2.14380 Y48.10752
G01 X-2.25420 Y48.07072
G01 X-2.32940 Y48.07072
G01 X-2.43420 Y48.10752
G01 X-2.47500 Y48.18752
G01 X-2.43420 Y48.10752
G01 X-2.32940 Y48.07072
G01 X-2.25420 Y48.07072
G01 X-2.14380 Y48.10752
G01 X-2.07500 Y48.22352
G01 X-2.03980 Y48.41312
G01 X-2.03980 Y48.60832
G01 X-2.07500 Y48.76112
G01 X-2.14380 Y48.83472
G01 X-2.25420 Y48.87072
G01 X-2.25420 Y49.03072
G01 X-2.67500 Y49.03072
G01 X-2.82220 Y49.03072
G01 X-2.82220 Y48.87072
G01 X-3.32700 Y48.87072
G01 X-2.82220 Y48.87072
G01 X-3.18220 Y48.49232
G01 X-3.25740 Y48.37632
G01 X-3.29180 Y48.30352
G01 X-3.29180 Y48.22352
G01 X-3.25740 Y48.15072
G01 X-3.21660 Y48.10752
G01 X-3.14700 Y48.07072
G01 X-3.00220 Y48.07072
G01 X-2.92700 Y48.10752
G01 X-2.89180 Y48.15072
G01 X-2.85740 Y48.22352
G01 X-2.85740 Y48.26032
G01 X-2.85740 Y48.22352
G01 X-2.89180 Y48.15072
G01 X-2.92700 Y48.10752
G01 X-3.00220 Y48.07072
G01 X-3.14700 Y48.07072
G01 X-3.21660 Y48.10752
G01 X-3.25740 Y48.15072
G01 X-3.29180 Y48.22352
G01 X-3.29180 Y48.30352
G01 X-3.25740 Y48.37632
G01 X-3.18220 Y48.49232
G01 X-2.82220 Y48.87072
G01 X-2.82220 Y49.03072
G01 X-3.47500 Y49.03072
G01 X-3.62220 Y49.03072
G01 X-3.62220 Y48.87072
G01 X-4.12700 Y48.87072
G01 X-3.62220 Y48.87072
G01 X-3.98220 Y48.49232
G01 X-4.05740 Y48.37632
G01 X-4.09180 Y48.30352
G01 X-4.09180 Y48.22352
G01 X-4.05740 Y48.15072
G01 X-4.01660 Y48.10752
G01 X-3.94700 Y48.07072
G01 X-3.80220 Y48.07072
G01 X-3.72700 Y48.10752
G01 X-3.69180 Y48.15072
G01 X-3.65740 Y48.22352
G01 X-3.65740 Y48.26032
G01 X-3.65740 Y48.22352
G01 X-3.69180 Y48.15072
G01 X-3.72700 Y48.10752
G01 X-3.80220 Y48.07072
G01 X-3.94700 Y48.07072
G01 X-4.01660 Y48.10752
G01 X-4.05740 Y48.15072
G01 X-4.09180 Y48.22352
G01 X-4.09180 Y48.30352
G01 X-4.05740 Y48.37632
G01 X-3.98220 Y48.49232
G01 X-3.62220 Y48.87072
G01 X-3.62220 Y49.03072
G01 X-4.27500 Y49.03072
G01 X-4.60220 Y49.03072
G01 X-4.60220 Y48.87072
G01 X-4.49180 Y48.83472
G01 X-4.45740 Y48.79792
G01 X-4.42220 Y48.71872
G01 X-4.45740 Y48.79792
G01 X-4.49180 Y48.83472
G01 X-4.60220 Y48.87072
G01 X-4.71260 Y48.87072
G01 X-4.81660 Y48.83472
G01 X-4.89180 Y48.76112
G01 X-4.92700 Y48.64512
G01 X-4.92700 Y48.56592
G01 X-4.89180 Y48.45552
G01 X-4.85740 Y48.41312
G01 X-4.78220 Y48.37632
G01 X-4.67180 Y48.37632
G01 X-4.89180 Y48.07072
G01 X-4.49180 Y48.07072
G01 X-4.89180 Y48.07072
G01 X-4.67180 Y48.37632
G01 X-4.78220 Y48.37632
G01 X-4.85740 Y48.41312
G01 X-4.89180 Y48.45552
G01 X-4.92700 Y48.56592
G01 X-4.92700 Y48.64512
G01 X-4.89180 Y48.76112
G01 X-4.81660 Y48.83472
G01 X-4.71260 Y48.87072
G01 X-4.60220 Y48.87072
G01 X-4.60220 Y49.03072
G01 X-5.07500 Y49.03072
G01 X-5.56460 Y49.03072
G01 X-5.56460 Y48.87072
G01 X-5.56460 Y48.07072
G01 X-5.45420 Y48.18752
G01 X-5.38460 Y48.22352
G01 X-5.45420 Y48.18752
G01 X-5.56460 Y48.07072
G01 X-5.56460 Y48.87072
G01 X-5.56460 Y49.03072
G01 X-5.87500 Y49.03072
G01 X-5.95020 Y49.03072
G01 X-5.95020 Y48.52912
G01 X-6.59900 Y48.52912
G01 X-5.95020 Y48.52912
G01 X-5.95020 Y49.03072
G01 X-6.67500 Y49.03072
G01 X-7.00220 Y49.03072
G01 X-7.00220 Y48.87072
G01 X-6.89180 Y48.83472
G01 X-6.85740 Y48.79792
G01 X-6.82220 Y48.71872
G01 X-6.85740 Y48.79792
G01 X-6.89180 Y48.83472
G01 X-7.00220 Y48.87072
G01 X-7.11260 Y48.87072
G01 X-7.21660 Y48.83472
G01 X-7.29180 Y48.76112
G01 X-7.32700 Y48.64512
G01 X-7.32700 Y48.56592
G01 X-7.29180 Y48.45552
G01 X-7.21660 Y48.37632
G01 X-7.11260 Y48.33952
G01 X-7.00220 Y48.33952
G01 X-6.89180 Y48.37632
G01 X-6.85740 Y48.41312
G01 X-6.89180 Y48.07072
G01 X-7.25740 Y48.07072
G01 X-6.89180 Y48.07072
G01 X-6.85740 Y48.41312
G01 X-6.89180 Y48.37632
G01 X-7.00220 Y48.33952
G01 X-7.11260 Y48.33952
G01 X-7.21660 Y48.37632
G01 X-7.29180 Y48.45552
G01 X-7.32700 Y48.56592
G01 X-7.32700 Y48.64512
G01 X-7.29180 Y48.76112
G01 X-7.21660 Y48.83472
G01 X-7.11260 Y48.87072
G01 X-7.00220 Y48.87072
G01 X-7.00220 Y49.03072
G01 X-7.47500 Y49.03072
G260
M10
G00 X-8.22538 Y63.21072
(PartName=762230-5)
N7 M09
G261
G01 X-7.93338 Y63.21072
G01 X-7.93338 Y63.37072
G01 X-7.57338 Y64.17072
G01 X-8.07818 Y64.17072
G01 X-8.07738 Y64.07872
G01 X-8.07818 Y64.17072
G01 X-7.57338 Y64.17072
G01 X-7.93338 Y63.37072
G01 X-7.93338 Y63.21072
G01 X-7.42538 Y63.21072
G01 X-7.04618 Y63.21072
G01 X-7.04618 Y63.37072
G01 X-7.01098 Y63.37072
G01 X-6.90138 Y63.40672
G01 X-6.82538 Y63.48032
G01 X-6.79098 Y63.59632
G01 X-6.79098 Y63.63312
G01 X-6.82538 Y63.74912
G01 X-6.90138 Y63.82832
G01 X-7.01098 Y63.86512
G01 X-7.04618 Y63.86512
G01 X-7.15658 Y63.82832
G01 X-7.22538 Y63.74912
G01 X-7.26058 Y63.63312
G01 X-7.26058 Y63.82832
G01 X-7.22538 Y64.01792
G01 X-7.15658 Y64.13392
G01 X-7.04618 Y64.17072
G01 X-6.97098 Y64.17072
G01 X-6.86618 Y64.13392
G01 X-6.82538 Y64.05392
G01 X-6.86618 Y64.13392
G01 X-6.97098 Y64.17072
G01 X-7.04618 Y64.17072
G01 X-7.15658 Y64.13392
G01 X-7.22538 Y64.01792
G01 X-7.26058 Y63.82832
G01 X-7.26058 Y63.63312
G01 X-7.22538 Y63.48032
G01 X-7.15658 Y63.40672
G01 X-7.04618 Y63.37072
G01 X-7.04618 Y63.21072
G01 X-6.62538 Y63.21072
G01 X-6.47818 Y63.21072
G01 X-6.47818 Y63.37072
G01 X-5.97338 Y63.37072
G01 X-6.47818 Y63.37072
G01 X-6.11818 Y63.74912
G01 X-6.04298 Y63.86512
G01 X-6.00858 Y63.93792
G01 X-6.00858 Y64.01792
G01 X-6.04298 Y64.09072
G01 X-6.08378 Y64.13392
G01 X-6.15338 Y64.17072
G01 X-6.29818 Y64.17072
G01 X-6.37338 Y64.13392
G01 X-6.40858 Y64.09072
G01 X-6.44298 Y64.01792
G01 X-6.44298 Y63.98112
G01 X-6.44298 Y64.01792
G01 X-6.40858 Y64.09072
G01 X-6.37338 Y64.13392
G01 X-6.29818 Y64.17072
G01 X-6.15338 Y64.17072
G01 X-6.08378 Y64.13392
G01 X-6.04298 Y64.09072
G01 X-6.00858 Y64.01792
G01 X-6.00858 Y63.93792
G01 X-6.04298 Y63.86512
G01 X-6.11818 Y63.74912
G01 X-6.47818 Y63.37072
G01 X-6.47818 Y63.21072
G01 X-5.82538 Y63.21072
G01 X-5.67818 Y63.21072
G01 X-5.67818 Y63.37072
G01 X-5.17338 Y63.37072
G01 X-5.67818 Y63.37072
G01 X-5.31818 Y63.74912
G01 X-5.24298 Y63.86512
G01 X-5.20858 Y63.93792
G01 X-5.20858 Y64.01792
G01 X-5.24298 Y64.09072
G01 X-5.28378 Y64.13392
G01 X-5.35338 Y64.17072
G01 X-5.49818 Y64.17072
G01 X-5.57338 Y64.13392
G01 X-5.60858 Y64.09072
G01 X-5.64298 Y64.01792
G01 X-5.64298 Y63.98112
G01 X-5.64298 Y64.01792
G01 X-5.60858 Y64.09072
G01 X-5.57338 Y64.13392
G01 X-5.49818 Y64.17072
G01 X-5.35338 Y64.17072
G01 X-5.28378 Y64.13392
G01 X-5.24298 Y64.09072
G01 X-5.20858 Y64.01792
G01 X-5.20858 Y63.93792
G01 X-5.24298 Y63.86512
G01 X-5.31818 Y63.74912
G01 X-5.67818 Y63.37072
G01 X-5.67818 Y63.21072
G01 X-5.02538 Y63.21072
G01 X-4.69818 Y63.21072
G01 X-4.69818 Y63.37072
G01 X-4.80858 Y63.40672
G01 X-4.84298 Y63.44352
G01 X-4.87818 Y63.52272
G01 X-4.84298 Y63.44352
G01 X-4.80858 Y63.40672
G01 X-4.69818 Y63.37072
G01 X-4.58778 Y63.37072
G01 X-4.48378 Y63.40672
G01 X-4.40858 Y63.48032
G01 X-4.37338 Y63.59632
G01 X-4.37338 Y63.67552
G01 X-4.40858 Y63.78592
G01 X-4.44298 Y63.82832
G01 X-4.51818 Y63.86512
G01 X-4.62858 Y63.86512
G01 X-4.40858 Y64.17072
G01 X-4.80858 Y64.17072
G01 X-4.40858 Y64.17072
G01 X-4.62858 Y63.86512
G01 X-4.51818 Y63.86512
G01 X-4.44298 Y63.82832
G01 X-4.40858 Y63.78592
G01 X-4.37338 Y63.67552
G01 X-4.37338 Y63.59632
G01 X-4.40858 Y63.48032
G01 X-4.48378 Y63.40672
G01 X-4.58778 Y63.37072
G01 X-4.69818 Y63.37072
G01 X-4.69818 Y63.21072
G01 X-4.22538 Y63.21072
G01 X-3.86378 Y63.21072
G01 X-3.86378 Y63.37072
G01 X-3.96778 Y63.40672
G01 X-4.04298 Y63.52272
G01 X-4.07818 Y63.71232
G01 X-4.07818 Y63.82832
G01 X-4.04298 Y64.01792
G01 X-3.96778 Y64.13392
G01 X-3.86378 Y64.17072
G01 X-3.78778 Y64.17072
G01 X-3.67818 Y64.13392
G01 X-3.60858 Y64.01792
G01 X-3.57338 Y63.82832
G01 X-3.57338 Y63.71232
G01 X-3.60858 Y63.52272
G01 X-3.67818 Y63.40672
G01 X-3.78778 Y63.37072
G01 X-3.86378 Y63.37072
G01 X-3.86378 Y63.21072
G01 X-3.42538 Y63.21072
G01 X-3.35018 Y63.21072
G01 X-3.35018 Y63.71232
G01 X-2.70138 Y63.71232
G01 X-3.35018 Y63.71232
G01 X-3.35018 Y63.21072
G01 X-2.62538 Y63.21072
G01 X-2.29818 Y63.21072
G01 X-2.29818 Y63.37072
G01 X-2.40858 Y63.40672
G01 X-2.44298 Y63.44352
G01 X-2.47818 Y63.52272
G01 X-2.44298 Y63.44352
G01 X-2.40858 Y63.40672
G01 X-2.29818 Y63.37072
G01 X-2.18778 Y63.37072
G01 X-2.08378 Y63.40672
G01 X-2.00858 Y63.48032
G01 X-1.97338 Y63.59632
G01 X-1.97338 Y63.67552
G01 X-2.00858 Y63.78592
G01 X-2.08378 Y63.86512
G01 X-2.18778 Y63.90192
G01 X-2.29818 Y63.90192
G01 X-2.40858 Y63.86512
G01 X-2.44298 Y63.82832
G01 X-2.40858 Y64.17072
G01 X-2.04298 Y64.17072
G01 X-2.40858 Y64.17072
G01 X-2.44298 Y63.82832
G01 X-2.40858 Y63.86512
G01 X-2.29818 Y63.90192
G01 X-2.18778 Y63.90192
G01 X-2.08378 Y63.86512
G01 X-2.00858 Y63.78592
G01 X-1.97338 Y63.67552
G01 X-1.97338 Y63.59632
G01 X-2.00858 Y63.48032
G01 X-2.08378 Y63.40672
G01 X-2.18778 Y63.37072
G01 X-2.29818 Y63.37072
G01 X-2.29818 Y63.21072
G01 X-1.82538 Y63.21072
G260
M10
G00 X-1.07500 Y66.34726
(PartName=762230-5)
N8 M09
G261
G01 X-1.36700 Y66.34726
G01 X-1.36700 Y66.18726
G01 X-1.72700 Y65.38726
G01 X-1.22220 Y65.38726
G01 X-1.22300 Y65.47926
G01 X-1.22220 Y65.38726
G01 X-1.72700 Y65.38726
G01 X-1.36700 Y66.18726
G01 X-1.36700 Y66.34726
G01 X-1.87500 Y66.34726
G01 X-2.25420 Y66.34726
G01 X-2.25420 Y66.18726
G01 X-2.28940 Y66.18726
G01 X-2.39900 Y66.15126
G01 X-2.47500 Y66.07766
G01 X-2.50940 Y65.96166
G01 X-2.50940 Y65.92486
G01 X-2.47500 Y65.80886
G01 X-2.39900 Y65.72966
G01 X-2.28940 Y65.69286
G01 X-2.25420 Y65.69286
G01 X-2.14380 Y65.72966
G01 X-2.07500 Y65.80886
G01 X-2.03980 Y65.92486
G01 X-2.03980 Y65.72966
G01 X-2.07500 Y65.54006
G01 X-2.14380 Y65.42406
G01 X-2.25420 Y65.38726
G01 X-2.32940 Y65.38726
G01 X-2.43420 Y65.42406
G01 X-2.47500 Y65.50406
G01 X-2.43420 Y65.42406
G01 X-2.32940 Y65.38726
G01 X-2.25420 Y65.38726
G01 X-2.14380 Y65.42406
G01 X-2.07500 Y65.54006
G01 X-2.03980 Y65.72966
G01 X-2.03980 Y65.92486
G01 X-2.07500 Y66.07766
G01 X-2.14380 Y66.15126
G01 X-2.25420 Y66.18726
G01 X-2.25420 Y66.34726
G01 X-2.67500 Y66.34726
G01 X-2.82220 Y66.34726
G01 X-2.82220 Y66.18726
G01 X-3.32700 Y66.18726
G01 X-2.82220 Y66.18726
G01 X-3.18220 Y65.80886
G01 X-3.25740 Y65.69286
G01 X-3.29180 Y65.62006
G01 X-3.29180 Y65.54006
G01 X-3.25740 Y65.46726
G01 X-3.21660 Y65.42406
G01 X-3.14700 Y65.38726
G01 X-3.00220 Y65.38726
G01 X-2.92700 Y65.42406
G01 X-2.89180 Y65.46726
G01 X-2.85740 Y65.54006
G01 X-2.85740 Y65.57686
G01 X-2.85740 Y65.54006
G01 X-2.89180 Y65.46726
G01 X-2.92700 Y65.42406
G01 X-3.00220 Y65.38726
G01 X-3.14700 Y65.38726
G01 X-3.21660 Y65.42406
G01 X-3.25740 Y65.46726
G01 X-3.29180 Y65.54006
G01 X-3.29180 Y65.62006
G01 X-3.25740 Y65.69286
G01 X-3.18220 Y65.80886
G01 X-2.82220 Y66.18726
G01 X-2.82220 Y66.34726
G01 X-3.47500 Y66.34726
G01 X-3.62220 Y66.34726
G01 X-3.62220 Y66.18726
G01 X-4.12700 Y66.18726
G01 X-3.62220 Y66.18726
G01 X-3.98220 Y65.80886
G01 X-4.05740 Y65.69286
G01 X-4.09180 Y65.62006
G01 X-4.09180 Y65.54006
G01 X-4.05740 Y65.46726
G01 X-4.01660 Y65.42406
G01 X-3.94700 Y65.38726
G01 X-3.80220 Y65.38726
G01 X-3.72700 Y65.42406
G01 X-3.69180 Y65.46726
G01 X-3.65740 Y65.54006
G01 X-3.65740 Y65.57686
G01 X-3.65740 Y65.54006
G01 X-3.69180 Y65.46726
G01 X-3.72700 Y65.42406
G01 X-3.80220 Y65.38726
G01 X-3.94700 Y65.38726
G01 X-4.01660 Y65.42406
G01 X-4.05740 Y65.46726
G01 X-4.09180 Y65.54006
G01 X-4.09180 Y65.62006
G01 X-4.05740 Y65.69286
G01 X-3.98220 Y65.80886
G01 X-3.62220 Y66.18726
G01 X-3.62220 Y66.34726
G01 X-4.27500 Y66.34726
G01 X-4.60220 Y66.34726
G01 X-4.60220 Y66.18726
G01 X-4.49180 Y66.15126
G01 X-4.45740 Y66.11446
G01 X-4.42220 Y66.03526
G01 X-4.45740 Y66.11446
G01 X-4.49180 Y66.15126
G01 X-4.60220 Y66.18726
G01 X-4.71260 Y66.18726
G01 X-4.81660 Y66.15126
G01 X-4.89180 Y66.07766
G01 X-4.92700 Y65.96166
G01 X-4.92700 Y65.88246
G01 X-4.89180 Y65.77206
G01 X-4.85740 Y65.72966
G01 X-4.78220 Y65.69286
G01 X-4.67180 Y65.69286
G01 X-4.89180 Y65.38726
G01 X-4.49180 Y65.38726
G01 X-4.89180 Y65.38726
G01 X-4.67180 Y65.69286
G01 X-4.78220 Y65.69286
G01 X-4.85740 Y65.72966
G01 X-4.89180 Y65.77206
G01 X-4.92700 Y65.88246
G01 X-4.92700 Y65.96166
G01 X-4.89180 Y66.07766
G01 X-4.81660 Y66.15126
G01 X-4.71260 Y66.18726
G01 X-4.60220 Y66.18726
G01 X-4.60220 Y66.34726
G01 X-5.07500 Y66.34726
G01 X-5.43660 Y66.34726
G01 X-5.43660 Y66.18726
G01 X-5.33260 Y66.15126
G01 X-5.25740 Y66.03526
G01 X-5.22220 Y65.84566
G01 X-5.22220 Y65.72966
G01 X-5.25740 Y65.54006
G01 X-5.33260 Y65.42406
G01 X-5.43660 Y65.38726
G01 X-5.51260 Y65.38726
G01 X-5.62220 Y65.42406
G01 X-5.69180 Y65.54006
G01 X-5.72700 Y65.72966
G01 X-5.72700 Y65.84566
G01 X-5.69180 Y66.03526
G01 X-5.62220 Y66.15126
G01 X-5.51260 Y66.18726
G01 X-5.43660 Y66.18726
G01 X-5.43660 Y66.34726
G01 X-5.87500 Y66.34726
G01 X-5.95020 Y66.34726
G01 X-5.95020 Y65.84566
G01 X-6.59900 Y65.84566
G01 X-5.95020 Y65.84566
G01 X-5.95020 Y66.34726
G01 X-6.67500 Y66.34726
G01 X-7.00220 Y66.34726
G01 X-7.00220 Y66.18726
G01 X-6.89180 Y66.15126
G01 X-6.85740 Y66.11446
G01 X-6.82220 Y66.03526
G01 X-6.85740 Y66.11446
G01 X-6.89180 Y66.15126
G01 X-7.00220 Y66.18726
G01 X-7.11260 Y66.18726
G01 X-7.21660 Y66.15126
G01 X-7.29180 Y66.07766
G01 X-7.32700 Y65.96166
G01 X-7.32700 Y65.88246
G01 X-7.29180 Y65.77206
G01 X-7.21660 Y65.69286
G01 X-7.11260 Y65.65606
G01 X-7.00220 Y65.65606
G01 X-6.89180 Y65.69286
G01 X-6.85740 Y65.72966
G01 X-6.89180 Y65.38726
G01 X-7.25740 Y65.38726
G01 X-6.89180 Y65.38726
G01 X-6.85740 Y65.72966
G01 X-6.89180 Y65.69286
G01 X-7.00220 Y65.65606
G01 X-7.11260 Y65.65606
G01 X-7.21660 Y65.69286
G01 X-7.29180 Y65.77206
G01 X-7.32700 Y65.88246
G01 X-7.32700 Y65.96166
G01 X-7.29180 Y66.07766
G01 X-7.21660 Y66.15126
G01 X-7.11260 Y66.18726
G01 X-7.00220 Y66.18726
G01 X-7.00220 Y66.34726
G01 X-7.47500 Y66.34726
G260
M10
G00 X-8.22538 Y80.52726
(PartName=762268-5)
N9 M09
G261
G01 X-7.93338 Y80.52726
G01 X-7.93338 Y80.68726
G01 X-7.57338 Y81.48726
G01 X-8.07818 Y81.48726
G01 X-8.07738 Y81.39526
G01 X-8.07818 Y81.48726
G01 X-7.57338 Y81.48726
G01 X-7.93338 Y80.68726
G01 X-7.93338 Y80.52726
G01 X-7.42538 Y80.52726
G01 X-7.04618 Y80.52726
G01 X-7.04618 Y80.68726
G01 X-7.01098 Y80.68726
G01 X-6.90138 Y80.72326
G01 X-6.82538 Y80.79686
G01 X-6.79098 Y80.91286
G01 X-6.79098 Y80.94966
G01 X-6.82538 Y81.06566
G01 X-6.90138 Y81.14486
G01 X-7.01098 Y81.18166
G01 X-7.04618 Y81.18166
G01 X-7.15658 Y81.14486
G01 X-7.22538 Y81.06566
G01 X-7.26058 Y80.94966
G01 X-7.26058 Y81.14486
G01 X-7.22538 Y81.33446
G01 X-7.15658 Y81.45046
G01 X-7.04618 Y81.48726
G01 X-6.97098 Y81.48726
G01 X-6.86618 Y81.45046
G01 X-6.82538 Y81.37046
G01 X-6.86618 Y81.45046
G01 X-6.97098 Y81.48726
G01 X-7.04618 Y81.48726
G01 X-7.15658 Y81.45046
G01 X-7.22538 Y81.33446
G01 X-7.26058 Y81.14486
G01 X-7.26058 Y80.94966
G01 X-7.22538 Y80.79686
G01 X-7.15658 Y80.72326
G01 X-7.04618 Y80.68726
G01 X-7.04618 Y80.52726
G01 X-6.62538 Y80.52726
G01 X-6.47818 Y80.52726
G01 X-6.47818 Y80.68726
G01 X-5.97338 Y80.68726
G01 X-6.47818 Y80.68726
G01 X-6.11818 Y81.06566
G01 X-6.04298 Y81.18166
G01 X-6.00858 Y81.25446
G01 X-6.00858 Y81.33446
G01 X-6.04298 Y81.40726
G01 X-6.08378 Y81.45046
G01 X-6.15338 Y81.48726
G01 X-6.29818 Y81.48726
G01 X-6.37338 Y81.45046
G01 X-6.40858 Y81.40726
G01 X-6.44298 Y81.33446
G01 X-6.44298 Y81.29766
G01 X-6.44298 Y81.33446
G01 X-6.40858 Y81.40726
G01 X-6.37338 Y81.45046
G01 X-6.29818 Y81.48726
G01 X-6.15338 Y81.48726
G01 X-6.08378 Y81.45046
G01 X-6.04298 Y81.40726
G01 X-6.00858 Y81.33446
G01 X-6.00858 Y81.25446
G01 X-6.04298 Y81.18166
G01 X-6.11818 Y81.06566
G01 X-6.47818 Y80.68726
G01 X-6.47818 Y80.52726
G01 X-5.82538 Y80.52726
G01 X-5.67818 Y80.52726
G01 X-5.67818 Y80.68726
G01 X-5.17338 Y80.68726
G01 X-5.67818 Y80.68726
G01 X-5.31818 Y81.06566
G01 X-5.24298 Y81.18166
G01 X-5.20858 Y81.25446
G01 X-5.20858 Y81.33446
G01 X-5.24298 Y81.40726
G01 X-5.28378 Y81.45046
G01 X-5.35338 Y81.48726
G01 X-5.49818 Y81.48726
G01 X-5.57338 Y81.45046
G01 X-5.60858 Y81.40726
G01 X-5.64298 Y81.33446
G01 X-5.64298 Y81.29766
G01 X-5.64298 Y81.33446
G01 X-5.60858 Y81.40726
G01 X-5.57338 Y81.45046
G01 X-5.49818 Y81.48726
G01 X-5.35338 Y81.48726
G01 X-5.28378 Y81.45046
G01 X-5.24298 Y81.40726
G01 X-5.20858 Y81.33446
G01 X-5.20858 Y81.25446
G01 X-5.24298 Y81.18166
G01 X-5.31818 Y81.06566
G01 X-5.67818 Y80.68726
G01 X-5.67818 Y80.52726
G01 X-5.02538 Y80.52726
G01 X-4.64618 Y80.52726
G01 X-4.64618 Y80.68726
G01 X-4.61098 Y80.68726
G01 X-4.50138 Y80.72326
G01 X-4.42538 Y80.79686
G01 X-4.39098 Y80.91286
G01 X-4.39098 Y80.94966
G01 X-4.42538 Y81.06566
G01 X-4.50138 Y81.14486
G01 X-4.61098 Y81.18166
G01 X-4.64618 Y81.18166
G01 X-4.75658 Y81.14486
G01 X-4.82538 Y81.06566
G01 X-4.86058 Y80.94966
G01 X-4.86058 Y81.14486
G01 X-4.82538 Y81.33446
G01 X-4.75658 Y81.45046
G01 X-4.64618 Y81.48726
G01 X-4.57098 Y81.48726
G01 X-4.46618 Y81.45046
G01 X-4.42538 Y81.37046
G01 X-4.46618 Y81.45046
G01 X-4.57098 Y81.48726
G01 X-4.64618 Y81.48726
G01 X-4.75658 Y81.45046
G01 X-4.82538 Y81.33446
G01 X-4.86058 Y81.14486
G01 X-4.86058 Y80.94966
G01 X-4.82538 Y80.79686
G01 X-4.75658 Y80.72326
G01 X-4.64618 Y80.68726
G01 X-4.64618 Y80.52726
G01 X-4.22538 Y80.52726
G01 X-3.89818 Y80.52726
G01 X-3.89818 Y80.68726
G01 X-3.75338 Y80.68726
G01 X-3.64298 Y80.72326
G01 X-3.60858 Y80.76006
G01 X-3.57338 Y80.83926
G01 X-3.57338 Y80.94966
G01 X-3.60858 Y81.02886
G01 X-3.68378 Y81.10246
G01 X-3.78778 Y81.14486
G01 X-3.93338 Y81.18166
G01 X-4.00858 Y81.21846
G01 X-4.04298 Y81.29766
G01 X-4.04298 Y81.37046
G01 X-4.00858 Y81.45046
G01 X-3.89818 Y81.48726
G01 X-3.75338 Y81.48726
G01 X-3.64298 Y81.45046
G01 X-3.60858 Y81.37046
G01 X-3.60858 Y81.29766
G01 X-3.64298 Y81.21846
G01 X-3.71818 Y81.18166
G01 X-3.86378 Y81.14486
G01 X-3.97338 Y81.10246
G01 X-4.04298 Y81.02886
G01 X-4.07818 Y80.94966
G01 X-4.07818 Y80.83926
G01 X-4.04298 Y80.76006
G01 X-4.00858 Y80.72326
G01 X-3.89818 Y80.68726
G01 X-3.89818 Y80.52726
G01 X-3.42538 Y80.52726
G01 X-3.35018 Y80.52726
G01 X-3.35018 Y81.02886
G01 X-2.70138 Y81.02886
G01 X-3.35018 Y81.02886
G01 X-3.35018 Y80.52726
G01 X-2.62538 Y80.52726
G01 X-2.29818 Y80.52726
G01 X-2.29818 Y80.68726
G01 X-2.40858 Y80.72326
G01 X-2.44298 Y80.76006
G01 X-2.47818 Y80.83926
G01 X-2.44298 Y80.76006
G01 X-2.40858 Y80.72326
G01 X-2.29818 Y80.68726
G01 X-2.18778 Y80.68726
G01 X-2.08378 Y80.72326
G01 X-2.00858 Y80.79686
G01 X-1.97338 Y80.91286
G01 X-1.97338 Y80.99206
G01 X-2.00858 Y81.10246
G01 X-2.08378 Y81.18166
G01 X-2.18778 Y81.21846
G01 X-2.29818 Y81.21846
G01 X-2.40858 Y81.18166
G01 X-2.44298 Y81.14486
G01 X-2.40858 Y81.48726
G01 X-2.04298 Y81.48726
G01 X-2.40858 Y81.48726
G01 X-2.44298 Y81.14486
G01 X-2.40858 Y81.18166
G01 X-2.29818 Y81.21846
G01 X-2.18778 Y81.21846
G01 X-2.08378 Y81.18166
G01 X-2.00858 Y81.10246
G01 X-1.97338 Y80.99206
G01 X-1.97338 Y80.91286
G01 X-2.00858 Y80.79686
G01 X-2.08378 Y80.72326
G01 X-2.18778 Y80.68726
G01 X-2.29818 Y80.68726
G01 X-2.29818 Y80.52726
G01 X-1.82538 Y80.52726
G260
M10
G00 X-1.07500 Y83.66379
(PartName=762268-5)
N10 M09
G261
G01 X-1.36700 Y83.66379
G01 X-1.36700 Y83.50379
G01 X-1.72700 Y82.70379
G01 X-1.22220 Y82.70379
G01 X-1.22300 Y82.79579
G01 X-1.22220 Y82.70379
G01 X-1.72700 Y82.70379
G01 X-1.36700 Y83.50379
G01 X-1.36700 Y83.66379
G01 X-1.87500 Y83.66379
G01 X-2.25420 Y83.66379
G01 X-2.25420 Y83.50379
G01 X-2.28940 Y83.50379
G01 X-2.39900 Y83.46779
G01 X-2.47500 Y83.39419
G01 X-2.50940 Y83.27819
G01 X-2.50940 Y83.24139
G01 X-2.47500 Y83.12539
G01 X-2.39900 Y83.04619
G01 X-2.28940 Y83.00939
G01 X-2.25420 Y83.00939
G01 X-2.14380 Y83.04619
G01 X-2.07500 Y83.12539
G01 X-2.03980 Y83.24139
G01 X-2.03980 Y83.04619
G01 X-2.07500 Y82.85659
G01 X-2.14380 Y82.74059
G01 X-2.25420 Y82.70379
G01 X-2.32940 Y82.70379
G01 X-2.43420 Y82.74059
G01 X-2.47500 Y82.82059
G01 X-2.43420 Y82.74059
G01 X-2.32940 Y82.70379
G01 X-2.25420 Y82.70379
G01 X-2.14380 Y82.74059
G01 X-2.07500 Y82.85659
G01 X-2.03980 Y83.04619
G01 X-2.03980 Y83.24139
G01 X-2.07500 Y83.39419
G01 X-2.14380 Y83.46779
G01 X-2.25420 Y83.50379
G01 X-2.25420 Y83.66379
G01 X-2.67500 Y83.66379
G01 X-2.82220 Y83.66379
G01 X-2.82220 Y83.50379
G01 X-3.32700 Y83.50379
G01 X-2.82220 Y83.50379
G01 X-3.18220 Y83.12539
G01 X-3.25740 Y83.00939
G01 X-3.29180 Y82.93659
G01 X-3.29180 Y82.85659
G01 X-3.25740 Y82.78379
G01 X-3.21660 Y82.74059
G01 X-3.14700 Y82.70379
G01 X-3.00220 Y82.70379
G01 X-2.92700 Y82.74059
G01 X-2.89180 Y82.78379
G01 X-2.85740 Y82.85659
G01 X-2.85740 Y82.89339
G01 X-2.85740 Y82.85659
G01 X-2.89180 Y82.78379
G01 X-2.92700 Y82.74059
G01 X-3.00220 Y82.70379
G01 X-3.14700 Y82.70379
G01 X-3.21660 Y82.74059
G01 X-3.25740 Y82.78379
G01 X-3.29180 Y82.85659
G01 X-3.29180 Y82.93659
G01 X-3.25740 Y83.00939
G01 X-3.18220 Y83.12539
G01 X-2.82220 Y83.50379
G01 X-2.82220 Y83.66379
G01 X-3.47500 Y83.66379
G01 X-3.62220 Y83.66379
G01 X-3.62220 Y83.50379
G01 X-4.12700 Y83.50379
G01 X-3.62220 Y83.50379
G01 X-3.98220 Y83.12539
G01 X-4.05740 Y83.00939
G01 X-4.09180 Y82.93659
G01 X-4.09180 Y82.85659
G01 X-4.05740 Y82.78379
G01 X-4.01660 Y82.74059
G01 X-3.94700 Y82.70379
G01 X-3.80220 Y82.70379
G01 X-3.72700 Y82.74059
G01 X-3.69180 Y82.78379
G01 X-3.65740 Y82.85659
G01 X-3.65740 Y82.89339
G01 X-3.65740 Y82.85659
G01 X-3.69180 Y82.78379
G01 X-3.72700 Y82.74059
G01 X-3.80220 Y82.70379
G01 X-3.94700 Y82.70379
G01 X-4.01660 Y82.74059
G01 X-4.05740 Y82.78379
G01 X-4.09180 Y82.85659
G01 X-4.09180 Y82.93659
G01 X-4.05740 Y83.00939
G01 X-3.98220 Y83.12539
G01 X-3.62220 Y83.50379
G01 X-3.62220 Y83.66379
G01 X-4.27500 Y83.66379
G01 X-4.65420 Y83.66379
G01 X-4.65420 Y83.50379
G01 X-4.68940 Y83.50379
G01 X-4.79900 Y83.46779
G01 X-4.87500 Y83.39419
G01 X-4.90940 Y83.27819
G01 X-4.90940 Y83.24139
G01 X-4.87500 Y83.12539
G01 X-4.79900 Y83.04619
G01 X-4.68940 Y83.00939
G01 X-4.65420 Y83.00939
G01 X-4.54380 Y83.04619
G01 X-4.47500 Y83.12539
G01 X-4.43980 Y83.24139
G01 X-4.43980 Y83.04619
G01 X-4.47500 Y82.85659
G01 X-4.54380 Y82.74059
G01 X-4.65420 Y82.70379
G01 X-4.72940 Y82.70379
G01 X-4.83420 Y82.74059
G01 X-4.87500 Y82.82059
G01 X-4.83420 Y82.74059
G01 X-4.72940 Y82.70379
G01 X-4.65420 Y82.70379
G01 X-4.54380 Y82.74059
G01 X-4.47500 Y82.85659
G01 X-4.43980 Y83.04619
G01 X-4.43980 Y83.24139
G01 X-4.47500 Y83.39419
G01 X-4.54380 Y83.46779
G01 X-4.65420 Y83.50379
G01 X-4.65420 Y83.66379
G01 X-5.07500 Y83.66379
G01 X-5.40220 Y83.66379
G01 X-5.40220 Y83.50379
G01 X-5.54700 Y83.50379
G01 X-5.65740 Y83.46779
G01 X-5.69180 Y83.43099
G01 X-5.72700 Y83.35179
G01 X-5.72700 Y83.24139
G01 X-5.69180 Y83.16219
G01 X-5.61660 Y83.08859
G01 X-5.51260 Y83.04619
G01 X-5.36700 Y83.00939
G01 X-5.29180 Y82.97259
G01 X-5.25740 Y82.89339
G01 X-5.25740 Y82.82059
G01 X-5.29180 Y82.74059
G01 X-5.40220 Y82.70379
G01 X-5.54700 Y82.70379
G01 X-5.65740 Y82.74059
G01 X-5.69180 Y82.82059
G01 X-5.69180 Y82.89339
G01 X-5.65740 Y82.97259
G01 X-5.58220 Y83.00939
G01 X-5.43660 Y83.04619
G01 X-5.32700 Y83.08859
G01 X-5.25740 Y83.16219
G01 X-5.22220 Y83.24139
G01 X-5.22220 Y83.35179
G01 X-5.25740 Y83.43099
G01 X-5.29180 Y83.46779
G01 X-5.40220 Y83.50379
G01 X-5.40220 Y83.66379
G01 X-5.87500 Y83.66379
G01 X-5.95020 Y83.66379
G01 X-5.95020 Y83.16219
G01 X-6.59900 Y83.16219
G01 X-5.95020 Y83.16219
G01 X-5.95020 Y83.66379
G01 X-6.67500 Y83.66379
G01 X-7.00220 Y83.66379
G01 X-7.00220 Y83.50379
G01 X-6.89180 Y83.46779
G01 X-6.85740 Y83.43099
G01 X-6.82220 Y83.35179
G01 X-6.85740 Y83.43099
G01 X-6.89180 Y83.46779
G01 X-7.00220 Y83.50379
G01 X-7.11260 Y83.50379
G01 X-7.21660 Y83.46779
G01 X-7.29180 Y83.39419
G01 X-7.32700 Y83.27819
G01 X-7.32700 Y83.19899
G01 X-7.29180 Y83.08859
G01 X-7.21660 Y83.00939
G01 X-7.11260 Y82.97259
G01 X-7.00220 Y82.97259
G01 X-6.89180 Y83.00939
G01 X-6.85740 Y83.04619
G01 X-6.89180 Y82.70379
G01 X-7.25740 Y82.70379
G01 X-6.89180 Y82.70379
G01 X-6.85740 Y83.04619
G01 X-6.89180 Y83.00939
G01 X-7.00220 Y82.97259
G01 X-7.11260 Y82.97259
G01 X-7.21660 Y83.00939
G01 X-7.29180 Y83.08859
G01 X-7.32700 Y83.19899
G01 X-7.32700 Y83.27819
G01 X-7.29180 Y83.39419
G01 X-7.21660 Y83.46779
G01 X-7.11260 Y83.50379
G01 X-7.00220 Y83.50379
G01 X-7.00220 Y83.66379
G01 X-7.47500 Y83.66379
G260
M10
G00 X-10.96013 Y10.35000
T21
G41
N11 M07
G261
G01 X-10.36013 Y10.35000
G01 X-0.36013 Y10.35000
G01 X-0.36013 Y0.35000
G01 X-10.36013 Y0.35000
G01 X-10.36013 Y10.07500
M50
G01 X-10.36013 Y10.35000
G01 X-10.36013 Y10.95000
G260
M08
G40
M51
G00 X-0.35000 Y11.31266
G41
N12 M07
G261
G01 X-0.95000 Y11.31266
G01 X-10.95000 Y11.31266
G01 X-10.95000 Y21.31266
G01 X-0.95000 Y21.31266
G01 X-0.95000 Y11.58766
M50
G01 X-0.95000 Y11.31266
G01 X-0.95000 Y10.71266
G260
M08
G40
M51
G00 X-8.95038 Y29.66266
G41
N13 M07
G261
G01 X-8.35038 Y29.66266
G01 X-0.35038 Y29.66266
G01 X-0.35038 Y21.66266
G01 X-8.35038 Y21.66266
G01 X-8.35038 Y29.38766
M50
G01 X-8.35038 Y29.66266
G01 X-8.35038 Y30.26266
G260
M08
G40
M51
G00 X-0.35000 Y30.62919
G41
N14 M07
G261
G01 X-0.95000 Y30.62919
G01 X-8.95000 Y30.62919
G01 X-8.95000 Y38.62919
G01 X-0.95000 Y38.62919
G01 X-0.95000 Y30.90419
M50
G01 X-0.95000 Y30.62919
G01 X-0.95000 Y30.02919
G260
M08
G40
M51
G00 X-8.95038 Y46.97919
G41
N15 M07
G261
G01 X-8.35038 Y46.97919
G01 X-0.35038 Y46.97919
G01 X-0.35038 Y38.97919
G01 X-8.35038 Y38.97919
G01 X-8.35038 Y46.70419
M50
G01 X-8.35038 Y46.97919
G01 X-8.35038 Y47.57919
G260
M08
G40
M51
G00 X-0.35000 Y47.94572
G41
N16 M07
G261
G01 X-0.95000 Y47.94572
G01 X-8.95000 Y47.94572
G01 X-8.95000 Y55.94572
G01 X-0.95000 Y55.94572
G01 X-0.95000 Y48.22072
M50
G01 X-0.95000 Y47.94572
G01 X-0.95000 Y47.34572
G260
M08
G40
M51
G00 X-8.95038 Y64.29572
G41
N17 M07
G261
G01 X-8.35038 Y64.29572
G01 X-0.35038 Y64.29572
G01 X-0.35038 Y56.29572
G01 X-8.35038 Y56.29572
G01 X-8.35038 Y64.02072
M50
G01 X-8.35038 Y64.29572
G01 X-8.35038 Y64.89572
G260
M08
G40
M51
G00 X-0.35000 Y65.26226
G41
N18 M07
G261
G01 X-0.95000 Y65.26226
G01 X-8.95000 Y65.26226
G01 X-8.95000 Y73.26226
G01 X-0.95000 Y73.26226
G01 X-0.95000 Y65.53726
M50
G01 X-0.95000 Y65.26226
G01 X-0.95000 Y64.66226
G260
M08
G40
M51
G00 X-8.95038 Y81.61226
G41
N19 M07
G261
G01 X-8.35038 Y81.61226
G01 X-0.35038 Y81.61226
G01 X-0.35038 Y73.61226
G01 X-8.35038 Y73.61226
G01 X-8.35038 Y81.33726
M50
G01 X-8.35038 Y81.61226
G01 X-8.35038 Y82.21226
G260
M08
G40
M51
G00 X-0.35000 Y82.57879
G41
N20 M07
G261
G01 X-0.95000 Y82.57879
G01 X-8.95000 Y82.57879
G01 X-8.95000 Y90.57879
G01 X-0.95000 Y90.57879
G01 X-0.95000 Y82.85379
M50
G01 X-0.95000 Y82.57879
G01 X-0.95000 Y81.97879
G260
M08
G40
M51
G00 X-5.95913 Y95.92879
(PartName=775592-5)
G41
N21 M07
G261
G01 X-5.35913 Y95.92879
G01 X-0.35913 Y95.92879
G01 X-0.35913 Y90.92879
G01 X-5.35913 Y90.92879
G01 X-5.35913 Y95.65379
M50
G01 X-5.35913 Y95.92879
G01 X-5.35913 Y96.52879
G260
M08
G40
M51
G00 X-0.35000 Y96.88945
(PartName=775592-5)
G41
N22 M07
G261
G01 X-0.95000 Y96.88945
G01 X-5.95000 Y96.88945
G01 X-5.95000 Y101.88945
G01 X-0.95000 Y101.88945
G01 X-0.95000 Y97.16445
M50
G01 X-0.95000 Y96.88945
G01 X-0.95000 Y96.28945
G260
M08
G40
M51
G00 X-5.95913 Y107.23945
(PartName=775591-5)
G41
N23 M07
G261
G01 X-5.35913 Y107.23945
G01 X-0.35913 Y107.23945
G01 X-0.35913 Y102.23945
G01 X-5.35913 Y102.23945
G01 X-5.35913 Y106.96445
M50
G01 X-5.35913 Y107.23945
G01 X-5.35913 Y107.83945
G260
M08
G40
M51
G00 X-0.35000 Y108.20012
(PartName=775591-5)
G41
N24 M07
G261
G01 X-0.95000 Y108.20012
G01 X-5.95000 Y108.20012
G01 X-5.95000 Y113.20012
G01 X-0.95000 Y113.20012
G01 X-0.95000 Y108.47512
M50
G01 X-0.95000 Y108.20012
G01 X-0.95000 Y107.60012
G260
M08
G40
M51
G00 X-10.96013 Y119.63359
(PartName=Remnant)
T21
G40
M07
G00 X-11.16013 Y119.98000
G01 X-11.16013 Y119.58000
G01 X-11.16013 Y0.40000
M50
G01 X-11.16013 Y0.00000
M08
M51
(PlanFooterCommand)
T0
#CS OFF
M30
