(PP_NAME=PP_Din)
(PP_VERSION=	4.0)
(PP_INI_NAME=GC_US_PLASMA_4.7.ini)
(PP_INI_VERSION=2014-02-26)
(%%INFO MACHINE=HPRXD SS 260A H35)
(%%INFO Material=A240 GR.316L Thickness=0.5 PlateLength=30 PlateWidth=96)
(%%INFO PartName=775277-2=2pcs=2.02lbs)
(%%INFO PartName=775881-2=1pcs=4.09lbs)
(%%INFO PartName=758475-2=1pcs=0.93lbs)
(%%INFO PartName=770936-2=1pcs=0.93lbs)
(%%INFO PartName=776021-2_recut=1pcs=2.01lbs)
(%%INFO PartName=776033-2_recut=1pcs=1.17lbs)
(%%INFO PartName=785986-2=2pcs=4.09lbs)
(%%INFO PartName=758478-2=1pcs=1.63lbs)
(%%INFO PartName=779527-2=1pcs=4.09lbs)
(%%INFO PartName=784505-2=1pcs=0.93lbs)
(%%INFO PartName=785987-2=2pcs=4.09lbs)
(%%INFO TotalCutLength=239.557)
(%%INFO TotalPierceCount=15)
(%%INFO TotalProductionTime=00:04:39)
G70
#CONTOUR MODE[DEV PATH_DEV=0.008 RELEVANT_PATH=0.004]
G90
(PlanHeaderCommand)
G162
G141
G237
#CS ON [V.E.START_X, V.E.START_Y, 0, 0, 0, V.E.ROTATION]
M190
G00 X-0.36549 Y3.78150
T21
(PartName=785986-2)
G41
N1 M07
G261
G01 X-0.36549 Y3.38150
G02 X-3.39699 Y0.35000 I-3.03150 J0.00000
G02 X-6.42849 Y3.38150 I0.00000 J3.03150
G02 X-3.39699 Y6.41300 I3.03150 J-0.00000
G02 X-0.38897 Y3.75808 I0.00000 J-3.03150
M50
G02 X-0.36549 Y3.38150 I-3.00802 J-0.37658
G01 X-0.36549 Y2.98150
G260
M08
G40
M51
G00 X-6.79197 Y3.78250
(PartName=775881-2)
G41
N2 M07
G261
G01 X-6.79197 Y3.38250
G02 X-9.82447 Y0.35000 I-3.03250 J0.00000
G02 X-12.85697 Y3.38250 I0.00000 J3.03250
G02 X-9.82447 Y6.41500 I3.03250 J0.00000
G02 X-6.81545 Y3.75908 I0.00000 J-3.03250
M50
G02 X-6.79197 Y3.38250 I-3.00903 J-0.37658
G01 X-6.79197 Y2.98250
G260
M08
G40
M51
G00 X-13.21846 Y3.78250
(PartName=779527-2)
G41
N3 M07
G261
G01 X-13.21846 Y3.38250
G02 X-16.25096 Y0.35000 I-3.03250 J0.00000
G02 X-19.28346 Y3.38250 I0.00000 J3.03250
G02 X-16.25096 Y6.41500 I3.03250 J0.00000
G02 X-13.24193 Y3.75908 I0.00000 J-3.03250
M50
G02 X-13.21846 Y3.38250 I-3.00903 J-0.37658
G01 X-13.21846 Y2.98250
G260
M08
G40
M51
G00 X-3.57873 Y9.36731
(PartName=785986-2)
G41
N4 M07
G261
G01 X-3.57873 Y8.96731
G02 X-6.61023 Y5.93581 I-3.03150 J0.00000
G02 X-9.64173 Y8.96731 I-0.00000 J3.03150
G02 X-6.61023 Y11.99881 I3.03150 J0.00000
G02 X-3.60221 Y9.34389 I-0.00000 J-3.03150
M50
G02 X-3.57873 Y8.96731 I-3.00802 J-0.37658
G01 X-3.57873 Y8.56731
G260
M08
G40
M51
G00 X-12.64130 Y5.76768
(PartName=776021-2_recut)
G41
N5 M07
G261
G01 X-13.04130 Y5.76768
G02 X-15.16630 Y7.89268 I0.00000 J2.12500
G02 X-13.04130 Y10.01768 I2.12500 J-0.00000
G02 X-10.91630 Y7.89268 I0.00000 J-2.12500
G02 X-12.66572 Y5.80113 I-2.12500 J0.00000
M50
G02 X-13.04130 Y5.76768 I-0.37558 J2.09155
G01 X-13.44130 Y5.76768
G260
M08
G40
M51
G00 X-8.43596 Y13.60804
(PartName=785987-2)
G41
N6 M07
G261
G01 X-8.43596 Y13.20804
G02 X-11.46746 Y10.17654 I-3.03150 J0.00000
G02 X-14.49896 Y13.20804 I0.00000 J3.03150
G02 X-11.46746 Y16.23954 I3.03150 J-0.00000
G02 X-8.45944 Y13.58463 I-0.00000 J-3.03150
M50
G02 X-8.43596 Y13.20804 I-3.00802 J-0.37658
G01 X-8.43596 Y12.80804
G260
M08
G40
M51
G00 X-0.36549 Y11.36087
(PartName=776033-2_recut)
G41
N7 M07
G261
G01 X-0.36549 Y10.96087
G02 X-1.99049 Y9.33587 I-1.62500 J0.00000
G02 X-3.61549 Y10.96087 I0.00000 J1.62500
G02 X-1.99049 Y12.58587 I1.62500 J0.00000
G02 X-0.40915 Y11.33504 I0.00000 J-1.62500
M50
G02 X-0.36549 Y10.96087 I-1.58134 J-0.37417
G01 X-0.36549 Y10.56087
G260
M08
G40
M51
G00 X-6.49802 Y13.49167
(PartName=758478-2)
G41
N8 M07
G261
G01 X-6.49802 Y13.89167
G02 X-4.58502 Y15.80467 I1.91300 J0.00000
G02 X-2.67202 Y13.89167 I0.00000 J-1.91300
G02 X-4.58502 Y11.97867 I-1.91300 J0.00000
G02 X-6.46088 Y13.51656 I0.00000 J1.91300
M50
G02 X-6.49802 Y13.89167 I1.87586 J0.37511
G01 X-6.49802 Y14.29167
G260
M08
G40
M51
G00 X-15.27344 Y10.00249
(PartName=785987-2)
G41
N9 M07
G261
G01 X-15.27344 Y9.60249
G02 X-18.30494 Y6.57099 I-3.03150 J0.00000
G02 X-21.33644 Y9.60249 I0.00000 J3.03150
G02 X-18.30494 Y12.63399 I3.03150 J-0.00000
G02 X-15.29692 Y9.97907 I0.00000 J-3.03150
M50
G02 X-15.27344 Y9.60249 I-3.00802 J-0.37658
G01 X-15.27344 Y9.20249
G260
M08
G40
M51
G00 X-15.85700 Y12.58647
(PartName=784505-2)
G41
N10 M07
G261
G01 X-16.25700 Y12.58647
G02 X-17.70700 Y14.03647 I0.00000 J1.45000
G02 X-16.25700 Y15.48647 I1.45000 J0.00000
G02 X-14.80700 Y14.03647 I0.00000 J-1.45000
G02 X-15.88369 Y12.63535 I-1.45000 J0.00000
M50
G02 X-16.25700 Y12.58647 I-0.37331 J1.40112
G01 X-16.65700 Y12.58647
G260
M08
G40
M51
G00 X-21.11776 Y2.94675
(PartName=775277-2)
G41
N11 M07
G261
G01 X-21.51776 Y2.94675
G02 X-23.64776 Y5.07675 I0.00000 J2.13000
G02 X-21.51776 Y7.20675 I2.13000 J0.00000
G02 X-19.38776 Y5.07675 I0.00000 J-2.13000
G02 X-21.14218 Y2.98012 I-2.13000 J-0.00000
M50
G02 X-21.51776 Y2.94675 I-0.37558 J2.09662
G01 X-21.91776 Y2.94675
G260
M08
G40
M51
G00 X-23.62908 Y13.72303
(PartName=775277-2)
G41
N12 M07
G261
G01 X-23.62908 Y14.12303
G02 X-21.49908 Y16.25303 I2.13000 J0.00000
G02 X-19.36908 Y14.12303 I-0.00000 J-2.13000
G02 X-21.49908 Y11.99303 I-2.13000 J0.00000
G02 X-23.59571 Y13.74744 I0.00000 J2.13000
M50
G02 X-23.62908 Y14.12303 I2.09662 J0.37558
G01 X-23.62908 Y14.52303
G260
M08
G40
M51
G00 X-6.13812 Y16.52882
(PartName=758475-2)
G41
N13 M07
G261
G01 X-6.13812 Y16.12882
G02 X-7.58812 Y14.67882 I-1.45000 J0.00000
G02 X-9.03812 Y16.12882 I-0.00000 J1.45000
G02 X-7.58812 Y17.57882 I1.45000 J-0.00000
G02 X-6.18699 Y16.50213 I-0.00000 J-1.45000
M50
G02 X-6.13812 Y16.12882 I-1.40112 J-0.37331
G01 X-6.13812 Y15.72882
G260
M08
G40
M51
G00 X-0.36549 Y16.80904
(PartName=770936-2)
G41
N14 M07
G261
G01 X-0.36549 Y16.40904
G02 X-1.81549 Y14.95904 I-1.45000 J0.00000
G02 X-3.26549 Y16.40904 I-0.00000 J1.45000
G02 X-1.81549 Y17.85904 I1.45000 J0.00000
G02 X-0.41437 Y16.78235 I0.00000 J-1.45000
M50
G02 X-0.36549 Y16.40904 I-1.40112 J-0.37331
G01 X-0.36549 Y16.00904
G260
M08
G40
M51
G00 X-0.36641 Y17.85904
(PartName=Remnant)
T21
G40
M07
G00 X-0.02000 Y18.05904
G01 X-0.42000 Y18.05904
G01 X-23.60000 Y18.05904
M50
G01 X-24.00000 Y18.05904
M08
M51
(PlanFooterCommand)
T0
#CS OFF
M30
